UARobotics-Lab/beta_unitree_utilities/arm_movement/g1_pcColiVRi/Robotics4p0/110425/data_g1_20250411_105034.csv
timestamp,q_joint15,tau_joint15,q_joint16,tau_joint16,q_joint17,tau_joint17,q_joint18,tau_joint18,q_joint19,tau_joint19,q_joint20,tau_joint20,q_joint21,tau_joint21,q_joint22,tau_joint22,q_joint23,tau_joint23,q_joint24,tau_joint24,q_joint25,tau_joint25,q_joint26,tau_joint26,q_joint27,tau_joint27,q_joint28,tau_joint28,q_joint12,tau_joint12,q_joint13,tau_joint13,q_joint14,tau_joint14
2025-04-11 10:50:35.502909,0.2908139228820801,0.6875,0.22355210781097412,1.4375,-0.011532783508300781,0.375,0.9732711315155029,-0.375,0.08253741264343262,0.0625,0.012125015258789062,-0.068359375,0.0036132335662841797,0.01953125,0.29402589797973633,0.625,-0.24272680282592773,-0.5625,0.02392435073852539,-0.3125,0.978759765625,-0.4375,-0.18970054388046265,0.0625,0.0623631477355957,-0.21484375,0.043103694915771484,-0.146484375,-0.0004455447196960449,0.0,0.0,0.0,0.0,0.0
2025-04-11 10:50:36.021610,0.29077792167663574,0.6875,0.2235400676727295,1.375,-0.011580705642700195,0.3125,0.9732468128204346,-0.3125,0.08253741264343262,0.0625,0.012125015258789062,-0.078125,0.0035979747772216797,0.01953125,0.2920963764190674,0.8125,-0.23976659774780273,-0.75,0.02435588836669922,-0.3125,0.9792509078979492,-0.4375,-0.1895926594734192,0.0625,0.0623326301574707,-0.21484375,0.043111324310302734,-0.126953125,-0.0007535815238952637,0.0,0.0,0.0,0.0,0.0
2025-04-11 10:50:36.519170,0.2394254207611084,-0.0625,0.12009227275848389,0.0,-0.012263774871826172,0.0625,0.9940993785858154,-0.1875,0.08161473274230957,-0.125,0.012309074401855469,-0.029296875,0.010907411575317383,-0.029296875,0.24805426597595215,0.375,-0.22016048431396484,-0.125,0.03462624549865723,0.125,1.0612468719482422,-0.25,-0.19095885753631592,-0.0625,0.06599140167236328,0.01953125,0.044538021087646484,0.01953125,-0.0007268190383911133,-0.22372159361839294,0.0,0.0,0.0,0.0
2025-04-11 10:50:37.002660,0.23937749862670898,0.0625,0.11924135684967041,0.4375,-0.011856317520141602,0.125,0.9947106838226318,-0.1875,0.0816507339477539,-0.0625,0.012301445007324219,-0.029296875,0.014780759811401367,-0.01953125,0.23728060722351074,0.4375,-0.22053194046020508,-0.1875,0.03459024429321289,0.0625,1.0911235809326172,-0.4375,-0.19127047061920166,-0.125,0.06591463088989258,0.01953125,0.044545650482177734,0.01953125,-0.00036519765853881836,-0.22372159361839294,0.0,0.0,0.0,0.0
2025-04-11 10:50:37.488062,0.24034833908081055,0.4375,0.12669551372528076,0.9375,-0.012311697006225586,0.1875,0.9945309162139893,-0.375,0.08161473274230957,-0.125,0.012293815612792969,-0.029296875,0.013875722885131836,-0.068359375,0.23964142799377441,0.6875,-0.220184326171875,-0.3125,0.034650325775146484,0.0,1.0813446044921875,-0.8125,-0.19122254848480225,-0.0625,0.06591463088989258,-0.01953125,0.044538021087646484,0.01953125,-0.0006196498870849609,-0.1677911877632141,0.0,0.0,0.0,0.0
2025-04-11 10:50:37.966278,0.24368000030517578,0.6875,0.1387397050857544,1.375,-0.013330459594726562,0.125,0.993476152420044,-0.5,0.08163857460021973,-0.0625,0.012293815612792969,-0.029296875,0.009427070617675781,-0.048828125,0.25725817680358887,0.75,-0.22069978713989258,-0.5,0.034386634826660156,-0.0625,1.0430431365966797,-0.9375,-0.1912824511528015,-0.0625,0.06591463088989258,-0.048828125,0.044522762298583984,0.0,-0.0008473396301269531,-0.1677911877632141,0.0,0.0,0.0,0.0
2025-04-11 10:50:38.440999,0.2541542053222656,0.8125,0.15252149105072021,1.75,-0.013330459594726562,0.1875,0.9923017024993896,-0.625,0.08161473274230957,-0.0625,0.012270927429199219,-0.029296875,0.0052852630615234375,-0.01953125,0.26334619522094727,0.9375,-0.22561311721801758,-0.5,0.03395509719848633,-0.0625,1.0142569541931152,-0.8125,-0.19127047061920166,-0.0625,0.06589126586914062,-0.068359375,0.044515132904052734,-0.009765625,-0.0006999969482421875,-0.22372159361839294,0.0,0.0,0.0,0.0
2025-04-11 10:50:38.919739,0.25910353660583496,0.9375,0.17496800422668457,1.5625,-0.013354301452636719,0.1875,0.9903485774993896,-0.75,0.08163857460021973,-0.125,0.012278556823730469,-0.029296875,0.0049479007720947266,-0.01953125,0.2630345821380615,1.1875,-0.2248702049255371,-0.6875,0.033811330795288086,-0.25,1.002248764038086,-0.6875,-0.1912105679512024,-0.0625,0.06581497192382812,-0.09765625,0.044507503509521484,-0.01953125,0.000853419303894043,-0.2796519994735718,0.0,0.0,0.0,0.0
2025-04-11 10:50:39.394844,0.26314234733581543,1.0,0.18487894535064697,1.5625,-0.013366460800170898,0.1875,0.9879758358001709,-0.75,0.08161473274230957,-0.0625,0.012286186218261719,-0.029296875,0.0048635005950927734,-0.01953125,0.26865530014038086,1.125,-0.2324204444885254,-0.5,0.032013654708862305,-0.25,1.001457691192627,-0.8125,-0.1912584900856018,-0.0625,0.06582260131835938,-0.1171875,0.044499874114990234,-0.029296875,0.0006525516510009766,-0.2796519994735718,0.0,0.0,0.0,0.0
2025-04-11 10:50:39.900064,0.2668933868408203,1.0,0.18647289276123047,1.8125,-0.013390302658081055,0.1875,0.985830545425415,-0.75,0.08167457580566406,0.0,0.012278556823730469,-0.0390625,0.004794597625732422,-0.029296875,0.26906275749206543,1.3125,-0.2292804718017578,-0.6875,0.032097578048706055,-0.25,0.9969754219055176,-0.75,-0.1911146640777588,0.0,0.06579160690307617,-0.15625,0.04448413848876953,-0.029296875,0.000853419303894043,-0.2796519994735718,0.0,0.0,0.0,0.0
2025-04-11 10:50:40.386654,0.26742053031921387,1.1875,0.18860602378845215,1.875,-0.013390302658081055,0.1875,0.9823791980743408,-0.625,0.08167457580566406,-0.0625,0.012270927429199219,-0.0390625,0.004740715026855469,-0.048828125,0.2699015140533447,1.375,-0.22935247421264648,-0.75,0.032025814056396484,-0.25,0.9950103759765625,-0.75,-0.19115060567855835,0.0,0.06577634811401367,-0.166015625,0.04447650909423828,-0.05859375,0.0007328987121582031,-0.2796519994735718,0.0,0.0,0.0,0.0
2025-04-11 10:50:40.862671,0.22862768173217773,-0.25,0.11563408374786377,0.0,-0.010945558547973633,0.125,0.9920861721038818,-0.875,0.08121919631958008,-0.1875,0.012477874755859375,-0.029296875,0.013752937316894531,-0.107421875,0.22349858283996582,0.375,-0.22144269943237305,0.0625,0.034314632415771484,0.0625,1.0385727882385254,-0.6875,-0.19122254848480225,0.0,0.07445096969604492,-0.05859375,0.04465293884277344,-0.01953125,0.0027149319648742676,-0.22372159361839294,0.0,0.0,0.0,0.0
2025-04-11 10:50:41.345149,0.20444345474243164,-0.875,0.08674013614654541,-0.1875,-0.00998687744140625,0.1875,0.812934160232544,-1.4375,0.07956528663635254,-0.4375,0.018843650817871094,-0.33203125,0.024866580963134766,-0.05859375,0.18628764152526855,-0.6875,-0.2254934310913086,0.8125,0.02769947052001953,0.0625,0.8437809944152832,-1.5,-0.18060451745986938,0.5,0.08182954788208008,-0.44921875,0.043709754943847656,-0.107421875,0.0028756260871887207,-0.22372159361839294,0.0,0.0,0.0,0.0
2025-04-11 10:50:41.827766,0.13135170936584473,-1.375,0.009489774703979492,-0.1875,-0.01154470443725586,0.1875,0.3668091297149658,-1.8125,0.03688955307006836,-0.3125,0.02940511703491211,-0.3125,0.020218610763549805,-0.146484375,0.1930227279663086,-1.6875,-0.1814274787902832,1.0,0.008237123489379883,0.375,0.44558143615722656,-2.4375,-0.10180824995040894,0.4375,0.08643913269042969,-0.810546875,0.035840511322021484,-0.146484375,-0.025327682495117188,0.11186079680919647,0.0,0.0,0.0,0.0
2025-04-11 10:50:42.308474,0.11778569221496582,-2.125,0.008830666542053223,-0.25,-0.010250568389892578,0.3125,0.160872220993042,-2.6875,0.013268709182739258,-0.3125,0.029167652130126953,-0.52734375,0.009143352508544922,-0.068359375,0.15671062469482422,-2.1875,-0.057822227478027344,0.5625,-0.0005354881286621094,0.1875,0.20909643173217773,-3.0,-0.032203853130340576,0.125,0.08365488052368164,-1.42578125,0.015768051147460938,-0.224609375,-0.02519381046295166,0.22372159361839294,0.0,0.0,0.0,0.0
2025-04-11 10:50:42.783427,0.0877530574798584,-2.4375,0.008327364921569824,-0.3125,-0.00941157341003418,0.375,0.10002851486206055,-2.625,0.0025787353515625,-0.1875,0.028707504272460938,-0.76171875,0.004687070846557617,-0.09765625,0.11843299865722656,-2.75,-0.044927120208740234,1.0,-0.0019614696502685547,0.1875,0.13163042068481445,-3.125,-0.025037288665771484,0.4375,0.06905126571655273,-1.640625,0.0070781707763671875,-0.15625,-0.024376869201660156,0.4474431872367859,0.0,0.0,0.0,0.0
2025-04-11 10:50:43.259451,0.06371283531188965,-2.1875,0.006793379783630371,-0.375,-0.008860349655151367,0.4375,0.08049416542053223,-2.8125,0.0023031234741210938,-0.1875,0.02449655532836914,-0.869140625,0.0045413970947265625,-0.126953125,0.08733391761779785,-2.8125,-0.025416851043701172,0.6875,-0.002632617950439453,0.25,0.1004476547241211,-3.3125,-0.009038329124450684,0.1875,0.049930572509765625,-1.66015625,0.003043651580810547,-0.05859375,-0.0208280086517334,0.4474431872367859,0.0,0.0,0.0,0.0
2025-04-11 10:50:43.739494,0.05583906173706055,-2.5,0.005391240119934082,-0.3125,-0.007877588272094727,0.5,0.058107614517211914,-2.5625,0.0020635128021240234,-0.1875,0.02042388916015625,-0.8984375,0.0042498111724853516,-0.15625,0.057433366775512695,-2.1875,-0.022936344146728516,0.8125,-0.0024290084838867188,0.1875,0.07719802856445312,-3.0625,-0.008163511753082275,0.25,0.03706789016723633,-1.435546875,0.0010190010070800781,-0.01953125,-0.009578824043273926,0.22372159361839294,0.0,0.0,0.0,0.0
2025-04-11 10:50:44.211354,0.05124926567077637,-2.6875,0.0047800540924072266,-0.375,-0.007050752639770508,0.5,0.052606821060180664,-2.8125,0.0020034313201904297,-0.25,0.018299102783203125,-0.947265625,0.003989219665527344,-0.166015625,0.055635690689086914,-2.625,-0.017758846282958984,0.625,-0.002404928207397461,0.25,0.07435798645019531,-3.625,-0.0061261653900146484,0.125,0.030379772186279297,-1.474609375,0.0008578300476074219,-0.009765625,-0.009672582149505615,0.2796519994735718,0.0,0.0,0.0,0.0
2025-04-11 10:50:44.689144,0.04615592956542969,-2.75,0.0045163631439208984,-0.375,-0.006978750228881836,0.5,0.048328399658203125,-2.8125,0.0019195079803466797,-0.1875,0.012608051300048828,-0.712890625,0.003797292709350586,-0.166015625,0.05559968948364258,-2.9375,-0.008710861206054688,0.3125,-0.0022013187408447266,0.3125,0.0696721076965332,-3.5625,-0.005586862564086914,0.1875,0.02874612808227539,-1.572265625,0.0007581710815429688,-0.009765625,-0.009578824043273926,0.3355823755264282,0.0,0.0,0.0,0.0
2025-04-11 10:50:45.230771,0.045029401779174805,-2.8125,0.003977060317993164,-0.375,-0.0065953731536865234,0.5,0.04347491264343262,-2.625,0.0018837451934814453,-0.1875,0.012109756469726562,-0.732421875,0.003674745559692383,-0.17578125,0.05536007881164551,-3.125,-0.0026230812072753906,0.0,0.002652406692504883,0.0,0.06611299514770508,-3.75,-0.0048798322677612305,0.125,0.02734231948852539,-1.572265625,0.0005202293395996094,0.0,-0.00473099946975708,0.11186079680919647,0.0,0.0,0.0,0.0
2025-04-11 10:50:45.720957,0.040343523025512695,-2.5,0.00392913818359375,-0.375,-0.006583213806152344,0.5,0.042420148849487305,-2.6875,0.0018477439880371094,-0.25,0.011956214904785156,-0.72265625,0.0036287307739257812,-0.1953125,0.05526399612426758,-3.125,-0.0026230812072753906,0.0,0.0025925636291503906,0.0,0.06610107421875,-3.8125,-0.0047959089279174805,0.125,0.027135372161865234,-1.58203125,0.00042819976806640625,0.0,-0.004797935485839844,0.11186079680919647,0.0,0.0,0.0,0.0
2025-04-11 10:50:46.195911,0.04031968116760254,-2.5,0.00392913818359375,-0.375,-0.0066072940826416016,0.5,0.04232430458068848,-2.625,0.0018117427825927734,-0.1875,0.011910438537597656,-0.72265625,0.0036287307739257812,-0.17578125,0.0552520751953125,-3.125,-0.0026230812072753906,0.0,0.0026044845581054688,0.0,0.06610107421875,-3.75,-0.00475996732711792,0.125,0.027104854583740234,-1.58203125,0.00040531158447265625,0.0,-0.004797935485839844,0.11186079680919647,0.0,0.0,0.0,0.0
2025-04-11 10:50:46.710044,0.04031968116760254,-2.5,0.003905177116394043,-0.3125,-0.0065953731536865234,0.5,0.04232430458068848,-2.5625,0.0018117427825927734,-0.1875,0.011887073516845703,-0.732421875,0.0036211013793945312,-0.17578125,0.055228233337402344,-3.125,-0.0026230812072753906,0.0,0.002580404281616211,0.0,0.06611299514770508,-3.75,-0.004676103591918945,0.125,0.027081966400146484,-1.58203125,0.00041294097900390625,0.01953125,-0.004784524440765381,0.11186079680919647,0.0,0.0,0.0,0.0
2025-04-11 10:50:47.183911,0.04031968116760254,-2.5,0.003905177116394043,-0.3125,-0.006571292877197266,0.5,0.04230046272277832,-2.625,0.0017757415771484375,-0.1875,0.011871814727783203,-0.72265625,0.0036056041717529297,-0.1953125,0.05524015426635742,-3.125,-0.0026106834411621094,0.0,0.002580404281616211,0.0,0.06610107421875,-3.8125,-0.004664123058319092,0.125,0.027081966400146484,-1.572265625,0.00039005279541015625,0.0,-0.004797935485839844,0.11186079680919647,0.0,0.0,0.0,0.0
2025-04-11 10:50:47.674138,0.04030752182006836,-2.5,0.003905177116394043,-0.3125,-0.0065593719482421875,0.5,0.04228830337524414,-2.625,0.0017397403717041016,-0.25,0.011856555938720703,-0.72265625,0.0035903453826904297,-0.17578125,0.05524015426635742,-3.125,-0.0026230812072753906,0.0,0.002616405487060547,0.0,0.06610107421875,-3.75,-0.004724025726318359,0.0625,0.02707386016845703,-1.572265625,0.00039005279541015625,0.01953125,-0.004797935485839844,0.11186079680919647,0.0,0.0,0.0,0.0
2025-04-11 10:50:48.150360,0.04029560089111328,-2.5,0.003893136978149414,-0.3125,-0.0065593719482421875,0.5,0.04228830337524414,-2.625,0.0017278194427490234,-0.1875,0.011848926544189453,-0.72265625,0.0035827159881591797,-0.1953125,0.05524015426635742,-3.125,-0.0026230812072753906,0.0,0.0025925636291503906,0.0,0.06608867645263672,-3.8125,-0.004652142524719238,0.125,0.02706623077392578,-1.58203125,0.00037479400634765625,0.01953125,-0.004797935485839844,0.11186079680919647,0.0,0.0,0.0,0.0
2025-04-11 10:50:48.633950,0.04030752182006836,-2.5,0.003881216049194336,-0.3125,-0.006571292877197266,0.5,0.04227638244628906,-2.625,0.0017278194427490234,-0.1875,0.011848926544189453,-0.72265625,0.0035827159881591797,-0.17578125,0.05524015426635742,-3.125,-0.0026230812072753906,0.0,0.0026044845581054688,0.0,0.06610107421875,-3.8125,-0.004676103591918945,0.125,0.02707386016845703,-1.572265625,0.00038242340087890625,0.01953125,-0.004784524440765381,0.11186079680919647,0.0,0.0,0.0,0.0
2025-04-11 10:50:49.135236,0.0402836799621582,-2.5,0.003809332847595215,-0.375,-0.006583213806152344,0.5,0.042264461517333984,-2.625,0.0017039775848388672,-0.1875,0.011833667755126953,-0.732421875,0.0035827159881591797,-0.17578125,0.055228233337402344,-3.125,-0.0026230812072753906,0.0,0.002580404281616211,0.0,0.06610107421875,-3.8125,-0.004652142524719238,0.125,0.02706623077392578,-1.58203125,0.00037479400634765625,0.01953125,-0.004797935485839844,0.11186079680919647,0.0,0.0,0.0,0.0
2025-04-11 10:50:49.623545,0.04029560089111328,-2.5,0.003809332847595215,-0.3125,-0.0065593719482421875,0.5,0.04224038124084473,-2.625,0.0017158985137939453,-0.1875,0.011833667755126953,-0.72265625,0.0035827159881591797,-0.166015625,0.05524015426635742,-3.125,-0.0026106834411621094,0.0,0.002616405487060547,0.0,0.06610107421875,-3.8125,-0.004688084125518799,0.125,0.02705860137939453,-1.58203125,0.00038242340087890625,0.0,-0.004784524440765381,0.11186079680919647,0.0,0.0,0.0,0.0
2025-04-11 10:50:50.102500,0.0402836799621582,-2.5,0.003713369369506836,-0.3125,-0.006547451019287109,0.5,0.04224038124084473,-2.625,0.0016798973083496094,-0.25,0.011833667755126953,-0.712890625,0.0035750865936279297,-0.1953125,0.055216073989868164,-3.1875,-0.0026230812072753906,0.0,0.0026044845581054688,0.0,0.06608867645263672,-3.75,-0.004700064659118652,0.125,0.02706623077392578,-1.58203125,0.00038242340087890625,0.01953125,-0.004784524440765381,0.11186079680919647,0.0,0.0,0.0,0.0
2025-04-11 10:50:50.577591,0.04030752182006836,-2.5,0.003737330436706543,-0.375,-0.006547451019287109,0.5625,0.04222846031188965,-2.6875,0.0016558170318603516,-0.1875,0.011833667755126953,-0.72265625,0.003567218780517578,-0.17578125,0.055216073989868164,-3.125,-0.0026106834411621094,0.0,0.0026044845581054688,0.0,0.06610107421875,-3.8125,-0.004640102386474609,0.125,0.02706623077392578,-1.572265625,0.00038242340087890625,0.0,-0.004784524440765381,0.11186079680919647,0.0,0.0,0.0,0.0
2025-04-11 10:50:51.126496,0.04029560089111328,-2.5,0.003689408302307129,-0.375,-0.0065593719482421875,0.5625,0.04220461845397949,-2.625,0.0016438961029052734,-0.25,0.011826038360595703,-0.72265625,0.003559589385986328,-0.17578125,0.055228233337402344,-3.1875,-0.0026230812072753906,0.0,0.002568483352661133,0.0,0.06610107421875,-3.75,-0.004676103591918945,0.125,0.02706623077392578,-1.572265625,0.00038242340087890625,0.0,-0.004784524440765381,0.11186079680919647,0.0,0.0,0.0,0.0
2025-04-11 10:50:51.627673,0.0402836799621582,-2.5625,0.0035816431045532227,-0.3125,-0.0065593719482421875,0.5,0.04220461845397949,-2.625,0.0016438961029052734,-0.25,0.011818408966064453,-0.72265625,0.0035750865936279297,-0.17578125,0.055216073989868164,-3.125,-0.0026230812072753906,0.0,0.0025925636291503906,0.0,0.06611299514770508,-3.8125,-0.004640102386474609,0.125,0.02705097198486328,-1.572265625,0.00037479400634765625,0.0,-0.0047577619552612305,0.11186079680919647,0.0,0.0,0.0,0.0
2025-04-11 10:50:52.102046,0.04024767875671387,-2.5,0.0035576820373535156,-0.3125,-0.006547451019287109,0.5,0.042180538177490234,-2.625,0.0016438961029052734,-0.1875,0.011826038360595703,-0.72265625,0.0035750865936279297,-0.166015625,0.055216073989868164,-3.125,-0.0026230812072753906,0.0,0.0025925636291503906,0.0,0.06611299514770508,-3.8125,-0.004652142524719238,0.125,0.02706623077392578,-1.572265625,0.00035953521728515625,0.01953125,-0.004784524440765381,0.11186079680919647,0.0,0.0,0.0,0.0
2025-04-11 10:50:52.588228,0.04024767875671387,-2.5,0.0032460689544677734,-0.3125,-0.0065593719482421875,0.5625,0.04220461845397949,-2.625,0.0016319751739501953,-0.1875,0.011818408966064453,-0.72265625,0.003559589385986328,-0.17578125,0.055228233337402344,-3.125,-0.0026106834411621094,0.0,0.0026044845581054688,0.0,0.06611299514770508,-3.8125,-0.004652142524719238,0.125,0.02705860137939453,-1.572265625,0.00036716461181640625,-0.009765625,-0.004784524440765381,0.11186079680919647,0.0,0.0,0.0,0.0
2025-04-11 10:50:53.099635,0.04024767875671387,-2.5,0.0032579898834228516,-0.3125,-0.006547451019287109,0.5,0.04219245910644531,-2.625,0.0016438961029052734,-0.1875,0.011826038360595703,-0.72265625,0.003567218780517578,-0.166015625,0.055216073989868164,-3.125,-0.0026106834411621094,0.0,0.0026044845581054688,0.0,0.06610107421875,-3.8125,-0.004664123058319092,0.125,0.02706623077392578,-1.572265625,0.00036716461181640625,0.01953125,-0.004797935485839844,0.1677911877632141,0.0,0.0,0.0,0.0
2025-04-11 10:50:53.575619,0.04024767875671387,-2.5,0.0032340288162231445,-0.3125,-0.0065593719482421875,0.5,0.04219245910644531,-2.625,0.0016200542449951172,-0.1875,0.011818408966064453,-0.72265625,0.003567218780517578,-0.17578125,0.055216073989868164,-3.125,-0.0026106834411621094,0.0,0.0025925636291503906,0.0,0.06610107421875,-3.8125,-0.004664123058319092,0.125,0.02705860137939453,-1.58203125,0.00036716461181640625,0.01953125,-0.004797935485839844,0.11186079680919647,0.0,0.0,0.0,0.0
2025-04-11 10:50:54.049775,0.04024767875671387,-2.5,0.0032579898834228516,-0.3125,-0.0065593719482421875,0.5,0.04219245910644531,-2.625,0.0016200542449951172,-0.1875,0.011818408966064453,-0.72265625,0.0035750865936279297,-0.17578125,0.055216073989868164,-3.1875,-0.0026230812072753906,0.0,0.0026044845581054688,0.0,0.06610107421875,-3.75,-0.004652142524719238,0.125,0.02705860137939453,-1.591796875,0.00035953521728515625,0.0,-0.004797935485839844,0.11186079680919647,0.0,0.0,0.0,0.0
2025-04-11 10:50:54.524566,0.04023575782775879,-2.5,0.0032100677490234375,-0.3125,-0.006547451019287109,0.5,0.042168617248535156,-2.6875,0.0016319751739501953,-0.1875,0.011818408966064453,-0.72265625,0.003567218780517578,-0.17578125,0.055228233337402344,-3.125,-0.0026350021362304688,0.0,0.002568483352661133,0.0,0.06608867645263672,-3.8125,-0.004664123058319092,0.125,0.02706623077392578,-1.58203125,0.00035953521728515625,0.0,-0.004797935485839844,0.11186079680919647,0.0,0.0,0.0,0.0
2025-04-11 10:50:55.003310,0.04023575782775879,-2.5,0.0032100677490234375,-0.3125,-0.006571292877197266,0.5,0.042180538177490234,-2.625,0.0016200542449951172,-0.1875,0.011818408966064453,-0.72265625,0.0035750865936279297,-0.17578125,0.055216073989868164,-3.125,-0.0026350021362304688,0.0,0.0025925636291503906,0.0,0.06611299514770508,-3.8125,-0.004652142524719238,0.125,0.02706623077392578,-1.572265625,0.00035190582275390625,0.01953125,-0.004797935485839844,0.11186079680919647,0.0,0.0,0.0,0.0
2025-04-11 10:50:55.478399,0.04023575782775879,-2.5,0.0032221078872680664,-0.3125,-0.006571292877197266,0.5,0.042168617248535156,-2.625,0.0016319751739501953,-0.1875,0.011818408966064453,-0.72265625,0.003567218780517578,-0.17578125,0.055216073989868164,-3.125,-0.0026230812072753906,0.0,0.002568483352661133,0.0,0.06610107421875,-3.75,-0.004688084125518799,0.125,0.02706623077392578,-1.572265625,0.00035953521728515625,0.01953125,-0.004797935485839844,0.11186079680919647,0.0,0.0,0.0,0.0
2025-04-11 10:50:55.980576,0.04023575782775879,-2.5,0.0032221078872680664,-0.3125,-0.006571292877197266,0.5,0.042168617248535156,-2.6875,0.0016319751739501953,-0.1875,0.011818408966064453,-0.712890625,0.003567218780517578,-0.166015625,0.055216073989868164,-3.125,-0.0026106834411621094,0.0,0.0026044845581054688,0.0,0.06608867645263672,-3.8125,-0.004700064659118652,0.125,0.02705860137939453,-1.58203125,0.00035190582275390625,0.0,-0.004797935485839844,0.11186079680919647,0.0,0.0,0.0,0.0
2025-04-11 10:50:56.449227,0.04024767875671387,-2.5,0.0032221078872680664,-0.3125,-0.006571292877197266,0.5,0.042168617248535156,-2.625,0.0016319751739501953,-0.1875,0.011818408966064453,-0.72265625,0.003559589385986328,-0.166015625,0.05519223213195801,-3.125,-0.0026230812072753906,0.0,0.0025925636291503906,0.0,0.06610107421875,-3.8125,-0.004640102386474609,0.125,0.02707386016845703,-1.58203125,0.00035953521728515625,0.01953125,-0.004797935485839844,0.11186079680919647,0.0,0.0,0.0,0.0
2025-04-11 10:50:56.960435,0.04022359848022461,-2.5,0.0032221078872680664,-0.3125,-0.00653529167175293,0.5,0.042168617248535156,-2.625,0.0016200542449951172,-0.1875,0.011818408966064453,-0.72265625,0.003559589385986328,-0.17578125,0.055216073989868164,-3.125,-0.0026106834411621094,0.0,0.002580404281616211,0.0,0.06610107421875,-3.75,-0.004640102386474609,0.125,0.02706623077392578,-1.572265625,0.00035190582275390625,0.01953125,-0.004797935485839844,0.11186079680919647,0.0,0.0,0.0,0.0
2025-04-11 10:50:57.437861,0.04021167755126953,-2.5,0.0032100677490234375,-0.3125,-0.006547451019287109,0.5,0.042168617248535156,-2.6875,0.0016319751739501953,-0.25,0.011818408966064453,-0.72265625,0.003559589385986328,-0.17578125,0.055204153060913086,-3.125,-0.0026106834411621094,0.0,0.002580404281616211,0.0,0.06611299514770508,-3.8125,-0.004628121852874756,0.125,0.02706623077392578,-1.572265625,0.00035953521728515625,0.0,-0.004797935485839844,0.11186079680919647,0.0,0.0,0.0,0.0
2025-04-11 10:50:57.917683,0.04024767875671387,-2.5,0.0032100677490234375,-0.3125,-0.0065593719482421875,0.5,0.042168617248535156,-2.625,0.0016319751739501953,-0.1875,0.011818408966064453,-0.72265625,0.003559589385986328,-0.17578125,0.055204153060913086,-3.125,-0.0026106834411621094,0.0,0.002580404281616211,0.0,0.06611299514770508,-3.8125,-0.004652142524719238,0.125,0.02706623077392578,-1.58203125,0.00035953521728515625,0.01953125,-0.004797935485839844,0.11186079680919647,0.0,0.0,0.0,0.0
2025-04-11 10:50:58.398637,0.04022359848022461,-2.5,0.0031981468200683594,-0.3125,-0.006547451019287109,0.5,0.042168617248535156,-2.625,0.0016319751739501953,-0.1875,0.011818408966064453,-0.72265625,0.003567218780517578,-0.17578125,0.055216073989868164,-3.125,-0.0026230812072753906,0.0,0.0025925636291503906,0.0,0.06611299514770508,-3.8125,-0.004652142524719238,0.125,0.02705860137939453,-1.5625,0.00035190582275390625,0.0,-0.004811346530914307,0.11186079680919647,0.0,0.0,0.0,0.0
2025-04-11 10:50:58.876574,0.04022359848022461,-2.5,0.0032100677490234375,-0.3125,-0.0065593719482421875,0.5,0.0421445369720459,-2.6875,0.0016319751739501953,-0.1875,0.011818408966064453,-0.72265625,0.003559589385986328,-0.17578125,0.055204153060913086,-3.125,-0.0026230812072753906,0.0,0.002580404281616211,0.0,0.06610107421875,-3.8125,-0.004652142524719238,0.0625,0.02705860137939453,-1.572265625,0.00036716461181640625,0.0,-0.004797935485839844,0.11186079680919647,0.0,0.0,0.0,0.0
2025-04-11 10:50:59.411669,0.04021167755126953,-2.5,0.0031741857528686523,-0.3125,-0.006547451019287109,0.5,0.04215669631958008,-2.6875,0.0016319751739501953,-0.25,0.011810302734375,-0.72265625,0.003567218780517578,-0.17578125,0.055216073989868164,-3.125,-0.0026230812072753906,0.0,0.002568483352661133,0.0,0.06608867645263672,-3.8125,-0.004616141319274902,0.125,0.02705860137939453,-1.572265625,0.00035953521728515625,0.01953125,-0.004797935485839844,0.11186079680919647,0.0,0.0,0.0,0.0
2025-04-11 10:50:59.886312,0.04021167755126953,-2.5,0.0031501054763793945,-0.3125,-0.006547451019287109,0.5,0.0421445369720459,-2.6875,0.0015959739685058594,-0.25,0.011818408966064453,-0.732421875,0.0035750865936279297,-0.17578125,0.055216073989868164,-3.125,-0.0026106834411621094,0.0,0.002580404281616211,0.0,0.06610107421875,-3.8125,-0.004640102386474609,0.125,0.02705097198486328,-1.572265625,0.00035190582275390625,0.0,-0.004784524440765381,0.11186079680919647,0.0,0.0,0.0,0.0
2025-04-11 10:51:00.395742,0.04019975662231445,-2.5,0.0031501054763793945,-0.3125,-0.0065114498138427734,0.5,0.0421445369720459,-2.625,0.0016200542449951172,-0.25,0.011818408966064453,-0.72265625,0.003567218780517578,-0.17578125,0.055204153060913086,-3.125,-0.0026350021362304688,0.0,0.002568483352661133,0.0,0.06610107421875,-3.8125,-0.004664123058319092,0.125,0.02704334259033203,-1.572265625,0.00034427642822265625,0.0,-0.004797935485839844,0.1677911877632141,0.0,0.0,0.0,0.0
2025-04-11 10:51:00.891438,0.04019975662231445,-2.5625,0.0031142234802246094,-0.3125,-0.006547451019287109,0.5,0.0421445369720459,-2.625,0.0016319751739501953,-0.1875,0.011818408966064453,-0.72265625,0.003559589385986328,-0.1953125,0.055204153060913086,-3.1875,-0.0026230812072753906,0.0,0.0025925636291503906,0.0,0.06611299514770508,-3.8125,-0.004640102386474609,0.125,0.02705860137939453,-1.58203125,0.00035190582275390625,0.0,-0.004797935485839844,0.11186079680919647,0.0,0.0,0.0,0.0
2025-04-11 10:51:01.389311,0.04019975662231445,-2.5,0.0031381845474243164,-0.3125,-0.0065593719482421875,0.5,0.04215669631958008,-2.625,0.0016319751739501953,-0.1875,0.011818408966064453,-0.72265625,0.003567218780517578,-0.17578125,0.05519223213195801,-3.125,-0.0026106834411621094,0.0,0.0025925636291503906,0.0,0.06610107421875,-3.8125,-0.004628121852874756,0.125,0.02705860137939453,-1.572265625,0.00035190582275390625,0.0,-0.004811346530914307,0.11186079680919647,0.0,0.0,0.0,0.0
2025-04-11 10:51:01.893677,0.04019975662231445,-2.5625,0.0031381845474243164,-0.3125,-0.00653529167175293,0.5,0.04215669631958008,-2.625,0.0016319751739501953,-0.1875,0.011818408966064453,-0.72265625,0.003567218780517578,-0.17578125,0.055204153060913086,-3.125,-0.0026106834411621094,0.0,0.0025925636291503906,0.0,0.06608867645263672,-3.8125,-0.004640102386474609,0.125,0.02705097198486328,-1.58203125,0.00035190582275390625,0.0,-0.004797935485839844,0.11186079680919647,0.0,0.0,0.0,0.0
2025-04-11 10:51:02.367718,0.04019975662231445,-2.5,0.0030902624130249023,-0.3125,-0.0065593719482421875,0.5,0.0421445369720459,-2.6875,0.0016078948974609375,-0.1875,0.011818408966064453,-0.712890625,0.003559589385986328,-0.17578125,0.055204153060913086,-3.125,-0.0026230812072753906,0.0,0.0025925636291503906,0.0,0.06610107421875,-3.8125,-0.004640102386474609,0.125,0.02705860137939453,-1.572265625,0.00035953521728515625,0.01953125,-0.004797935485839844,0.11186079680919647,0.0,0.0,0.0,0.0
2025-04-11 10:51:02.844004,0.04021167755126953,-2.5,0.0031021833419799805,-0.3125,-0.006571292877197266,0.5,0.0421445369720459,-2.625,0.0016200542449951172,-0.1875,0.011810302734375,-0.72265625,0.003567218780517578,-0.17578125,0.05519223213195801,-3.125,-0.002586841583251953,0.0,0.002580404281616211,0.0,0.06611299514770508,-3.8125,-0.004640102386474609,0.125,0.02705097198486328,-1.58203125,0.00035190582275390625,0.0,-0.004797935485839844,0.11186079680919647,0.0,0.0,0.0,0.0
2025-04-11 10:51:03.318759,0.04019975662231445,-2.5,0.0031021833419799805,-0.3125,-0.00653529167175293,0.5,0.04213261604309082,-2.625,0.0016200542449951172,-0.1875,0.011810302734375,-0.72265625,0.003559589385986328,-0.17578125,0.055204153060913086,-3.125,-0.0026230812072753906,0.0,0.002580404281616211,0.0,0.06611299514770508,-3.8125,-0.004676103591918945,0.125,0.02705097198486328,-1.572265625,0.00035190582275390625,0.0,-0.004797935485839844,0.11186079680919647,0.0,0.0,0.0,0.0
2025-04-11 10:51:03.859295,0.040187835693359375,-2.5,0.0030663013458251953,-0.3125,-0.0065593719482421875,0.5,0.0421445369720459,-2.625,0.0016319751739501953,-0.1875,0.011810302734375,-0.72265625,0.003567218780517578,-0.17578125,0.055216073989868164,-3.125,-0.0026230812072753906,0.0,0.0026044845581054688,0.0,0.06610107421875,-3.8125,-0.004640102386474609,0.125,0.02705860137939453,-1.572265625,0.00035190582275390625,0.0,-0.004838109016418457,0.11186079680919647,0.0,0.0,0.0,0.0
2025-04-11 10:51:04.332605,0.040187835693359375,-2.5,0.0030542612075805664,-0.3125,-0.00653529167175293,0.5,0.0421445369720459,-2.625,0.0016319751739501953,-0.1875,0.01180267333984375,-0.72265625,0.003559589385986328,-0.17578125,0.05519223213195801,-3.125,-0.0026106834411621094,0.0,0.002580404281616211,0.0,0.06608867645263672,-3.8125,-0.004640102386474609,0.125,0.02705097198486328,-1.572265625,0.0003361701965332031,0.01953125,-0.004797935485839844,0.055930398404598236,0.0,0.0,0.0,0.0
2025-04-11 10:51:04.849377,0.040187835693359375,-2.5,0.0030183792114257812,-0.3125,-0.0065953731536865234,0.5,0.0421445369720459,-2.625,0.0016319751739501953,-0.1875,0.011810302734375,-0.732421875,0.0035750865936279297,-0.17578125,0.055216073989868164,-3.125,-0.0026106834411621094,0.0,0.002580404281616211,0.0,0.06608867645263672,-3.8125,-0.004640102386474609,0.125,0.02705097198486328,-1.58203125,0.00035190582275390625,0.0,-0.004771173000335693,0.11186079680919647,0.0,0.0,0.0,0.0
2025-04-11 10:51:05.324156,0.04019975662231445,-2.5625,0.0030423402786254883,-0.3125,-0.006571292877197266,0.5,0.0421445369720459,-2.625,0.0016078948974609375,-0.1875,0.01180267333984375,-0.72265625,0.003567218780517578,-0.17578125,0.05519223213195801,-3.125,-0.0026230812072753906,0.0,0.002580404281616211,0.0,0.06608867645263672,-3.8125,-0.004652142524719238,0.125,0.02705097198486328,-1.572265625,0.0003361701965332031,0.0,-0.004797935485839844,0.11186079680919647,0.0,0.0,0.0,0.0
2025-04-11 10:51:05.823043,0.04019975662231445,-2.5,0.0030423402786254883,-0.3125,-0.006571292877197266,0.5625,0.0421445369720459,-2.625,0.0016200542449951172,-0.25,0.011810302734375,-0.72265625,0.003567218780517578,-0.17578125,0.055216073989868164,-3.125,-0.0026106834411621094,0.0,0.002568483352661133,0.0,0.06610107421875,-3.8125,-0.004652142524719238,0.125,0.02705097198486328,-1.572265625,0.00034427642822265625,0.0,-0.004797935485839844,0.11186079680919647,0.0,0.0,0.0,0.0
2025-04-11 10:51:06.351186,0.040187835693359375,-2.5,0.0030183792114257812,-0.3125,-0.0065593719482421875,0.5,0.0421445369720459,-2.625,0.0016200542449951172,-0.1875,0.01180267333984375,-0.72265625,0.003559589385986328,-0.17578125,0.055204153060913086,-3.125,-0.0026106834411621094,0.0,0.0025925636291503906,0.0,0.06608867645263672,-3.8125,-0.004652142524719238,0.125,0.02705860137939453,-1.58203125,0.00034427642822265625,0.01953125,-0.004797935485839844,0.11186079680919647,0.0,0.0,0.0,0.0
2025-04-11 10:51:06.840348,0.04019975662231445,-2.5,0.002970457077026367,-0.3125,-0.006547451019287109,0.5,0.04213261604309082,-2.625,0.0016200542449951172,-0.1875,0.01180267333984375,-0.72265625,0.003551959991455078,-0.17578125,0.055216073989868164,-3.1875,-0.0026230812072753906,0.0,0.002580404281616211,0.0,0.06608867645263672,-3.8125,-0.004652142524719238,0.125,0.02705860137939453,-1.58203125,0.0003285408020019531,0.0,-0.004797935485839844,0.11186079680919647,0.0,0.0,0.0,0.0
2025-04-11 10:51:07.321115,0.040187835693359375,-2.5,0.0029823780059814453,-0.3125,-0.006571292877197266,0.5,0.0421445369720459,-2.5625,0.0016200542449951172,-0.25,0.01180267333984375,-0.72265625,0.003567218780517578,-0.17578125,0.055204153060913086,-3.125,-0.0026350021362304688,0.0,0.002580404281616211,0.0,0.06608867645263672,-3.8125,-0.004640102386474609,0.125,0.02706623077392578,-1.58203125,0.0003285408020019531,0.0,-0.004784524440765381,0.11186079680919647,0.0,0.0,0.0,0.0
2025-04-11 10:51:07.796211,0.04021167755126953,-2.5625,0.0029823780059814453,-0.3125,-0.006547451019287109,0.5,0.0421445369720459,-2.625,0.0016078948974609375,-0.1875,0.01180267333984375,-0.72265625,0.003567218780517578,-0.17578125,0.055216073989868164,-3.125,-0.002586841583251953,0.0,0.002580404281616211,0.0,0.06610107421875,-3.8125,-0.004676103591918945,0.125,0.02704334259033203,-1.58203125,0.0003285408020019531,0.0,-0.004784524440765381,0.11186079680919647,0.0,0.0,0.0,0.0
2025-04-11 10:51:08.273344,0.040187835693359375,-2.5,0.0029224157333374023,-0.3125,-0.006547451019287109,0.5,0.04213261604309082,-2.5625,0.0016319751739501953,-0.1875,0.0117950439453125,-0.72265625,0.003567218780517578,-0.17578125,0.05519223213195801,-3.125,-0.0026106834411621094,0.0,0.002580404281616211,0.0,0.06608867645263672,-3.8125,-0.004676103591918945,0.125,0.02705860137939453,-1.572265625,0.0003361701965332031,0.01953125,-0.004797935485839844,0.11186079680919647,0.0,0.0,0.0,0.0
2025-04-11 10:51:08.756484,0.040187835693359375,-2.5,0.0029104948043823242,-0.3125,-0.006571292877197266,0.5625,0.0421445369720459,-2.625,0.0016078948974609375,-0.25,0.011810302734375,-0.72265625,0.003567218780517578,-0.17578125,0.055204153060913086,-3.125,-0.0026230812072753906,0.0,0.002568483352661133,0.0,0.06611299514770508,-3.8125,-0.004640102386474609,0.125,0.02705097198486328,-1.572265625,0.00034427642822265625,0.0,-0.004811346530914307,0.11186079680919647,0.0,0.0,0.0,0.0
2025-04-11 10:51:09.246327,0.040187835693359375,-2.5,0.0028984546661376953,-0.3125,-0.0065593719482421875,0.5,0.0421445369720459,-2.625,0.0016078948974609375,-0.1875,0.01180267333984375,-0.72265625,0.003567218780517578,-0.17578125,0.055204153060913086,-3.125,-0.0026106834411621094,0.0,0.0025925636291503906,0.0,0.06610107421875,-3.75,-0.004640102386474609,0.125,0.02705097198486328,-1.58203125,0.0003285408020019531,0.0,-0.004784524440765381,0.11186079680919647,0.0,0.0,0.0,0.0
2025-04-11 10:51:09.748522,0.040187835693359375,-2.5,0.002802610397338867,-0.3125,-0.006571292877197266,0.5,0.04213261604309082,-2.625,0.0016078948974609375,-0.1875,0.01180267333984375,-0.732421875,0.003559589385986328,-0.1953125,0.055204153060913086,-3.125,-0.0026106834411621094,0.0,0.002580404281616211,0.0,0.06611299514770508,-3.8125,-0.004652142524719238,0.125,0.02705097198486328,-1.572265625,0.0003361701965332031,0.0,-0.004797935485839844,0.11186079680919647,0.0,0.0,0.0,0.0
2025-04-11 10:51:10.254665,0.040175676345825195,-2.5,0.00277864933013916,-0.3125,-0.0065593719482421875,0.5,0.04212069511413574,-2.625,0.0016078948974609375,-0.1875,0.01180267333984375,-0.712890625,0.003559589385986328,-0.17578125,0.055204153060913086,-3.125,-0.0026106834411621094,0.0,0.002580404281616211,0.0,0.06608867645263672,-3.8125,-0.004640102386474609,0.125,0.02705097198486328,-1.572265625,0.0003285408020019531,0.01953125,-0.004797935485839844,0.1677911877632141,0.0,0.0,0.0,0.0
2025-04-11 10:51:10.748852,0.040187835693359375,-2.5,0.002754688262939453,-0.3125,-0.0065953731536865234,0.5,0.04213261604309082,-2.6875,0.0016078948974609375,-0.1875,0.01180267333984375,-0.72265625,0.003567218780517578,-0.17578125,0.05519223213195801,-3.125,-0.0026230812072753906,0.0,0.0025925636291503906,0.0,0.06610107421875,-3.8125,-0.004640102386474609,0.125,0.02705097198486328,-1.58203125,0.0003361701965332031,0.01953125,-0.004797935485839844,0.11186079680919647,0.0,0.0,0.0,0.0
2025-04-11 10:51:11.224724,0.040187835693359375,-2.5,0.002634882926940918,-0.25,-0.006583213806152344,0.5625,0.04213261604309082,-2.625,0.0016078948974609375,-0.1875,0.01180267333984375,-0.712890625,0.003567218780517578,-0.17578125,0.05519223213195801,-3.1875,-0.0026106834411621094,0.0,0.002568483352661133,0.0,0.06610107421875,-3.8125,-0.004640102386474609,0.125,0.02703571319580078,-1.58203125,0.0003285408020019531,0.01953125,-0.004784524440765381,0.11186079680919647,0.0,0.0,0.0,0.0
2025-04-11 10:51:11.698893,0.040187835693359375,-2.5,0.002646803855895996,-0.3125,-0.006583213806152344,0.5,0.04213261604309082,-2.625,0.0016078948974609375,-0.1875,0.01180267333984375,-0.72265625,0.003567218780517578,-0.17578125,0.05519223213195801,-3.125,-0.0026230812072753906,0.0,0.002580404281616211,0.0,0.06608867645263672,-3.75,-0.004652142524719238,0.125,0.02705860137939453,-1.58203125,0.0003285408020019531,0.0,-0.004797935485839844,0.11186079680919647,0.0,0.0,0.0,0.0
2025-04-11 10:51:12.173821,0.040187835693359375,-2.5,0.002610921859741211,-0.3125,-0.0065593719482421875,0.5625,0.04213261604309082,-2.625,0.0016078948974609375,-0.1875,0.01180267333984375,-0.72265625,0.003559589385986328,-0.17578125,0.05519223213195801,-3.125,-0.0026106834411621094,0.0,0.002568483352661133,0.0,0.06611299514770508,-3.8125,-0.004652142524719238,0.125,0.02705097198486328,-1.572265625,0.0003285408020019531,0.0,-0.004797935485839844,0.11186079680919647,0.0,0.0,0.0,0.0
2025-04-11 10:51:12.667785,0.040187835693359375,-2.5,0.002634882926940918,-0.3125,-0.006571292877197266,0.5,0.04213261604309082,-2.625,0.0015959739685058594,-0.1875,0.011810302734375,-0.712890625,0.003567218780517578,-0.17578125,0.05519223213195801,-3.125,-0.0026230812072753906,0.0,0.0025925636291503906,0.0,0.06611299514770508,-3.75,-0.004652142524719238,0.125,0.02705097198486328,-1.58203125,0.0003285408020019531,0.0,-0.004797935485839844,0.1677911877632141,0.0,0.0,0.0,0.0
2025-04-11 10:51:13.213190,0.040187835693359375,-2.5,0.002610921859741211,-0.3125,-0.0065593719482421875,0.5625,0.0421445369720459,-2.625,0.0015840530395507812,-0.25,0.01180267333984375,-0.732421875,0.003567218780517578,-0.17578125,0.055204153060913086,-3.125,-0.0026106834411621094,0.0,0.0025925636291503906,0.0,0.06611299514770508,-3.8125,-0.004640102386474609,0.125,0.02705097198486328,-1.58203125,0.0003285408020019531,0.0,-0.004784524440765381,0.11186079680919647,0.0,0.0,0.0,0.0
2025-04-11 10:51:13.706516,0.040187835693359375,-2.5,0.002622842788696289,-0.25,-0.0065593719482421875,0.5,0.04213261604309082,-2.6875,0.0015959739685058594,-0.25,0.0117950439453125,-0.732421875,0.003559589385986328,-0.17578125,0.055204153060913086,-3.125,-0.0026230812072753906,0.0,0.002568483352661133,0.0,0.06611299514770508,-3.8125,-0.004652142524719238,0.125,0.02705860137939453,-1.58203125,0.00034427642822265625,0.0,-0.004811346530914307,0.11186079680919647,0.0,0.0,0.0,0.0
2025-04-11 10:51:14.185414,0.040187835693359375,-2.5,0.002610921859741211,-0.3125,-0.0065953731536865234,0.5625,0.04213261604309082,-2.5625,0.0015959739685058594,-0.1875,0.01180267333984375,-0.712890625,0.003567218780517578,-0.17578125,0.055204153060913086,-3.125,-0.0026230812072753906,0.0,0.002580404281616211,0.0,0.06608867645263672,-3.8125,-0.004628121852874756,0.125,0.02705860137939453,-1.58203125,0.0003285408020019531,0.01953125,-0.004784524440765381,0.11186079680919647,0.0,0.0,0.0,0.0
2025-04-11 10:51:14.657461,0.040187835693359375,-2.5,0.002598881721496582,-0.25,-0.0065953731536865234,0.5,0.04213261604309082,-2.625,0.0015959739685058594,-0.1875,0.0117950439453125,-0.712890625,0.003559589385986328,-0.17578125,0.055204153060913086,-3.125,-0.0026230812072753906,0.0,0.002580404281616211,0.0,0.06611299514770508,-3.8125,-0.004640102386474609,0.125,0.02705097198486328,-1.58203125,0.00034427642822265625,0.0,-0.004797935485839844,0.11186079680919647,0.0,0.0,0.0,0.0
2025-04-11 10:51:15.138004,0.040175676345825195,-2.5625,0.002622842788696289,-0.25,-0.006583213806152344,0.5,0.04213261604309082,-2.625,0.0015840530395507812,-0.25,0.0117950439453125,-0.72265625,0.003559589385986328,-0.1953125,0.05518031120300293,-3.125,-0.0026106834411621094,0.0,0.0026044845581054688,0.0,0.06611299514770508,-3.8125,-0.004640102386474609,0.0625,0.02705097198486328,-1.572265625,0.0003285408020019531,0.0,-0.004797935485839844,0.11186079680919647,0.0,0.0,0.0,0.0
2025-04-11 10:51:15.613241,0.040187835693359375,-2.5,0.002610921859741211,-0.3125,-0.006571292877197266,0.5,0.04212069511413574,-2.625,0.0015840530395507812,-0.1875,0.0117950439453125,-0.72265625,0.003567218780517578,-0.17578125,0.055204153060913086,-3.1875,-0.0026230812072753906,0.0,0.002568483352661133,0.0,0.06611299514770508,-3.8125,-0.004664123058319092,0.125,0.02705860137939453,-1.58203125,0.0003285408020019531,0.01953125,-0.004797935485839844,0.11186079680919647,0.0,0.0,0.0,0.0
2025-04-11 10:51:16.100586,0.040175676345825195,-2.5,0.002622842788696289,-0.25,-0.0065593719482421875,0.5,0.04213261604309082,-2.625,0.0015840530395507812,-0.1875,0.01178741455078125,-0.712890625,0.003567218780517578,-0.166015625,0.055204153060913086,-3.1875,-0.0026230812072753906,0.0,0.0025925636291503906,0.0,0.06611299514770508,-3.8125,-0.004628121852874756,0.125,0.02706623077392578,-1.572265625,0.0003285408020019531,0.01953125,-0.004797935485839844,0.11186079680919647,0.0,0.0,0.0,0.0
2025-04-11 10:51:16.575404,0.040175676345825195,-2.5,0.002610921859741211,-0.3125,-0.0065953731536865234,0.5,0.04213261604309082,-2.625,0.0015959739685058594,-0.25,0.0117950439453125,-0.72265625,0.003559589385986328,-0.17578125,0.055204153060913086,-3.1875,-0.0026106834411621094,0.0,0.0025925636291503906,0.0,0.06608867645263672,-3.8125,-0.004640102386474609,0.125,0.02705097198486328,-1.58203125,0.0003285408020019531,-0.009765625,-0.004797935485839844,0.11186079680919647,0.0,0.0,0.0,0.0
2025-04-11 10:51:17.050395,0.040175676345825195,-2.5,0.002610921859741211,-0.3125,-0.006583213806152344,0.5,0.04213261604309082,-2.625,0.0015840530395507812,-0.1875,0.0117950439453125,-0.72265625,0.003559589385986328,-0.17578125,0.05519223213195801,-3.1875,-0.0026230812072753906,0.0,0.0025925636291503906,0.0,0.06608867645263672,-3.8125,-0.004640102386474609,0.125,0.02704334259033203,-1.58203125,0.0003285408020019531,0.01953125,-0.004811346530914307,0.11186079680919647,0.0,0.0,0.0,0.0
2025-04-11 10:51:17.525108,0.040175676345825195,-2.5,0.002610921859741211,-0.25,-0.006571292877197266,0.5,0.04213261604309082,-2.625,0.0015840530395507812,-0.1875,0.0117950439453125,-0.72265625,0.003567218780517578,-0.1953125,0.055204153060913086,-3.1875,-0.0026106834411621094,0.0,0.0025925636291503906,0.0,0.06611299514770508,-3.8125,-0.004640102386474609,0.125,0.02705097198486328,-1.572265625,0.0003132820129394531,-0.009765625,-0.004797935485839844,0.11186079680919647,0.0,0.0,0.0,0.0
2025-04-11 10:51:18.005175,0.040175676345825195,-2.5,0.002634882926940918,-0.3125,-0.0065953731536865234,0.5,0.04210853576660156,-2.625,0.0015959739685058594,-0.1875,0.01180267333984375,-0.72265625,0.003567218780517578,-0.17578125,0.05519223213195801,-3.1875,-0.0026350021362304688,0.0,0.0026044845581054688,0.0,0.06608867645263672,-3.75,-0.004616141319274902,0.125,0.02704334259033203,-1.572265625,0.0003285408020019531,0.0,-0.004797935485839844,0.055930398404598236,0.0,0.0,0.0,0.0
2025-04-11 10:51:18.488662,0.04016375541687012,-2.5,0.002598881721496582,-0.3125,-0.006571292877197266,0.5,0.04213261604309082,-2.625,0.0015959739685058594,-0.1875,0.0117950439453125,-0.72265625,0.0035750865936279297,-0.17578125,0.055204153060913086,-3.1875,-0.0026230812072753906,0.0,0.002580404281616211,0.0,0.06608867645263672,-3.8125,-0.004640102386474609,0.125,0.02705097198486328,-1.572265625,0.0003285408020019531,0.0,-0.004797935485839844,0.11186079680919647,0.0,0.0,0.0,0.0
2025-04-11 10:51:18.964370,0.040175676345825195,-2.5,0.002622842788696289,-0.25,-0.0065593719482421875,0.5625,0.04212069511413574,-2.625,0.0015840530395507812,-0.1875,0.01178741455078125,-0.72265625,0.003559589385986328,-0.17578125,0.055204153060913086,-3.1875,-0.0026106834411621094,0.0,0.002580404281616211,0.0,0.06610107421875,-3.8125,-0.004616141319274902,0.125,0.02705097198486328,-1.58203125,0.0003209114074707031,0.0,-0.004797935485839844,0.11186079680919647,0.0,0.0,0.0,0.0
2025-04-11 10:51:19.440654,0.040187835693359375,-2.5,0.002598881721496582,-0.3125,-0.0065593719482421875,0.5,0.04213261604309082,-2.625,0.0015840530395507812,-0.1875,0.0117950439453125,-0.712890625,0.003551959991455078,-0.166015625,0.05519223213195801,-3.125,-0.0026106834411621094,0.0,0.0025925636291503906,0.0,0.06611299514770508,-3.8125,-0.004640102386474609,0.0625,0.02707386016845703,-1.58203125,0.0003132820129394531,0.0,-0.004811346530914307,0.11186079680919647,0.0,0.0,0.0,0.0
2025-04-11 10:51:19.935369,0.040187835693359375,-2.5,0.002574920654296875,-0.3125,-0.006547451019287109,0.5,0.04212069511413574,-2.625,0.0015840530395507812,-0.1875,0.01178741455078125,-0.72265625,0.003551959991455078,-0.166015625,0.05519223213195801,-3.125,-0.0026106834411621094,0.0,0.0026044845581054688,0.0,0.06608867645263672,-3.8125,-0.004616141319274902,0.125,0.02705860137939453,-1.572265625,0.0003209114074707031,0.0,-0.004784524440765381,0.11186079680919647,0.0,0.0,0.0,0.0
2025-04-11 10:51:20.413334,0.04016375541687012,-2.5,0.002586960792541504,-0.3125,-0.0065593719482421875,0.5,0.04210853576660156,-2.625,0.0015840530395507812,-0.1875,0.0117950439453125,-0.712890625,0.003567218780517578,-0.166015625,0.05519223213195801,-3.125,-0.0026106834411621094,0.0,0.002580404281616211,0.0,0.06611299514770508,-3.8125,-0.004628121852874756,0.125,0.02705097198486328,-1.58203125,0.0003209114074707031,0.01953125,-0.004797935485839844,0.11186079680919647,0.0,0.0,0.0,0.0
2025-04-11 10:51:20.888219,0.040187835693359375,-2.5,0.002598881721496582,-0.3125,-0.0065593719482421875,0.5,0.04213261604309082,-2.625,0.0015840530395507812,-0.1875,0.01178741455078125,-0.732421875,0.003559589385986328,-0.17578125,0.055204153060913086,-3.125,-0.0026230812072753906,0.0,0.002580404281616211,0.0,0.06611299514770508,-3.8125,-0.004628121852874756,0.125,0.02703571319580078,-1.572265625,0.0003209114074707031,0.0,-0.004811346530914307,0.11186079680919647,0.0,0.0,0.0,0.0
2025-04-11 10:51:21.363276,0.040175676345825195,-2.5,0.002550959587097168,-0.3125,-0.0065593719482421875,0.5,0.04213261604309082,-2.625,0.0015840530395507812,-0.1875,0.01177978515625,-0.72265625,0.003559589385986328,-0.17578125,0.05519223213195801,-3.125,-0.0026106834411621094,0.0,0.0025925636291503906,0.0,0.06611299514770508,-3.8125,-0.004640102386474609,0.125,0.02705097198486328,-1.58203125,0.0003361701965332031,0.01953125,-0.004797935485839844,0.11186079680919647,0.0,0.0,0.0,0.0
2025-04-11 10:51:21.857292,0.040187835693359375,-2.5,0.002574920654296875,-0.3125,-0.0065593719482421875,0.5,0.04212069511413574,-2.625,0.0015840530395507812,-0.1875,0.01178741455078125,-0.72265625,0.003559589385986328,-0.17578125,0.055204153060913086,-3.125,-0.0026106834411621094,0.0,0.002580404281616211,0.0,0.06611299514770508,-3.8125,-0.004616141319274902,0.125,0.02705097198486328,-1.58203125,0.0003285408020019531,0.01953125,-0.004797935485839844,0.11186079680919647,0.0,0.0,0.0,0.0
2025-04-11 10:51:22.340012,0.040187835693359375,-2.5,0.002610921859741211,-0.25,-0.006547451019287109,0.5625,0.04212069511413574,-2.6875,0.0015959739685058594,-0.1875,0.01177978515625,-0.732421875,0.003551959991455078,-0.17578125,0.055204153060913086,-3.125,-0.0026230812072753906,0.0,0.002568483352661133,0.0,0.06611299514770508,-3.75,-0.004652142524719238,0.125,0.02705097198486328,-1.572265625,0.0003285408020019531,0.01953125,-0.004784524440765381,0.11186079680919647,0.0,0.0,0.0,0.0
2025-04-11 10:51:22.814911,0.040175676345825195,-2.5,0.002598881721496582,-0.25,-0.006571292877197266,0.5,0.04213261604309082,-2.625,0.0015480518341064453,-0.1875,0.01178741455078125,-0.72265625,0.003559589385986328,-0.17578125,0.05519223213195801,-3.125,-0.0026230812072753906,0.0,0.0025925636291503906,0.0,0.06608867645263672,-3.8125,-0.004640102386474609,0.125,0.02705097198486328,-1.572265625,0.0003285408020019531,0.01953125,-0.004811346530914307,0.11186079680919647,0.0,0.0,0.0,0.0
2025-04-11 10:51:23.289971,0.04016375541687012,-2.5,0.002598881721496582,-0.3125,-0.006547451019287109,0.5,0.04213261604309082,-2.625,0.0015840530395507812,-0.1875,0.01178741455078125,-0.72265625,0.003559589385986328,-0.17578125,0.05519223213195801,-3.125,-0.0026230812072753906,0.0,0.002568483352661133,0.0,0.06608867645263672,-3.8125,-0.004616141319274902,0.125,0.02705097198486328,-1.58203125,0.0003209114074707031,0.01953125,-0.004797935485839844,0.11186079680919647,0.0,0.0,0.0,0.0
2025-04-11 10:51:23.764893,0.04016375541687012,-2.5,0.002610921859741211,-0.3125,-0.006547451019287109,0.5,0.04213261604309082,-2.5625,0.0015721321105957031,-0.1875,0.01177978515625,-0.72265625,0.003567218780517578,-0.17578125,0.05519223213195801,-3.125,-0.0026230812072753906,0.0,0.002568483352661133,0.0,0.06608867645263672,-3.8125,-0.004628121852874756,0.125,0.02705097198486328,-1.58203125,0.0003285408020019531,0.0,-0.004797935485839844,0.11186079680919647,0.0,0.0,0.0,0.0
2025-04-11 10:51:24.239912,0.040175676345825195,-2.5,0.002586960792541504,-0.3125,-0.00653529167175293,0.5,0.04212069511413574,-2.625,0.0015599727630615234,-0.1875,0.01178741455078125,-0.72265625,0.003559589385986328,-0.17578125,0.055204153060913086,-3.125,-0.0026106834411621094,0.0,0.002568483352661133,0.0,0.06610107421875,-3.8125,-0.004616141319274902,0.125,0.02704334259033203,-1.58203125,0.0003285408020019531,0.01953125,-0.004797935485839844,0.11186079680919647,0.0,0.0,0.0,0.0
2025-04-11 10:51:24.747333,0.04016375541687012,-2.5,0.002598881721496582,-0.25,-0.006547451019287109,0.5,0.04213261604309082,-2.625,0.0015721321105957031,-0.1875,0.01177978515625,-0.72265625,0.003559589385986328,-0.17578125,0.055204153060913086,-3.1875,-0.0026106834411621094,0.0,0.0026044845581054688,0.0,0.06608867645263672,-3.8125,-0.004604160785675049,0.125,0.02705860137939453,-1.58203125,0.0003209114074707031,0.01953125,-0.004811346530914307,0.1677911877632141,0.0,0.0,0.0,0.0
2025-04-11 10:51:25.273575,0.040175676345825195,-2.5,0.002574920654296875,-0.3125,-0.006547451019287109,0.5,0.04210853576660156,-2.625,0.0015840530395507812,-0.1875,0.01177978515625,-0.732421875,0.003567218780517578,-0.17578125,0.05519223213195801,-3.125,-0.0026230812072753906,0.0,0.002568483352661133,0.0,0.06611299514770508,-3.8125,-0.004580199718475342,0.125,0.02705860137939453,-1.58203125,0.0003209114074707031,0.0,-0.004797935485839844,0.11186079680919647,0.0,0.0,0.0,0.0
2025-04-11 10:51:25.752755,0.040187835693359375,-2.5,0.002598881721496582,-0.25,-0.006547451019287109,0.5,0.04213261604309082,-2.625,0.0015721321105957031,-0.25,0.01178741455078125,-0.72265625,0.003551959991455078,-0.17578125,0.05519223213195801,-3.125,-0.0026230812072753906,0.0,0.002580404281616211,0.0,0.06608867645263672,-3.8125,-0.004604160785675049,0.125,0.02705097198486328,-1.572265625,0.0003285408020019531,0.01953125,-0.004811346530914307,0.11186079680919647,0.0,0.0,0.0,0.0
2025-04-11 10:51:26.235090,0.040187835693359375,-2.5,0.002598881721496582,-0.25,-0.006547451019287109,0.5,0.04212069511413574,-2.625,0.0015721321105957031,-0.1875,0.01177978515625,-0.72265625,0.003559589385986328,-0.166015625,0.05519223213195801,-3.125,-0.0026106834411621094,0.0,0.0025925636291503906,0.0,0.06608867645263672,-3.8125,-0.004664123058319092,0.125,0.02705097198486328,-1.572265625,0.0003285408020019531,0.01953125,-0.004797935485839844,0.11186079680919647,0.0,0.0,0.0,0.0
2025-04-11 10:51:26.715716,0.040187835693359375,-2.5,0.002586960792541504,-0.3125,-0.006571292877197266,0.5,0.04212069511413574,-2.625,0.0015599727630615234,-0.1875,0.01178741455078125,-0.712890625,0.003567218780517578,-0.17578125,0.05519223213195801,-3.1875,-0.0026230812072753906,0.0,0.0025925636291503906,0.0,0.06608867645263672,-3.8125,-0.004604160785675049,0.125,0.02704334259033203,-1.572265625,0.0003285408020019531,0.0,-0.004797935485839844,0.11186079680919647,0.0,0.0,0.0,0.0
2025-04-11 10:51:27.190777,0.04016375541687012,-2.5,0.002598881721496582,-0.3125,-0.0065593719482421875,0.5,0.04210853576660156,-2.625,0.0015599727630615234,-0.1875,0.01178741455078125,-0.72265625,0.003567218780517578,-0.17578125,0.05519223213195801,-3.125,-0.0026230812072753906,0.0,0.0025925636291503906,0.0,0.06611299514770508,-3.8125,-0.004616141319274902,0.125,0.02704334259033203,-1.572265625,0.0003209114074707031,0.0,-0.004797935485839844,0.11186079680919647,0.0,0.0,0.0,0.0
2025-04-11 10:51:27.665804,0.040187835693359375,-2.5,0.002622842788696289,-0.3125,-0.006547451019287109,0.5,0.04210853576660156,-2.625,0.0015480518341064453,-0.1875,0.01177215576171875,-0.712890625,0.003559589385986328,-0.166015625,0.05519223213195801,-3.125,-0.0026230812072753906,0.0,0.002568483352661133,0.0,0.06608867645263672,-3.8125,-0.004616141319274902,0.1875,0.02705097198486328,-1.58203125,0.0003209114074707031,0.0,-0.004797935485839844,0.11186079680919647,0.0,0.0,0.0,0.0
2025-04-11 10:51:28.150010,0.040175676345825195,-2.5,0.002574920654296875,-0.25,-0.006583213806152344,0.5,0.04212069511413574,-2.625,0.0015721321105957031,-0.1875,0.01177978515625,-0.72265625,0.0035750865936279297,-0.17578125,0.05519223213195801,-3.1875,-0.0026230812072753906,0.0,0.002568483352661133,0.0,0.06611299514770508,-3.8125,-0.004640102386474609,0.125,0.02705860137939453,-1.572265625,0.0003209114074707031,0.0,-0.004797935485839844,0.11186079680919647,0.0,0.0,0.0,0.0
2025-04-11 10:51:28.644802,0.040187835693359375,-2.5,0.002598881721496582,-0.25,-0.006571292877197266,0.5,0.04212069511413574,-2.625,0.0015721321105957031,-0.1875,0.01177215576171875,-0.72265625,0.003559589385986328,-0.166015625,0.05519223213195801,-3.125,-0.0026230812072753906,0.0,0.002580404281616211,0.0,0.06611299514770508,-3.8125,-0.004604160785675049,0.125,0.02705860137939453,-1.58203125,0.0003285408020019531,0.0,-0.004811346530914307,0.11186079680919647,0.0,0.0,0.0,0.0
2025-04-11 10:51:29.127317,0.04016375541687012,-2.5,0.002550959587097168,-0.25,-0.0065593719482421875,0.5,0.04212069511413574,-2.625,0.0015480518341064453,-0.1875,0.01177978515625,-0.72265625,0.003567218780517578,-0.17578125,0.055204153060913086,-3.125,-0.0026106834411621094,0.0,0.002568483352661133,0.0,0.06611299514770508,-3.8125,-0.004640102386474609,0.125,0.02704334259033203,-1.58203125,0.0003209114074707031,0.0,-0.004797935485839844,0.11186079680919647,0.0,0.0,0.0,0.0
2025-04-11 10:51:29.617317,0.04016375541687012,-2.5,0.002562880516052246,-0.25,-0.006571292877197266,0.5,0.04212069511413574,-2.625,0.0015599727630615234,-0.1875,0.01177978515625,-0.72265625,0.003559589385986328,-0.17578125,0.055204153060913086,-3.125,-0.0026230812072753906,0.0,0.002580404281616211,0.0,0.06608867645263672,-3.75,-0.004592180252075195,0.125,0.02705097198486328,-1.572265625,0.0003209114074707031,0.0,-0.004771173000335693,0.11186079680919647,0.0,0.0,0.0,0.0
2025-04-11 10:51:30.103420,0.04016375541687012,-2.5625,0.002550959587097168,-0.3125,-0.0065593719482421875,0.5625,0.04212069511413574,-2.625,0.0015480518341064453,-0.1875,0.0117950439453125,-0.712890625,0.003559589385986328,-0.17578125,0.055204153060913086,-3.125,-0.0026106834411621094,0.0,0.002580404281616211,0.0,0.06608867645263672,-3.8125,-0.004640102386474609,0.125,0.02704334259033203,-1.58203125,0.0003209114074707031,0.0,-0.004784524440765381,0.11186079680919647,0.0,0.0,0.0,0.0
2025-04-11 10:51:30.581310,0.040175676345825195,-2.5,0.002586960792541504,-0.3125,-0.0065593719482421875,0.5,0.04212069511413574,-2.625,0.001524209976196289,-0.25,0.01177215576171875,-0.72265625,0.003559589385986328,-0.17578125,0.05519223213195801,-3.1875,-0.0026230812072753906,0.0,0.0025925636291503906,0.0,0.06611299514770508,-3.75,-0.004640102386474609,0.125,0.02705097198486328,-1.572265625,0.0003285408020019531,0.0,-0.004797935485839844,0.11186079680919647,0.0,0.0,0.0,0.0
2025-04-11 10:51:31.062820,0.04016375541687012,-2.5,0.002574920654296875,-0.25,-0.0065593719482421875,0.5,0.04213261604309082,-2.5625,0.0015480518341064453,-0.25,0.01177215576171875,-0.72265625,0.003559589385986328,-0.17578125,0.05519223213195801,-3.125,-0.0026230812072753906,0.0,0.002568483352661133,0.0,0.06611299514770508,-3.8125,-0.004628121852874756,0.125,0.02705097198486328,-1.572265625,0.0003285408020019531,0.0,-0.004784524440765381,0.11186079680919647,0.0,0.0,0.0,0.0
2025-04-11 10:51:31.556850,0.040175676345825195,-2.5,0.002562880516052246,-0.25,-0.0065593719482421875,0.5,0.04212069511413574,-2.6875,0.0015480518341064453,-0.25,0.01177978515625,-0.72265625,0.003559589385986328,-0.17578125,0.05519223213195801,-3.1875,-0.0026230812072753906,0.0,0.002544403076171875,0.0,0.06608867645263672,-3.8125,-0.004640102386474609,0.125,0.02704334259033203,-1.58203125,0.0003209114074707031,0.0,-0.004784524440765381,0.11186079680919647,0.0,0.0,0.0,0.0
2025-04-11 10:51:32.033752,0.04016375541687012,-2.5,0.002574920654296875,-0.3125,-0.0065593719482421875,0.5,0.04210853576660156,-2.6875,0.0015480518341064453,-0.1875,0.01177215576171875,-0.712890625,0.003567218780517578,-0.17578125,0.055204153060913086,-3.125,-0.0026230812072753906,0.0,0.002568483352661133,0.0,0.06608867645263672,-3.8125,-0.004604160785675049,0.125,0.02705097198486328,-1.572265625,0.0003285408020019531,0.0,-0.004797935485839844,0.11186079680919647,0.0,0.0,0.0,0.0
2025-04-11 10:51:32.507915,0.040175676345825195,-2.5,0.002598881721496582,-0.25,-0.0065593719482421875,0.5,0.04210853576660156,-2.6875,0.0015480518341064453,-0.1875,0.01177215576171875,-0.72265625,0.003559589385986328,-0.17578125,0.055204153060913086,-3.125,-0.0026106834411621094,0.0,0.002568483352661133,0.0,0.06608867645263672,-3.75,-0.004628121852874756,0.125,0.02705097198486328,-1.572265625,0.0003285408020019531,0.01953125,-0.004811346530914307,0.11186079680919647,0.0,0.0,0.0,0.0
2025-04-11 10:51:32.983042,0.04016375541687012,-2.5,0.002550959587097168,-0.3125,-0.006571292877197266,0.5625,0.04212069511413574,-2.625,0.0015480518341064453,-0.1875,0.01177215576171875,-0.72265625,0.003559589385986328,-0.17578125,0.05519223213195801,-3.125,-0.0026106834411621094,0.0,0.0025925636291503906,0.0,0.06611299514770508,-3.75,-0.004640102386474609,0.125,0.02705097198486328,-1.572265625,0.0003285408020019531,0.01953125,-0.004771173000335693,0.11186079680919647,0.0,0.0,0.0,0.0
2025-04-11 10:51:33.457999,0.04015183448791504,-2.5,0.002586960792541504,-0.25,-0.006583213806152344,0.5,0.04212069511413574,-2.625,0.0015599727630615234,-0.25,0.01177215576171875,-0.72265625,0.003567218780517578,-0.17578125,0.055204153060913086,-3.1875,-0.0026230812072753906,0.0,0.0026044845581054688,0.0,0.06607675552368164,-3.75,-0.004604160785675049,0.125,0.02705097198486328,-1.572265625,0.0003285408020019531,0.0,-0.004797935485839844,0.11186079680919647,0.0,0.0,0.0,0.0
2025-04-11 10:51:33.938841,0.04016375541687012,-2.5,0.002586960792541504,-0.3125,-0.00653529167175293,0.5,0.04213261604309082,-2.625,0.0015480518341064453,-0.1875,0.01177978515625,-0.72265625,0.003559589385986328,-0.166015625,0.055204153060913086,-3.125,-0.0026230812072753906,0.0,0.002580404281616211,0.0,0.06607675552368164,-3.75,-0.004640102386474609,0.125,0.02704334259033203,-1.572265625,0.0003209114074707031,0.01953125,-0.004771173000335693,0.11186079680919647,0.0,0.0,0.0,0.0
2025-04-11 10:51:34.413685,0.04015183448791504,-2.5,0.002586960792541504,-0.3125,-0.006547451019287109,0.5,0.04210853576660156,-2.625,0.0015480518341064453,-0.1875,0.01177978515625,-0.712890625,0.003567218780517578,-0.17578125,0.055204153060913086,-3.125,-0.0026106834411621094,0.0,0.0026044845581054688,0.0,0.06611299514770508,-3.8125,-0.004568219184875488,0.125,0.02705097198486328,-1.572265625,0.0003285408020019531,0.01953125,-0.004797935485839844,0.11186079680919647,0.0,0.0,0.0,0.0
2025-04-11 10:51:34.890430,0.04016375541687012,-2.5625,0.002538919448852539,-0.3125,-0.006571292877197266,0.5,0.04213261604309082,-2.625,0.0015480518341064453,-0.1875,0.01177978515625,-0.72265625,0.003559589385986328,-0.166015625,0.055204153060913086,-3.125,-0.0026230812072753906,0.0,0.002580404281616211,0.0,0.06608867645263672,-3.8125,-0.004640102386474609,0.125,0.02705097198486328,-1.58203125,0.0003209114074707031,0.0,-0.004797935485839844,0.11186079680919647,0.0,0.0,0.0,0.0
2025-04-11 10:51:35.386674,0.04016375541687012,-2.5625,0.002538919448852539,-0.25,-0.006571292877197266,0.5,0.04210853576660156,-2.625,0.0015480518341064453,-0.25,0.01177978515625,-0.732421875,0.003559589385986328,-0.166015625,0.05519223213195801,-3.125,-0.0026230812072753906,0.0,0.0025925636291503906,0.0,0.06607675552368164,-3.8125,-0.004616141319274902,0.125,0.02705097198486328,-1.611328125,0.0003209114074707031,0.0,-0.004784524440765381,0.11186079680919647,0.0,0.0,0.0,0.0
2025-04-11 10:51:35.849496,0.040175676345825195,-2.5,0.002514958381652832,-0.25,-0.0065593719482421875,0.5,0.04212069511413574,-2.625,0.0015480518341064453,-0.1875,0.01177978515625,-0.72265625,0.003559589385986328,-0.166015625,0.05519223213195801,-3.125,-0.0026230812072753906,0.0,0.0026044845581054688,0.0,0.06607675552368164,-3.75,-0.004640102386474609,0.125,0.02705097198486328,-1.58203125,0.0003209114074707031,0.0,-0.004797935485839844,0.11186079680919647,0.0,0.0,0.0,0.0
2025-04-11 10:51:36.330008,0.040175676345825195,-2.5,0.002550959587097168,-0.25,-0.006583213806152344,0.5,0.04210853576660156,-2.625,0.0015480518341064453,-0.1875,0.01177978515625,-0.712890625,0.003551959991455078,-0.17578125,0.05519223213195801,-3.1875,-0.0026230812072753906,0.0,0.0025925636291503906,0.0,0.06608867645263672,-3.75,-0.004628121852874756,0.125,0.02705860137939453,-1.572265625,0.0003209114074707031,0.0,-0.004784524440765381,0.11186079680919647,0.0,0.0,0.0,0.0
2025-04-11 10:51:36.805863,0.040175676345825195,-2.5,0.002562880516052246,-0.25,-0.006547451019287109,0.5,0.04212069511413574,-2.625,0.0015480518341064453,-0.1875,0.01177978515625,-0.72265625,0.003559589385986328,-0.1953125,0.055204153060913086,-3.125,-0.0026106834411621094,0.0,0.002568483352661133,0.0,0.06608867645263672,-3.8125,-0.004628121852874756,0.125,0.02705097198486328,-1.58203125,0.0003285408020019531,0.01953125,-0.004797935485839844,0.11186079680919647,0.0,0.0,0.0,0.0
2025-04-11 10:51:37.287656,0.04016375541687012,-2.5,0.002562880516052246,-0.1875,-0.006571292877197266,0.5,0.04212069511413574,-2.625,0.0015480518341064453,-0.1875,0.01177215576171875,-0.72265625,0.003567218780517578,-0.17578125,0.05519223213195801,-3.125,-0.0026230812072753906,0.0,0.002568483352661133,0.0,0.06608867645263672,-3.75,-0.004604160785675049,0.125,0.02703571319580078,-1.58203125,0.0003285408020019531,0.01953125,-0.004811346530914307,0.11186079680919647,0.0,0.0,0.0,0.0
2025-04-11 10:51:37.781630,0.04016375541687012,-2.5,0.002538919448852539,-0.3125,-0.006571292877197266,0.5,0.04212069511413574,-2.625,0.0015480518341064453,-0.1875,0.01177978515625,-0.72265625,0.003567218780517578,-0.17578125,0.055204153060913086,-3.1875,-0.002646923065185547,0.0,0.002568483352661133,0.0,0.06608867645263672,-3.75,-0.004580199718475342,0.125,0.02705860137939453,-1.58203125,0.0003285408020019531,0.01953125,-0.004797935485839844,0.11186079680919647,0.0,0.0,0.0,0.0
2025-04-11 10:51:38.259295,0.04016375541687012,-2.5,0.002598881721496582,-0.3125,-0.006571292877197266,0.5,0.04210853576660156,-2.5625,0.0015480518341064453,-0.1875,0.01177215576171875,-0.72265625,0.003551959991455078,-0.17578125,0.05519223213195801,-3.125,-0.0026350021362304688,0.0,0.002568483352661133,0.0,0.06608867645263672,-3.8125,-0.004628121852874756,0.125,0.02705097198486328,-1.58203125,0.0003361701965332031,0.01953125,-0.004784524440765381,0.11186079680919647,0.0,0.0,0.0,0.0
2025-04-11 10:51:38.752534,0.04016375541687012,-2.5,0.002562880516052246,-0.25,-0.00653529167175293,0.5,0.04210853576660156,-2.625,0.0015480518341064453,-0.25,0.01177215576171875,-0.732421875,0.003567218780517578,-0.17578125,0.055204153060913086,-3.1875,-0.0026106834411621094,0.0,0.002568483352661133,0.0,0.06607675552368164,-3.8125,-0.004628121852874756,0.125,0.02705860137939453,-1.572265625,0.0003209114074707031,0.01953125,-0.004797935485839844,0.11186079680919647,0.0,0.0,0.0,0.0
2025-04-11 10:51:39.267418,0.04016375541687012,-2.5,0.002550959587097168,-0.25,-0.00653529167175293,0.5,0.04210853576660156,-2.625,0.001524209976196289,-0.25,0.01177215576171875,-0.72265625,0.003559589385986328,-0.17578125,0.05519223213195801,-3.125,-0.0026230812072753906,0.0,0.002568483352661133,0.0,0.06608867645263672,-3.75,-0.004652142524719238,0.125,0.02704334259033203,-1.58203125,0.0003056526184082031,0.01953125,-0.004771173000335693,0.11186079680919647,0.0,0.0,0.0,0.0
2025-04-11 10:51:39.757510,0.040175676345825195,-2.5,0.002550959587097168,-0.3125,-0.006547451019287109,0.5625,0.042096614837646484,-2.625,0.0015480518341064453,-0.1875,0.01177215576171875,-0.72265625,0.003559589385986328,-0.1953125,0.05519223213195801,-3.125,-0.0026350021362304688,0.0,0.002580404281616211,0.0,0.06608867645263672,-3.75,-0.004616141319274902,0.125,0.02705097198486328,-1.58203125,0.0003285408020019531,0.0,-0.004797935485839844,0.11186079680919647,0.0,0.0,0.0,0.0
2025-04-11 10:51:40.236700,0.04016375541687012,-2.5625,0.002538919448852539,-0.25,-0.006571292877197266,0.5,0.04213261604309082,-2.625,0.0015361309051513672,-0.1875,0.01177215576171875,-0.72265625,0.003559589385986328,-0.17578125,0.05519223213195801,-3.125,-0.0026106834411621094,0.0,0.002580404281616211,0.0,0.06611299514770508,-3.8125,-0.004640102386474609,0.125,0.02704334259033203,-1.58203125,0.0003285408020019531,0.01953125,-0.004797935485839844,0.11186079680919647,0.0,0.0,0.0,0.0
2025-04-11 10:51:40.711365,0.04016375541687012,-2.5,0.002550959587097168,-0.3125,-0.006571292877197266,0.5,0.04212069511413574,-2.625,0.0015480518341064453,-0.1875,0.01177215576171875,-0.712890625,0.003551959991455078,-0.1953125,0.05519223213195801,-3.125,-0.0026106834411621094,0.0,0.0025925636291503906,0.0,0.06611299514770508,-3.75,-0.004616141319274902,0.125,0.02703571319580078,-1.572265625,0.0003285408020019531,0.01953125,-0.004797935485839844,0.11186079680919647,0.0,0.0,0.0,0.0
2025-04-11 10:51:41.188251,0.04016375541687012,-2.5,0.002538919448852539,-0.3125,-0.006583213806152344,0.5,0.04210853576660156,-2.625,0.0015599727630615234,-0.1875,0.01177978515625,-0.72265625,0.003559589385986328,-0.17578125,0.05519223213195801,-3.125,-0.0026230812072753906,0.0,0.002568483352661133,0.0,0.06611299514770508,-3.75,-0.004628121852874756,0.0625,0.02705097198486328,-1.572265625,0.0003285408020019531,0.0,-0.004797935485839844,0.11186079680919647,0.0,0.0,0.0,0.0
2025-04-11 10:51:41.677024,0.04015183448791504,-2.5,0.002526998519897461,-0.3125,-0.0065593719482421875,0.5,0.04210853576660156,-2.625,0.0015480518341064453,-0.1875,0.01177215576171875,-0.72265625,0.003559589385986328,-0.166015625,0.05519223213195801,-3.125,-0.0026230812072753906,0.0,0.002568483352661133,0.0,0.06607675552368164,-3.8125,-0.004616141319274902,0.0625,0.02705097198486328,-1.58203125,0.0003361701965332031,0.01953125,-0.004797935485839844,0.055930398404598236,0.0,0.0,0.0,0.0
2025-04-11 10:51:42.154375,0.04016375541687012,-2.5,0.002562880516052246,-0.3125,-0.0065593719482421875,0.5,0.04210853576660156,-2.625,0.0015480518341064453,-0.1875,0.01177215576171875,-0.72265625,0.003559589385986328,-0.17578125,0.055204153060913086,-3.125,-0.0026230812072753906,0.0,0.002580404281616211,0.0,0.06608867645263672,-3.75,-0.004640102386474609,0.125,0.02705860137939453,-1.58203125,0.0003209114074707031,0.0,-0.004784524440765381,0.11186079680919647,0.0,0.0,0.0,0.0
2025-04-11 10:51:42.630414,0.04016375541687012,-2.5,0.002562880516052246,-0.25,-0.006547451019287109,0.5,0.04210853576660156,-2.625,0.0015480518341064453,-0.1875,0.01177978515625,-0.72265625,0.003559589385986328,-0.17578125,0.05519223213195801,-3.125,-0.0026230812072753906,0.0,0.002580404281616211,0.0,0.06608867645263672,-3.75,-0.004616141319274902,0.125,0.02705097198486328,-1.58203125,0.0003285408020019531,0.01953125,-0.004797935485839844,0.11186079680919647,0.0,0.0,0.0,0.0
2025-04-11 10:51:43.158560,0.04015183448791504,-2.5625,0.002550959587097168,-0.25,-0.00653529167175293,0.5,0.04210853576660156,-2.625,0.0015480518341064453,-0.1875,0.0117645263671875,-0.72265625,0.003559589385986328,-0.17578125,0.05519223213195801,-3.125,-0.0026230812072753906,0.0,0.002568483352661133,0.0,0.06608867645263672,-3.75,-0.004616141319274902,0.125,0.02704334259033203,-1.58203125,0.0003285408020019531,0.0,-0.004797935485839844,0.11186079680919647,0.0,0.0,0.0,0.0
2025-04-11 10:51:43.644104,0.04015183448791504,-2.5,0.002514958381652832,-0.3125,-0.0065593719482421875,0.5,0.04210853576660156,-2.625,0.0015480518341064453,-0.1875,0.01177215576171875,-0.72265625,0.003559589385986328,-0.17578125,0.055204153060913086,-3.125,-0.0026106834411621094,0.0,0.002568483352661133,0.0,0.06611299514770508,-3.75,-0.004616141319274902,0.125,0.02705097198486328,-1.572265625,0.0003285408020019531,0.01953125,-0.004797935485839844,0.11186079680919647,0.0,0.0,0.0,0.0
2025-04-11 10:51:44.153602,0.04016375541687012,-2.5,0.002538919448852539,-0.25,-0.006571292877197266,0.5625,0.04212069511413574,-2.625,0.0015480518341064453,-0.1875,0.01177978515625,-0.72265625,0.003567218780517578,-0.17578125,0.055204153060913086,-3.1875,-0.0026350021362304688,0.0,0.0026044845581054688,0.0,0.06611299514770508,-3.75,-0.004616141319274902,0.125,0.02705097198486328,-1.58203125,0.0003285408020019531,0.01953125,-0.004797935485839844,0.11186079680919647,0.0,0.0,0.0,0.0
2025-04-11 10:51:44.638529,0.04016375541687012,-2.5,0.002562880516052246,-0.25,-0.006571292877197266,0.5,0.04210853576660156,-2.625,0.0015480518341064453,-0.1875,0.01177215576171875,-0.732421875,0.003551959991455078,-0.166015625,0.05519223213195801,-3.125,-0.0026230812072753906,0.0,0.002580404281616211,0.0,0.06608867645263672,-3.8125,-0.004616141319274902,0.125,0.02705097198486328,-1.5625,0.0003285408020019531,0.0,-0.004784524440765381,0.11186079680919647,0.0,0.0,0.0,0.0
2025-04-11 10:51:45.133127,0.04015183448791504,-2.5,0.002538919448852539,-0.3125,-0.0065114498138427734,0.5,0.04212069511413574,-2.625,0.0015721321105957031,-0.1875,0.01177215576171875,-0.72265625,0.003551959991455078,-0.17578125,0.055204153060913086,-3.125,-0.0026106834411621094,0.0,0.002580404281616211,0.0,0.06611299514770508,-3.75,-0.004664123058319092,0.125,0.02705860137939453,-1.572265625,0.0003285408020019531,0.01953125,-0.004797935485839844,0.1677911877632141,0.0,0.0,0.0,0.0
2025-04-11 10:51:45.619940,0.04016375541687012,-2.5,0.002538919448852539,-0.25,-0.0065593719482421875,0.5,0.04212069511413574,-2.625,0.0015361309051513672,-0.1875,0.01177978515625,-0.72265625,0.003551959991455078,-0.166015625,0.05519223213195801,-3.125,-0.0026230812072753906,0.0,0.0025925636291503906,0.0,0.06608867645263672,-3.8125,-0.004604160785675049,0.1875,0.02705097198486328,-1.58203125,0.0003209114074707031,0.0,-0.004811346530914307,0.11186079680919647,0.0,0.0,0.0,0.0
2025-04-11 10:51:46.094996,0.04016375541687012,-2.5,0.002562880516052246,-0.25,-0.006571292877197266,0.5,0.04213261604309082,-2.6875,0.0015480518341064453,-0.1875,0.01177215576171875,-0.712890625,0.003551959991455078,-0.17578125,0.05519223213195801,-3.125,-0.0026106834411621094,0.0,0.002580404281616211,0.0,0.06608867645263672,-3.8125,-0.004616141319274902,0.125,0.02704334259033203,-1.572265625,0.0003285408020019531,0.01953125,-0.004797935485839844,0.11186079680919647,0.0,0.0,0.0,0.0
2025-04-11 10:51:46.575104,0.040175676345825195,-2.5,0.002503037452697754,-0.3125,-0.00653529167175293,0.5,0.042084693908691406,-2.625,0.0015480518341064453,-0.1875,0.01177215576171875,-0.72265625,0.003551959991455078,-0.1953125,0.05519223213195801,-3.125,-0.0026230812072753906,0.0,0.002568483352661133,0.0,0.06607675552368164,-3.8125,-0.004592180252075195,0.125,0.02705860137939453,-1.572265625,0.0003209114074707031,0.0,-0.004784524440765381,0.11186079680919647,0.0,0.0,0.0,0.0
2025-04-11 10:51:47.055273,0.04015183448791504,-2.5,0.002550959587097168,-0.25,-0.006571292877197266,0.5,0.04212069511413574,-2.625,0.0015361309051513672,-0.25,0.01177215576171875,-0.712890625,0.003551959991455078,-0.17578125,0.05519223213195801,-3.125,-0.0026106834411621094,0.0,0.002580404281616211,0.0,0.06611299514770508,-3.8125,-0.004628121852874756,0.125,0.02704334259033203,-1.58203125,0.0003285408020019531,0.01953125,-0.004811346530914307,0.11186079680919647,0.0,0.0,0.0,0.0
2025-04-11 10:51:47.530694,0.04015183448791504,-2.5625,0.002514958381652832,-0.25,-0.0065593719482421875,0.5,0.04210853576660156,-2.6875,0.0015480518341064453,-0.1875,0.01177215576171875,-0.72265625,0.003551959991455078,-0.17578125,0.05519223213195801,-3.1875,-0.0026230812072753906,0.0,0.002580404281616211,0.0,0.06608867645263672,-3.8125,-0.004628121852874756,0.125,0.02704334259033203,-1.58203125,0.0003209114074707031,0.0,-0.004797935485839844,0.11186079680919647,0.0,0.0,0.0,0.0
2025-04-11 10:51:48.012081,0.04015183448791504,-2.5,0.002514958381652832,-0.25,-0.006571292877197266,0.5,0.04212069511413574,-2.625,0.0015480518341064453,-0.25,0.01177215576171875,-0.72265625,0.003544330596923828,-0.17578125,0.05519223213195801,-3.125,-0.0026230812072753906,0.0,0.002580404281616211,0.0,0.06607675552368164,-3.8125,-0.004628121852874756,0.125,0.02705097198486328,-1.591796875,0.0003209114074707031,0.0,-0.004771173000335693,0.11186079680919647,0.0,0.0,0.0,0.0
2025-04-11 10:51:48.487098,0.04015183448791504,-2.5625,0.002503037452697754,-0.25,-0.006547451019287109,0.5,0.04212069511413574,-2.625,0.001524209976196289,-0.25,0.01178741455078125,-0.72265625,0.003567218780517578,-0.17578125,0.05519223213195801,-3.125,-0.0026230812072753906,0.0,0.002580404281616211,0.0,0.06608867645263672,-3.8125,-0.004616141319274902,0.125,0.02704334259033203,-1.58203125,0.0003132820129394531,0.01953125,-0.004797935485839844,0.11186079680919647,0.0,0.0,0.0,0.0
2025-04-11 10:51:48.969278,0.04016375541687012,-2.5,0.002503037452697754,-0.25,-0.0065953731536865234,0.5,0.04212069511413574,-2.625,0.0015361309051513672,-0.1875,0.01177215576171875,-0.72265625,0.003551959991455078,-0.166015625,0.055204153060913086,-3.125,-0.0026230812072753906,0.0,0.0025925636291503906,0.0,0.06607675552368164,-3.8125,-0.004604160785675049,0.125,0.02704334259033203,-1.572265625,0.0003209114074707031,0.0,-0.004811346530914307,0.11186079680919647,0.0,0.0,0.0,0.0
2025-04-11 10:51:49.443773,0.04015183448791504,-2.5625,0.00245511531829834,-0.3125,-0.006547451019287109,0.5,0.042096614837646484,-2.625,0.0015361309051513672,-0.25,0.01177215576171875,-0.72265625,0.003551959991455078,-0.17578125,0.05519223213195801,-3.1875,-0.0026230812072753906,0.0,0.0026044845581054688,0.0,0.06607675552368164,-3.8125,-0.004616141319274902,0.125,0.02704334259033203,-1.572265625,0.0003285408020019531,0.01953125,-0.004797935485839844,0.11186079680919647,0.0,0.0,0.0,0.0
2025-04-11 10:51:49.918731,0.04015183448791504,-2.5,0.00245511531829834,-0.25,-0.006571292877197266,0.5,0.042096614837646484,-2.625,0.0015480518341064453,-0.25,0.01177215576171875,-0.72265625,0.003544330596923828,-0.17578125,0.05519223213195801,-3.125,-0.0026230812072753906,0.0,0.002580404281616211,0.0,0.06608867645263672,-3.8125,-0.004616141319274902,0.125,0.02705860137939453,-1.58203125,0.0003209114074707031,0.01953125,-0.004797935485839844,0.11186079680919647,0.0,0.0,0.0,0.0
2025-04-11 10:51:50.425670,0.04015183448791504,-2.5,0.002467036247253418,-0.3125,-0.006571292877197266,0.5,0.04212069511413574,-2.625,0.0015120506286621094,-0.25,0.01177215576171875,-0.732421875,0.003551959991455078,-0.166015625,0.05519223213195801,-3.1875,-0.0026230812072753906,0.0,0.0025925636291503906,0.0,0.06607675552368164,-3.8125,-0.004640102386474609,0.125,0.02705097198486328,-1.572265625,0.0003209114074707031,0.0,-0.004797935485839844,0.1677911877632141,0.0,0.0,0.0,0.0
2025-04-11 10:51:50.878290,0.040175676345825195,-2.5,0.002514958381652832,-0.25,-0.006547451019287109,0.5,0.04213261604309082,-2.625,0.0015480518341064453,-0.25,0.01177215576171875,-0.72265625,0.003559589385986328,-0.166015625,0.05519223213195801,-3.1875,-0.0026106834411621094,0.0,0.0026044845581054688,0.0,0.06608867645263672,-3.8125,-0.004640102386474609,0.125,0.02705097198486328,-1.58203125,0.0003132820129394531,0.01953125,-0.004797935485839844,0.1677911877632141,0.0,0.0,0.0,0.0
2025-04-11 10:51:51.355639,0.04016375541687012,-2.5,0.002490997314453125,-0.3125,-0.006547451019287109,0.5,0.04212069511413574,-2.625,0.001524209976196289,-0.25,0.01177215576171875,-0.72265625,0.0035750865936279297,-0.17578125,0.05519223213195801,-3.1875,-0.0026230812072753906,0.0,0.0025925636291503906,0.0,0.06607675552368164,-3.8125,-0.004616141319274902,0.125,0.02704334259033203,-1.572265625,0.0003209114074707031,0.01953125,-0.004797935485839844,0.11186079680919647,0.0,0.0,0.0,0.0
2025-04-11 10:51:51.828232,0.04013991355895996,-2.5,0.002479076385498047,-0.3125,-0.006571292877197266,0.5,0.04210853576660156,-2.625,0.0015480518341064453,-0.1875,0.01177215576171875,-0.72265625,0.003551959991455078,-0.17578125,0.05519223213195801,-3.125,-0.0026106834411621094,0.0,0.002580404281616211,0.0,0.06608867645263672,-3.8125,-0.004616141319274902,0.125,0.02704334259033203,-1.572265625,0.0003132820129394531,0.0,-0.004771173000335693,0.11186079680919647,0.0,0.0,0.0,0.0
2025-04-11 10:51:52.319458,0.04016375541687012,-2.5,0.00245511531829834,-0.25,-0.006571292877197266,0.5625,0.042096614837646484,-2.625,0.0015361309051513672,-0.1875,0.01177215576171875,-0.72265625,0.003551959991455078,-0.17578125,0.05519223213195801,-3.125,-0.0026230812072753906,0.0,0.0025925636291503906,0.0,0.06607675552368164,-3.8125,-0.004640102386474609,0.125,0.02705097198486328,-1.572265625,0.0003209114074707031,0.01953125,-0.004797935485839844,0.11186079680919647,0.0,0.0,0.0,0.0
2025-04-11 10:51:52.795413,0.04015183448791504,-2.5,0.002503037452697754,-0.25,-0.006547451019287109,0.5,0.04213261604309082,-2.6875,0.001524209976196289,-0.1875,0.01177215576171875,-0.72265625,0.003559589385986328,-0.17578125,0.05519223213195801,-3.125,-0.0026230812072753906,0.0,0.002580404281616211,0.0,0.06610107421875,-3.75,-0.004640102386474609,0.125,0.02704334259033203,-1.572265625,0.0003056526184082031,0.0,-0.004784524440765381,0.11186079680919647,0.0,0.0,0.0,0.0
2025-04-11 10:51:53.271572,0.04015183448791504,-2.5,0.002490997314453125,-0.25,-0.0065593719482421875,0.5,0.04212069511413574,-2.6875,0.0015361309051513672,-0.1875,0.0117645263671875,-0.72265625,0.003544330596923828,-0.17578125,0.05519223213195801,-3.125,-0.0026230812072753906,0.0,0.002580404281616211,0.0,0.06611299514770508,-3.75,-0.004616141319274902,0.125,0.02705097198486328,-1.572265625,0.0003209114074707031,0.0,-0.004811346530914307,0.11186079680919647,0.0,0.0,0.0,0.0
2025-04-11 10:51:53.746362,0.04015183448791504,-2.5,0.002490997314453125,-0.3125,-0.006571292877197266,0.5,0.042096614837646484,-2.625,0.0015361309051513672,-0.1875,0.01177215576171875,-0.72265625,0.003551959991455078,-0.17578125,0.05519223213195801,-3.1875,-0.0026230812072753906,0.0,0.002568483352661133,0.0,0.06608867645263672,-3.8125,-0.004604160785675049,0.125,0.02704334259033203,-1.572265625,0.0003209114074707031,0.01953125,-0.004797935485839844,0.11186079680919647,0.0,0.0,0.0,0.0
2025-04-11 10:51:54.222518,0.04016375541687012,-2.5,0.002443075180053711,-0.25,-0.006547451019287109,0.5,0.04210853576660156,-2.625,0.001524209976196289,-0.25,0.01177978515625,-0.72265625,0.003559589385986328,-0.1953125,0.055204153060913086,-3.1875,-0.0026350021362304688,0.0,0.002580404281616211,0.0,0.06607675552368164,-3.75,-0.004640102386474609,0.125,0.02704334259033203,-1.58203125,0.0003285408020019531,0.01953125,-0.004797935485839844,0.11186079680919647,0.0,0.0,0.0,0.0
2025-04-11 10:51:54.700325,0.04015183448791504,-2.5625,0.002431154251098633,-0.25,-0.006547451019287109,0.5,0.04212069511413574,-2.625,0.0015361309051513672,-0.1875,0.01177978515625,-0.712890625,0.003559589385986328,-0.17578125,0.055204153060913086,-3.125,-0.002646923065185547,0.0,0.002580404281616211,0.0,0.06611299514770508,-3.8125,-0.004604160785675049,0.125,0.02703571319580078,-1.572265625,0.0003056526184082031,0.01953125,-0.004797935485839844,0.11186079680919647,0.0,0.0,0.0,0.0
2025-04-11 10:51:55.181352,0.04016375541687012,-2.5,0.002490997314453125,-0.25,-0.006547451019287109,0.5,0.042096614837646484,-2.625,0.001524209976196289,-0.1875,0.01177215576171875,-0.72265625,0.003559589385986328,-0.17578125,0.05519223213195801,-3.125,-0.0026350021362304688,0.0,0.0026044845581054688,0.0,0.06608867645263672,-3.8125,-0.004616141319274902,0.0625,0.02705097198486328,-1.572265625,0.0003209114074707031,0.01953125,-0.004797935485839844,0.1677911877632141,0.0,0.0,0.0,0.0
2025-04-11 10:51:55.673218,0.04016375541687012,-2.5,0.002490997314453125,-0.25,-0.006547451019287109,0.5,0.04210853576660156,-2.625,0.0015361309051513672,-0.25,0.01178741455078125,-0.72265625,0.003551959991455078,-0.17578125,0.055204153060913086,-3.1875,-0.0026230812072753906,0.0,0.0025925636291503906,0.0,0.06608867645263672,-3.75,-0.004604160785675049,0.125,0.02705097198486328,-1.5625,0.0003285408020019531,0.01953125,-0.004784524440765381,0.11186079680919647,0.0,0.0,0.0,0.0
2025-04-11 10:51:56.148029,0.04015183448791504,-2.5,0.002490997314453125,-0.25,-0.006547451019287109,0.5,0.042096614837646484,-2.6875,0.001524209976196289,-0.1875,0.01177215576171875,-0.72265625,0.003551959991455078,-0.166015625,0.05519223213195801,-3.125,-0.0026106834411621094,0.0,0.002580404281616211,0.0,0.06607675552368164,-3.8125,-0.004652142524719238,0.0625,0.02704334259033203,-1.572265625,0.0003132820129394531,0.0,-0.004784524440765381,0.11186079680919647,0.0,0.0,0.0,0.0
2025-04-11 10:51:56.626956,0.04016375541687012,-2.5,0.002467036247253418,-0.25,-0.006547451019287109,0.5,0.042096614837646484,-2.625,0.0015361309051513672,-0.1875,0.01177215576171875,-0.72265625,0.003559589385986328,-0.17578125,0.055204153060913086,-3.125,-0.0026106834411621094,0.0,0.0025925636291503906,0.0,0.06608867645263672,-3.8125,-0.004652142524719238,0.125,0.02705097198486328,-1.572265625,0.0003209114074707031,0.0,-0.004797935485839844,0.11186079680919647,0.0,0.0,0.0,0.0
2025-04-11 10:51:57.101969,0.04015183448791504,-2.5625,0.00245511531829834,-0.25,-0.0065233707427978516,0.5,0.042096614837646484,-2.625,0.001524209976196289,-0.1875,0.01177215576171875,-0.732421875,0.003551959991455078,-0.17578125,0.05519223213195801,-3.1875,-0.0026230812072753906,0.0,0.0026044845581054688,0.0,0.06611299514770508,-3.8125,-0.004616141319274902,0.125,0.02704334259033203,-1.572265625,0.0003285408020019531,0.01953125,-0.004784524440765381,0.11186079680919647,0.0,0.0,0.0,0.0
2025-04-11 10:51:57.582911,0.04015183448791504,-2.5,0.002490997314453125,-0.25,-0.006547451019287109,0.5,0.04210853576660156,-2.625,0.0015361309051513672,-0.1875,0.01177978515625,-0.72265625,0.003544330596923828,-0.17578125,0.055204153060913086,-3.125,-0.0026350021362304688,0.0,0.0026044845581054688,0.0,0.06608867645263672,-3.8125,-0.004604160785675049,0.125,0.02705097198486328,-1.591796875,0.0003209114074707031,0.0,-0.004811346530914307,0.11186079680919647,0.0,0.0,0.0,0.0
2025-04-11 10:51:58.056801,0.04015183448791504,-2.5,0.002490997314453125,-0.25,-0.00653529167175293,0.5,0.04210853576660156,-2.625,0.0015480518341064453,-0.1875,0.01177215576171875,-0.72265625,0.003551959991455078,-0.17578125,0.05518031120300293,-3.125,-0.0026106834411621094,0.0,0.0025925636291503906,0.0,0.06608867645263672,-3.8125,-0.004604160785675049,0.125,0.02705097198486328,-1.572265625,0.0003209114074707031,0.01953125,-0.004797935485839844,0.11186079680919647,0.0,0.0,0.0,0.0
2025-04-11 10:51:58.556626,0.04016375541687012,-2.5,0.0024071931838989258,-0.25,-0.0065593719482421875,0.5,0.04212069511413574,-2.625,0.001524209976196289,-0.1875,0.01177215576171875,-0.72265625,0.003551959991455078,-0.17578125,0.05519223213195801,-3.1875,-0.0026230812072753906,0.0,0.0025925636291503906,0.0,0.06607675552368164,-3.8125,-0.004640102386474609,0.125,0.02705860137939453,-1.572265625,0.0003132820129394531,0.01953125,-0.004797935485839844,0.11186079680919647,0.0,0.0,0.0,0.0
2025-04-11 10:51:59.038141,0.04015183448791504,-2.5,0.002443075180053711,-0.3125,-0.006547451019287109,0.5,0.04212069511413574,-2.625,0.001524209976196289,-0.1875,0.01177215576171875,-0.72265625,0.003559589385986328,-0.1953125,0.05519223213195801,-3.125,-0.0026230812072753906,0.0,0.0026044845581054688,0.0,0.06607675552368164,-3.8125,-0.004628121852874756,0.125,0.02705097198486328,-1.572265625,0.0003285408020019531,0.0,-0.004797935485839844,0.11186079680919647,0.0,0.0,0.0,0.0
2025-04-11 10:51:59.513134,0.04016375541687012,-2.5,0.00245511531829834,-0.25,-0.006571292877197266,0.5,0.042096614837646484,-2.6875,0.0015480518341064453,-0.1875,0.01177978515625,-0.72265625,0.003551959991455078,-0.17578125,0.055204153060913086,-3.125,-0.0026350021362304688,0.0,0.0025925636291503906,0.0,0.06607675552368164,-3.8125,-0.004640102386474609,0.0625,0.02705097198486328,-1.58203125,0.0003132820129394531,0.0,-0.004797935485839844,0.11186079680919647,0.0,0.0,0.0,0.0
2025-04-11 10:51:59.988111,0.04015183448791504,-2.5,0.0024071931838989258,-0.25,-0.006583213806152344,0.5,0.04212069511413574,-2.625,0.0015480518341064453,-0.1875,0.01177978515625,-0.72265625,0.003551959991455078,-0.17578125,0.05519223213195801,-3.125,-0.0026230812072753906,0.0,0.0025925636291503906,0.0,0.06608867645263672,-3.8125,-0.004640102386474609,0.125,0.02705860137939453,-1.572265625,0.0003209114074707031,0.01953125,-0.004797935485839844,0.11186079680919647,0.0,0.0,0.0,0.0
2025-04-11 10:52:00.463070,0.04015183448791504,-2.4375,0.002443075180053711,-0.25,-0.0065593719482421875,0.5625,0.042096614837646484,-2.625,0.0015120506286621094,-0.1875,0.01177215576171875,-0.72265625,0.003544330596923828,-0.166015625,0.05519223213195801,-3.125,-0.0026230812072753906,0.0,0.0026044845581054688,0.0,0.06608867645263672,-3.75,-0.004616141319274902,0.125,0.02703571319580078,-1.572265625,0.0003132820129394531,0.0,-0.004797935485839844,0.11186079680919647,0.0,0.0,0.0,0.0
2025-04-11 10:52:00.938286,0.04016375541687012,-2.5,0.00245511531829834,-0.25,-0.006583213806152344,0.5,0.04210853576660156,-2.625,0.0015361309051513672,-0.1875,0.01177215576171875,-0.72265625,0.003551959991455078,-0.17578125,0.05519223213195801,-3.125,-0.0026230812072753906,0.0,0.0025925636291503906,0.0,0.06607675552368164,-3.8125,-0.004604160785675049,0.125,0.02705097198486328,-1.572265625,0.0003056526184082031,0.01953125,-0.004797935485839844,0.11186079680919647,0.0,0.0,0.0,0.0
2025-04-11 10:52:01.413277,0.04016375541687012,-2.5,0.002443075180053711,-0.25,-0.006571292877197266,0.5,0.04212069511413574,-2.6875,0.0015361309051513672,-0.1875,0.01177215576171875,-0.72265625,0.003544330596923828,-0.166015625,0.05519223213195801,-3.125,-0.0026230812072753906,0.0,0.0026044845581054688,0.0,0.06607675552368164,-3.8125,-0.004640102386474609,0.125,0.02703571319580078,-1.58203125,0.0003209114074707031,0.0,-0.004797935485839844,0.11186079680919647,0.0,0.0,0.0,0.0
2025-04-11 10:52:01.912794,0.04016375541687012,-2.5,0.002467036247253418,-0.3125,-0.0065593719482421875,0.5,0.042096614837646484,-2.625,0.0015361309051513672,-0.1875,0.01177215576171875,-0.72265625,0.003551959991455078,-0.17578125,0.05519223213195801,-3.1875,-0.0026350021362304688,0.0,0.0026044845581054688,0.0,0.06611299514770508,-3.8125,-0.004592180252075195,0.125,0.02705097198486328,-1.572265625,0.0003132820129394531,0.01953125,-0.004797935485839844,0.11186079680919647,0.0,0.0,0.0,0.0
2025-04-11 10:52:02.389581,0.04016375541687012,-2.5625,0.002443075180053711,-0.25,-0.0065593719482421875,0.5,0.04210853576660156,-2.625,0.0015120506286621094,-0.1875,0.01177215576171875,-0.72265625,0.003559589385986328,-0.1953125,0.05519223213195801,-3.125,-0.0026106834411621094,0.0,0.0026044845581054688,0.0,0.06607675552368164,-3.75,-0.004640102386474609,0.125,0.02704334259033203,-1.58203125,0.0003132820129394531,0.0,-0.004797935485839844,0.11186079680919647,0.0,0.0,0.0,0.0
2025-04-11 10:52:02.883726,0.04015183448791504,-2.5,0.002431154251098633,-0.25,-0.006571292877197266,0.5,0.042096614837646484,-2.625,0.0015480518341064453,-0.25,0.01177215576171875,-0.72265625,0.003551959991455078,-0.166015625,0.05519223213195801,-3.125,-0.0026230812072753906,0.0,0.0026044845581054688,0.0,0.06608867645263672,-3.75,-0.004604160785675049,0.125,0.02704334259033203,-1.572265625,0.0003132820129394531,0.01953125,-0.004797935485839844,0.11186079680919647,0.0,0.0,0.0,0.0
2025-04-11 10:52:03.364396,0.04015183448791504,-2.5,0.002419114112854004,-0.3125,-0.006547451019287109,0.5,0.042096614837646484,-2.625,0.001524209976196289,-0.1875,0.01177215576171875,-0.72265625,0.003551959991455078,-0.17578125,0.05519223213195801,-3.125,-0.0026230812072753906,0.0,0.002580404281616211,0.0,0.06608867645263672,-3.8125,-0.004676103591918945,0.125,0.02705097198486328,-1.58203125,0.0003132820129394531,0.01953125,-0.004797935485839844,0.11186079680919647,0.0,0.0,0.0,0.0
2025-04-11 10:52:03.868865,0.04016375541687012,-2.5,0.002443075180053711,-0.25,-0.006571292877197266,0.5,0.04210853576660156,-2.625,0.001524209976196289,-0.1875,0.01177215576171875,-0.72265625,0.003551959991455078,-0.17578125,0.05519223213195801,-3.1875,-0.0026230812072753906,0.0,0.002580404281616211,0.0,0.06608867645263672,-3.8125,-0.004640102386474609,0.125,0.02704334259033203,-1.58203125,0.0003056526184082031,0.0,-0.004797935485839844,0.11186079680919647,0.0,0.0,0.0,0.0
2025-04-11 10:52:04.346654,0.04016375541687012,-2.5,0.0024071931838989258,-0.25,-0.006547451019287109,0.5,0.04212069511413574,-2.625,0.0015361309051513672,-0.1875,0.01177215576171875,-0.732421875,0.003551959991455078,-0.17578125,0.05519223213195801,-3.1875,-0.0026230812072753906,0.0,0.002568483352661133,0.0,0.06608867645263672,-3.8125,-0.004604160785675049,0.125,0.02705097198486328,-1.572265625,0.0003132820129394531,0.01953125,-0.004797935485839844,0.11186079680919647,0.0,0.0,0.0,0.0
2025-04-11 10:52:04.826576,0.04016375541687012,-2.5,0.002359151840209961,-0.3125,-0.0065593719482421875,0.5,0.04210853576660156,-2.625,0.0015120506286621094,-0.1875,0.01177215576171875,-0.72265625,0.003551959991455078,-0.166015625,0.05519223213195801,-3.125,-0.0026350021362304688,0.0,0.002580404281616211,0.0,0.06608867645263672,-3.75,-0.004616141319274902,0.125,0.02705097198486328,-1.572265625,0.0003132820129394531,0.01953125,-0.004797935485839844,0.055930398404598236,0.0,0.0,0.0,0.0
2025-04-11 10:52:05.301764,0.04015183448791504,-2.5,0.0024071931838989258,-0.3125,-0.0065593719482421875,0.5,0.04210853576660156,-2.5625,0.0015120506286621094,-0.25,0.01177215576171875,-0.72265625,0.003551959991455078,-0.17578125,0.055204153060913086,-3.125,-0.0026106834411621094,0.0,0.002568483352661133,0.0,0.06608867645263672,-3.75,-0.004628121852874756,0.125,0.02704334259033203,-1.58203125,0.0003285408020019531,0.01953125,-0.004797935485839844,0.11186079680919647,0.0,0.0,0.0,0.0
2025-04-11 10:52:05.782580,0.04015183448791504,-2.5,0.002419114112854004,-0.3125,-0.0065593719482421875,0.5,0.04210853576660156,-2.6875,0.0015361309051513672,-0.1875,0.01177215576171875,-0.72265625,0.003551959991455078,-0.17578125,0.05519223213195801,-3.125,-0.0026106834411621094,0.0,0.002580404281616211,0.0,0.06608867645263672,-3.75,-0.004664123058319092,0.125,0.02704334259033203,-1.58203125,0.0003132820129394531,0.01953125,-0.004797935485839844,0.11186079680919647,0.0,0.0,0.0,0.0
2025-04-11 10:52:06.255302,0.040175676345825195,-2.5,0.002419114112854004,-0.3125,-0.006547451019287109,0.5,0.04210853576660156,-2.625,0.001524209976196289,-0.1875,0.01177215576171875,-0.72265625,0.003551959991455078,-0.17578125,0.05519223213195801,-3.125,-0.0026106834411621094,0.0,0.0025925636291503906,0.0,0.06608867645263672,-3.75,-0.004628121852874756,0.125,0.02704334259033203,-1.58203125,0.0003132820129394531,0.0,-0.004797935485839844,0.11186079680919647,0.0,0.0,0.0,0.0
2025-04-11 10:52:06.736116,0.04016375541687012,-2.5,0.002395153045654297,-0.25,-0.006583213806152344,0.5,0.04212069511413574,-2.625,0.001524209976196289,-0.1875,0.01177215576171875,-0.72265625,0.003551959991455078,-0.1953125,0.05519223213195801,-3.125,-0.0026230812072753906,0.0,0.0026044845581054688,0.0,0.06608867645263672,-3.8125,-0.004604160785675049,0.125,0.02705097198486328,-1.572265625,0.0003209114074707031,0.01953125,-0.004797935485839844,0.11186079680919647,0.0,0.0,0.0,0.0
2025-04-11 10:52:07.218602,0.04013991355895996,-2.5625,0.002359151840209961,-0.25,-0.006547451019287109,0.5,0.04210853576660156,-2.625,0.0015361309051513672,-0.1875,0.01177215576171875,-0.732421875,0.003551959991455078,-0.17578125,0.055204153060913086,-3.125,-0.0026230812072753906,0.0,0.002580404281616211,0.0,0.06608867645263672,-3.75,-0.004616141319274902,0.125,0.02705097198486328,-1.591796875,0.0003209114074707031,0.0,-0.004797935485839844,0.11186079680919647,0.0,0.0,0.0,0.0
2025-04-11 10:52:07.726882,0.04016375541687012,-2.5,0.0024071931838989258,-0.3125,-0.00653529167175293,0.5625,0.04210853576660156,-2.625,0.0015480518341064453,-0.1875,0.0117645263671875,-0.72265625,0.003551959991455078,-0.17578125,0.05519223213195801,-3.125,-0.0026230812072753906,0.0,0.002580404281616211,0.0,0.06607675552368164,-3.8125,-0.004604160785675049,0.1875,0.02703571319580078,-1.572265625,0.0003056526184082031,0.01953125,-0.004797935485839844,0.11186079680919647,0.0,0.0,0.0,0.0
2025-04-11 10:52:08.201903,0.04015183448791504,-2.5,0.002431154251098633,-0.1875,-0.006547451019287109,0.5,0.04210853576660156,-2.625,0.0015480518341064453,-0.1875,0.01177215576171875,-0.72265625,0.003551959991455078,-0.17578125,0.05519223213195801,-3.125,-0.0026230812072753906,0.0,0.0025925636291503906,0.0,0.06608867645263672,-3.75,-0.004604160785675049,0.125,0.02704334259033203,-1.58203125,0.0003132820129394531,0.01953125,-0.004784524440765381,0.11186079680919647,0.0,0.0,0.0,0.0
2025-04-11 10:52:08.676926,0.04015183448791504,-2.5,0.002419114112854004,-0.25,-0.00653529167175293,0.5,0.042096614837646484,-2.625,0.001524209976196289,-0.1875,0.01177215576171875,-0.72265625,0.003551959991455078,-0.17578125,0.05519223213195801,-3.125,-0.0026350021362304688,0.0,0.002568483352661133,0.0,0.06608867645263672,-3.75,-0.004616141319274902,0.125,0.02705097198486328,-1.58203125,0.0003132820129394531,0.0,-0.004771173000335693,0.11186079680919647,0.0,0.0,0.0,0.0
2025-04-11 10:52:09.190122,0.04016375541687012,-2.5,0.0024071931838989258,-0.3125,-0.0065593719482421875,0.5,0.042096614837646484,-2.6875,0.0015361309051513672,-0.1875,0.01177215576171875,-0.732421875,0.003551959991455078,-0.17578125,0.05519223213195801,-3.125,-0.002646923065185547,0.0,0.002580404281616211,0.0,0.06608867645263672,-3.75,-0.004604160785675049,0.125,0.02705097198486328,-1.572265625,0.0003132820129394531,0.0,-0.004797935485839844,0.11186079680919647,0.0,0.0,0.0,0.0
2025-04-11 10:52:09.663856,0.04015183448791504,-2.5625,0.002419114112854004,-0.3125,-0.00653529167175293,0.5625,0.04210853576660156,-2.625,0.001524209976196289,-0.1875,0.01177215576171875,-0.72265625,0.003551959991455078,-0.17578125,0.05519223213195801,-3.125,-0.0026230812072753906,0.0,0.002580404281616211,0.0,0.06608867645263672,-3.75,-0.004592180252075195,0.125,0.02705097198486328,-1.572265625,0.0003132820129394531,0.0,-0.004797935485839844,0.11186079680919647,0.0,0.0,0.0,0.0
2025-04-11 10:52:10.153199,0.04015183448791504,-2.5,0.002419114112854004,-0.25,-0.006547451019287109,0.5,0.04213261604309082,-2.625,0.0015120506286621094,-0.1875,0.01175689697265625,-0.732421875,0.003544330596923828,-0.1953125,0.05519223213195801,-3.125,-0.0026230812072753906,0.0,0.002580404281616211,0.0,0.06607675552368164,-3.75,-0.004640102386474609,0.125,0.02705097198486328,-1.572265625,0.0003209114074707031,0.01953125,-0.004797935485839844,0.11186079680919647,0.0,0.0,0.0,0.0
2025-04-11 10:52:10.628298,0.04015183448791504,-2.5,0.002395153045654297,-0.3125,-0.006547451019287109,0.5,0.04212069511413574,-2.625,0.001524209976196289,-0.25,0.01177215576171875,-0.72265625,0.003551959991455078,-0.17578125,0.05519223213195801,-3.125,-0.0026106834411621094,0.0,0.002580404281616211,0.0,0.06608867645263672,-3.8125,-0.004628121852874756,0.125,0.02704334259033203,-1.58203125,0.0003132820129394531,0.0,-0.004797935485839844,0.11186079680919647,0.0,0.0,0.0,0.0
2025-04-11 10:52:11.114722,0.04015183448791504,-2.5,0.002419114112854004,-0.25,-0.0065593719482421875,0.5,0.04210853576660156,-2.625,0.0015120506286621094,-0.1875,0.01177215576171875,-0.72265625,0.003559589385986328,-0.17578125,0.055204153060913086,-3.125,-0.0026230812072753906,0.0,0.002580404281616211,0.0,0.06608867645263672,-3.8125,-0.004640102386474609,0.125,0.02705097198486328,-1.5625,0.0003132820129394531,0.01953125,-0.004797935485839844,0.11186079680919647,0.0,0.0,0.0,0.0
2025-04-11 10:52:11.595616,0.04015183448791504,-2.5,0.00237119197845459,-0.25,-0.006547451019287109,0.5,0.04210853576660156,-2.625,0.0015361309051513672,-0.1875,0.0117645263671875,-0.72265625,0.003551959991455078,-0.17578125,0.055204153060913086,-3.125,-0.0026230812072753906,0.0,0.002568483352661133,0.0,0.06608867645263672,-3.8125,-0.004628121852874756,0.125,0.02704334259033203,-1.572265625,0.0003209114074707031,0.01953125,-0.004811346530914307,0.055930398404598236,0.0,0.0,0.0,0.0
2025-04-11 10:52:12.068586,0.04015183448791504,-2.5,0.002419114112854004,-0.3125,-0.00653529167175293,0.5,0.04210853576660156,-2.625,0.0015361309051513672,-0.1875,0.01177215576171875,-0.72265625,0.003544330596923828,-0.17578125,0.05519223213195801,-3.125,-0.0026230812072753906,0.0,0.0025925636291503906,0.0,0.06608867645263672,-3.8125,-0.004616141319274902,0.125,0.02704334259033203,-1.591796875,0.0003209114074707031,0.0,-0.004784524440765381,0.11186079680919647,0.0,0.0,0.0,0.0
2025-04-11 10:52:12.560583,0.04015183448791504,-2.5,0.002395153045654297,-0.3125,-0.006547451019287109,0.5,0.042096614837646484,-2.625,0.0015361309051513672,-0.1875,0.01177215576171875,-0.712890625,0.003559589385986328,-0.166015625,0.05519223213195801,-3.125,-0.0026230812072753906,0.0,0.0025925636291503906,0.0,0.06608867645263672,-3.8125,-0.004616141319274902,0.125,0.02704334259033203,-1.572265625,0.0003285408020019531,0.01953125,-0.004797935485839844,0.11186079680919647,0.0,0.0,0.0,0.0
2025-04-11 10:52:13.037789,0.04016375541687012,-2.5,0.002383112907409668,-0.25,-0.006571292877197266,0.5,0.04210853576660156,-2.625,0.0015120506286621094,-0.1875,0.01177215576171875,-0.72265625,0.003551959991455078,-0.17578125,0.05519223213195801,-3.125,-0.0026230812072753906,0.0,0.002580404281616211,0.0,0.06611299514770508,-3.75,-0.004604160785675049,0.125,0.02705097198486328,-1.58203125,0.0003132820129394531,0.01953125,-0.004771173000335693,0.1677911877632141,0.0,0.0,0.0,0.0
2025-04-11 10:52:13.510540,0.040175676345825195,-2.5625,0.0024071931838989258,-0.3125,-0.006547451019287109,0.5625,0.04212069511413574,-2.625,0.0015120506286621094,-0.1875,0.01175689697265625,-0.72265625,0.003551959991455078,-0.17578125,0.05519223213195801,-3.125,-0.0026230812072753906,0.0,0.002568483352661133,0.0,0.06608867645263672,-3.8125,-0.004616141319274902,0.125,0.02705097198486328,-1.572265625,0.0003132820129394531,0.0,-0.004771173000335693,0.11186079680919647,0.0,0.0,0.0,0.0
2025-04-11 10:52:13.985631,0.04015183448791504,-2.5,0.002383112907409668,-0.25,-0.0065953731536865234,0.5,0.04210853576660156,-2.6875,0.0015120506286621094,-0.25,0.01177215576171875,-0.72265625,0.003551959991455078,-0.166015625,0.05519223213195801,-3.1875,-0.0026230812072753906,0.0,0.002580404281616211,0.0,0.06608867645263672,-3.75,-0.004640102386474609,0.125,0.02704334259033203,-1.58203125,0.0003056526184082031,0.01953125,-0.004797935485839844,0.11186079680919647,0.0,0.0,0.0,0.0
2025-04-11 10:52:14.462510,0.04016375541687012,-2.5,0.002347230911254883,-0.3125,-0.006571292877197266,0.5,0.042096614837646484,-2.6875,0.0015120506286621094,-0.25,0.01177215576171875,-0.72265625,0.003544330596923828,-0.17578125,0.05519223213195801,-3.125,-0.0026106834411621094,0.0,0.0025925636291503906,0.0,0.06611299514770508,-3.75,-0.004592180252075195,0.125,0.02705097198486328,-1.572265625,0.0003132820129394531,0.0,-0.004797935485839844,0.11186079680919647,0.0,0.0,0.0,0.0
