UARobotics-Lab/beta_unitree_utilities/arm_movement/g1_pcColiVRi/Robotics4p0/100425/data_g1_20250410_101240.csv
timestamp,q_joint15,tau_joint15,q_joint16,tau_joint16,q_joint17,tau_joint17,q_joint18,tau_joint18,q_joint19,tau_joint19,q_joint20,tau_joint20,q_joint21,tau_joint21,q_joint22,tau_joint22,q_joint23,tau_joint23,q_joint24,tau_joint24,q_joint25,tau_joint25,q_joint26,tau_joint26,q_joint27,tau_joint27,q_joint28,tau_joint28,q_joint12,tau_joint12,q_joint13,tau_joint13,q_joint14,tau_joint14
2025-04-10 10:12:41.118889,0.29216814041137695,0.5,0.22324049472808838,1.4375,-0.005948066711425781,0.3125,0.975440263748169,-0.4375,0.03847146034240723,0.25,0.025861740112304688,-0.126953125,0.0037283897399902344,0.01953125,0.28793787956237793,1.1875,-0.2219700813293457,-1.8125,0.03219342231750488,-0.5,0.9755239486694336,-0.1875,-0.16394644975662231,-0.0625,0.04664754867553711,-0.15625,0.030080318450927734,-0.078125,-0.0013830065727233887,0.055930398404598236,0.0,0.0,0.0,0.0
2025-04-10 10:12:41.595975,0.2921559810638428,0.5,0.22322845458984375,1.375,-0.005972146987915039,0.3125,0.9754283428192139,-0.4375,0.038483381271362305,0.25,0.025861740112304688,-0.126953125,0.003705263137817383,0.01953125,0.2879617214202881,1.1875,-0.2219700813293457,-1.8125,0.03219342231750488,-0.5,0.9755239486694336,-0.1875,-0.16394644975662231,-0.0625,0.04665517807006836,-0.15625,0.030080318450927734,-0.09765625,-0.0013294219970703125,0.11186079680919647,0.0,0.0,0.0,0.0
2025-04-10 10:12:42.070829,0.24563336372375488,0.0,0.12175798416137695,0.0,-0.005228996276855469,0.0625,0.9971554279327393,-0.1875,0.03458857536315918,-0.125,0.02644491195678711,-0.029296875,0.007517337799072266,0.01953125,0.22481703758239746,0.4375,-0.10664606094360352,-0.3125,0.047605276107788086,0.125,1.051623821258545,-0.1875,-0.16554033756256104,-0.0625,0.0649404525756836,-0.029296875,0.02884531021118164,0.029296875,-0.002963244915008545,-0.22372159361839294,0.0,0.0,0.0,0.0
2025-04-10 10:12:42.545895,0.243943452835083,0.0625,0.12157821655273438,0.3125,-0.0051572322845458984,0.0625,0.9983417987823486,-0.1875,0.03406119346618652,-0.0625,0.02644491195678711,-0.029296875,0.007517337799072266,0.01953125,0.20275402069091797,0.5,-0.10454845428466797,-0.6875,0.04691004753112793,0.0625,1.0841126441955566,-0.375,-0.16554033756256104,-0.0625,0.07017135620117188,-0.09765625,0.02881479263305664,0.0390625,-0.0020793676376342773,-0.1677911877632141,0.0,0.0,0.0,0.0
2025-04-10 10:12:43.020938,0.24432706832885742,0.3125,0.12447845935821533,0.875,-0.005396842956542969,0.0625,0.9982459545135498,-0.375,0.03402543067932129,-0.0625,0.02646780014038086,-0.0390625,0.007333278656005859,0.0,0.2046353816986084,1.0,-0.1063222885131836,-1.3125,0.045639753341674805,0.0,1.0799064636230469,-0.875,-0.16551637649536133,-0.125,0.07061624526977539,-0.224609375,0.02884531021118164,0.0390625,-0.0020927786827087402,-0.1677911877632141,0.0,0.0,0.0,0.0
2025-04-10 10:12:43.496052,0.24717926979064941,0.625,0.1318727731704712,1.3125,-0.005888223648071289,0.0625,0.9978983402252197,-0.5,0.0340733528137207,0.0,0.02647542953491211,-0.0390625,0.005615234375,0.0,0.23162388801574707,1.0,-0.11365652084350586,-1.9375,0.0456995964050293,-0.0625,1.035672664642334,-0.75,-0.16549241542816162,-0.125,0.06854534149169922,-0.29296875,0.029896259307861328,0.01953125,-0.0024141669273376465,-0.1677911877632141,0.0,0.0,0.0,0.0
2025-04-10 10:12:43.970981,0.2567906379699707,0.6875,0.1510235071182251,1.75,-0.005984067916870117,0.0625,0.9965202808380127,-0.6875,0.03409719467163086,0.0,0.02646780014038086,-0.048828125,0.004924774169921875,0.0,0.24202632904052734,1.3125,-0.13373041152954102,-2.5,0.04557991027832031,-0.25,1.0116324424743652,-0.625,-0.16542047262191772,-0.0625,0.0638589859008789,-0.419921875,0.030962467193603516,0.01953125,-0.002226710319519043,-0.1677911877632141,0.0,0.0,0.0,0.0
2025-04-10 10:12:44.446133,0.25893592834472656,1.0,0.17352986335754395,1.625,-0.005960226058959961,0.125,0.9953820705413818,-0.8125,0.03414511680603027,0.0,0.02646017074584961,-0.048828125,0.00478672981262207,0.0,0.2568626403808594,1.1875,-0.1639423370361328,-1.9375,0.04550790786743164,-0.3125,0.9996118545532227,-0.625,-0.1654444932937622,-0.0625,0.059801578521728516,-0.41015625,0.031560420989990234,-0.01953125,-0.00221329927444458,-0.1677911877632141,0.0,0.0,0.0,0.0
2025-04-10 10:12:44.920992,0.26061367988586426,1.1875,0.18365657329559326,1.5625,-0.005960226058959961,0.125,0.9928410053253174,-0.875,0.0344088077545166,0.0,0.02644491195678711,-0.068359375,0.004687070846557617,-0.01953125,0.25850462913513184,1.4375,-0.17026996612548828,-2.4375,0.04446530342102051,-0.4375,0.995297908782959,-0.6875,-0.1654444932937622,0.0,0.05506134033203125,-0.341796875,0.03197479248046875,-0.05859375,-0.0022400617599487305,-0.1677911877632141,0.0,0.0,0.0,0.0
2025-04-10 10:12:45.396267,0.2665576934814453,1.125,0.18533432483673096,1.75,-0.005984067916870117,0.125,0.9909117221832275,-0.9375,0.034636497497558594,0.0625,0.02645254135131836,-0.068359375,0.004602670669555664,-0.01953125,0.2658989429473877,1.25,-0.17089319229125977,-2.75,0.04434537887573242,-0.4375,0.9942550659179688,-0.8125,-0.1654444932937622,-0.0625,0.05443239212036133,-0.3515625,0.031951904296875,-0.078125,-0.002173125743865967,-0.1677911877632141,0.0,0.0,0.0,0.0
2025-04-10 10:12:45.871291,0.268571138381958,1.1875,0.188018798828125,1.8125,-0.005960226058959961,0.1875,0.9884669780731201,-0.75,0.034912109375,0.0625,0.02645254135131836,-0.068359375,0.004572153091430664,-0.01953125,0.26842761039733887,1.25,-0.17246341705322266,-2.9375,0.043830156326293945,-0.5,0.9929847717285156,-0.8125,-0.16536056995391846,0.0,0.05353546142578125,-0.3515625,0.031951904296875,-0.078125,-0.002199888229370117,-0.1677911877632141,0.0,0.0,0.0,0.0
2025-04-10 10:12:46.346278,0.270967960357666,1.125,0.18862998485565186,1.875,-0.005995988845825195,0.125,0.9866454601287842,-0.75,0.03485226631164551,0.0625,0.02645254135131836,-0.068359375,0.0045490264892578125,-0.029296875,0.26923036575317383,1.1875,-0.17759275436401367,-2.75,0.04379415512084961,-0.5,0.9925293922424316,-0.8125,-0.16528868675231934,0.0,0.053151607513427734,-0.341796875,0.03195953369140625,-0.068359375,-0.0022400617599487305,-0.1677911877632141,0.0,0.0,0.0,0.0
2025-04-10 10:12:46.821096,0.27100396156311035,1.125,0.18874990940093994,1.875,-0.005984067916870117,0.1875,0.9865376949310303,-0.75,0.034888267517089844,0.0625,0.02646780014038086,-0.068359375,0.0045261383056640625,-0.01953125,0.2692544460296631,1.1875,-0.17788028717041016,-2.75,0.04379415512084961,-0.5,0.9925293922424316,-0.8125,-0.16531264781951904,0.0,0.05302143096923828,-0.341796875,0.031951904296875,-0.078125,-0.002199888229370117,-0.1677911877632141,0.0,0.0,0.0,0.0
2025-04-10 10:12:47.296084,0.27111172676086426,1.125,0.18880975246429443,1.875,-0.006008148193359375,0.125,0.9865014553070068,-0.75,0.034876108169555664,0.0625,0.02646017074584961,-0.068359375,0.0045261383056640625,-0.01953125,0.26926636695861816,1.25,-0.17804813385009766,-2.75,0.04378223419189453,-0.5,0.992469310760498,-0.8125,-0.16531264781951904,0.0,0.052898406982421875,-0.341796875,0.03194427490234375,-0.107421875,-0.002052605152130127,-0.1677911877632141,0.0,0.0,0.0,0.0
2025-04-10 10:12:47.771130,0.2711477279663086,1.125,0.18884575366973877,1.875,-0.006020069122314453,0.125,0.9864294528961182,-0.75,0.034912109375,0.0625,0.02646780014038086,-0.068359375,0.0045261383056640625,-0.01953125,0.2693023681640625,1.1875,-0.17811965942382812,-2.75,0.04377031326293945,-0.5,0.992457389831543,-0.8125,-0.16526472568511963,0.0,0.052860260009765625,-0.322265625,0.03194427490234375,-0.078125,-0.002052605152130127,-0.1677911877632141,0.0,0.0,0.0,0.0
2025-04-10 10:12:48.246343,0.27117180824279785,1.125,0.18888163566589355,1.875,-0.006008148193359375,0.125,0.9863936901092529,-0.75,0.03490018844604492,0.0625,0.02646017074584961,-0.068359375,0.0045337677001953125,-0.009765625,0.26927828788757324,1.1875,-0.17816781997680664,-2.75,0.04378223419189453,-0.5,0.992457389831543,-0.8125,-0.16531264781951904,0.0,0.052837371826171875,-0.322265625,0.031951904296875,-0.078125,-0.0020927786827087402,-0.1677911877632141,0.0,0.0,0.0,0.0
2025-04-10 10:12:48.721091,0.27118372917175293,1.125,0.18890559673309326,1.875,-0.005995988845825195,0.125,0.9863216876983643,-0.75,0.03493618965148926,0.0625,0.02645254135131836,-0.078125,0.004510641098022461,-0.01953125,0.2693023681640625,1.1875,-0.17817974090576172,-2.75,0.04378223419189453,-0.5,0.992457389831543,-0.8125,-0.16526472568511963,0.0,0.05280637741088867,-0.322265625,0.03194427490234375,-0.09765625,-0.0020927786827087402,-0.1677911877632141,0.0,0.0,0.0,0.0
2025-04-10 10:12:49.196126,0.271195650100708,1.125,0.18892967700958252,1.875,-0.005984067916870117,0.125,0.9862978458404541,-0.75,0.034888267517089844,0.0625,0.02646017074584961,-0.078125,0.004518270492553711,-0.01953125,0.2692904472351074,1.1875,-0.17816781997680664,-2.75,0.04378223419189453,-0.5,0.9924454689025879,-0.8125,-0.1653006672859192,0.0,0.05276823043823242,-0.322265625,0.03194427490234375,-0.078125,-0.0020793676376342773,-0.1677911877632141,0.0,0.0,0.0,0.0
2025-04-10 10:12:49.671314,0.271195650100708,1.125,0.1889415979385376,1.875,-0.005995988845825195,0.125,0.9862978458404541,-0.75,0.034888267517089844,0.0625,0.02645254135131836,-0.068359375,0.004510641098022461,-0.009765625,0.2692904472351074,1.25,-0.17817974090576172,-2.75,0.04377031326293945,-0.5,0.992457389831543,-0.8125,-0.16528868675231934,0.0,0.05276823043823242,-0.3125,0.03194427490234375,-0.09765625,-0.0020793676376342773,-0.1677911877632141,0.0,0.0,0.0,0.0
2025-04-10 10:12:50.161277,0.27118372917175293,1.125,0.1889415979385376,1.875,-0.005984067916870117,0.125,0.986285924911499,-0.75,0.034948110580444336,0.0625,0.02645254135131836,-0.078125,0.004510641098022461,-0.01953125,0.26927828788757324,1.25,-0.1781916618347168,-2.75,0.04379415512084961,-0.5,0.9924335479736328,-0.8125,-0.16528868675231934,0.0,0.05275297164916992,-0.322265625,0.0319671630859375,-0.078125,-0.0020793676376342773,-0.1677911877632141,0.0,0.0,0.0,0.0
2025-04-10 10:12:50.636357,0.271195650100708,1.125,0.18897759914398193,1.875,-0.006020069122314453,0.1875,0.9862620830535889,-0.75,0.034948110580444336,0.0625,0.02644491195678711,-0.068359375,0.004503011703491211,-0.029296875,0.26927828788757324,1.1875,-0.1781916618347168,-2.75,0.04378223419189453,-0.5,0.9924454689025879,-0.8125,-0.16531264781951904,0.0,0.05275297164916992,-0.322265625,0.0319361686706543,-0.09765625,-0.002052605152130127,-0.1677911877632141,0.0,0.0,0.0,0.0
2025-04-10 10:12:51.111213,0.271195650100708,1.125,0.18897759914398193,1.9375,-0.005995988845825195,0.125,0.9862377643585205,-0.75,0.034960031509399414,0.0625,0.02646017074584961,-0.068359375,0.004518270492553711,-0.01953125,0.2693023681640625,1.1875,-0.1781916618347168,-2.75,0.04378223419189453,-0.5,0.9924454689025879,-0.8125,-0.16528868675231934,0.0,0.05273771286010742,-0.322265625,0.031951904296875,-0.078125,-0.0020793676376342773,-0.1677911877632141,0.0,0.0,0.0,0.0
2025-04-10 10:12:51.586259,0.27118372917175293,1.0625,0.188989520072937,1.875,-0.005995988845825195,0.125,0.9861657619476318,-0.75,0.034948110580444336,0.0625,0.02645254135131836,-0.068359375,0.004495382308959961,-0.01953125,0.26927828788757324,1.25,-0.1781916618347168,-2.75,0.04377031326293945,-0.5625,0.9924335479736328,-0.8125,-0.16526472568511963,0.0,0.05270671844482422,-0.341796875,0.0319671630859375,-0.068359375,-0.002106189727783203,-0.1677911877632141,0.0,0.0,0.0,0.0
2025-04-10 10:12:52.061210,0.2712676525115967,1.0625,0.18900156021118164,1.875,-0.005984067916870117,0.125,0.9861061573028564,-0.75,0.03499603271484375,0.0625,0.02646017074584961,-0.068359375,0.004510641098022461,-0.01953125,0.2693502902984619,1.1875,-0.17821550369262695,-2.75,0.04378223419189453,-0.5,0.9922895431518555,-0.8125,-0.16528868675231934,0.0,0.05265331268310547,-0.3125,0.03195953369140625,-0.078125,-0.001878499984741211,-0.1677911877632141,0.0,0.0,0.0,0.0
2025-04-10 10:12:52.536276,0.2712676525115967,1.0625,0.18901348114013672,1.875,-0.005995988845825195,0.1875,0.9859983921051025,-0.75,0.03499603271484375,0.0625,0.02645254135131836,-0.048828125,0.004510641098022461,-0.01953125,0.26937437057495117,1.25,-0.1781916618347168,-2.75,0.04377031326293945,-0.5,0.9922895431518555,-0.8125,-0.16528868675231934,0.0,0.052622318267822266,-0.3125,0.031951904296875,-0.068359375,-0.0019722580909729004,-0.1677911877632141,0.0,0.0,0.0,0.0
2025-04-10 10:12:53.011205,0.2712554931640625,1.0625,0.18903744220733643,1.875,-0.005995988845825195,0.125,0.9859263896942139,-0.75,0.034948110580444336,0.0625,0.02646017074584961,-0.068359375,0.004503011703491211,-0.01953125,0.26938629150390625,1.25,-0.1781916618347168,-2.75,0.04377031326293945,-0.5,0.9922895431518555,-0.8125,-0.16528868675231934,0.0,0.052607059478759766,-0.322265625,0.031951904296875,-0.068359375,-0.0019186735153198242,-0.1677911877632141,0.0,0.0,0.0,0.0
2025-04-10 10:12:53.509157,0.2712554931640625,1.0,0.18902552127838135,1.875,-0.005995988845825195,0.125,0.9859263896942139,-0.75,0.034960031509399414,0.0625,0.02645254135131836,-0.068359375,0.004503011703491211,-0.01953125,0.269362211227417,1.25,-0.1781916618347168,-2.75,0.04378223419189453,-0.5,0.9922776222229004,-0.8125,-0.16526472568511963,0.0,0.052584171295166016,-0.322265625,0.03194427490234375,-0.078125,-0.0019052624702453613,-0.1677911877632141,0.0,0.0,0.0,0.0
2025-04-10 10:12:53.984173,0.2712676525115967,1.0625,0.18903744220733643,1.875,-0.005995988845825195,0.1875,0.9859025478363037,-0.75,0.034960031509399414,0.0625,0.02645254135131836,-0.068359375,0.004495382308959961,-0.01953125,0.269362211227417,1.25,-0.1781916618347168,-2.75,0.04377031326293945,-0.5,0.9922895431518555,-0.8125,-0.16528868675231934,0.0,0.052553653717041016,-0.3125,0.031951904296875,-0.078125,-0.001878499984741211,-0.1677911877632141,0.0,0.0,0.0,0.0
2025-04-10 10:12:54.459414,0.2712676525115967,1.0625,0.18903744220733643,1.875,-0.005995988845825195,0.1875,0.9858901500701904,-0.75,0.034972190856933594,0.0625,0.02646017074584961,-0.068359375,0.004495382308959961,-0.01953125,0.2693502902984619,1.1875,-0.17820358276367188,-2.75,0.043746232986450195,-0.5,0.9922776222229004,-0.8125,-0.16528868675231934,0.0,0.052561283111572266,-0.3125,0.03192853927612305,-0.078125,-0.0019052624702453613,-0.1677911877632141,0.0,0.0,0.0,0.0
2025-04-10 10:12:54.934571,0.2712554931640625,1.0625,0.18903744220733643,1.9375,-0.006020069122314453,0.125,0.9859025478363037,-0.75,0.03500795364379883,0.0625,0.02645254135131836,-0.068359375,0.004495382308959961,-0.01953125,0.26938629150390625,1.25,-0.1781916618347168,-2.75,0.04377031326293945,-0.5,0.9922895431518555,-0.8125,-0.1653006672859192,0.0,0.052538394927978516,-0.3125,0.031951904296875,-0.068359375,-0.0019320845603942871,-0.1677911877632141,0.0,0.0,0.0,0.0
2025-04-10 10:12:55.409236,0.2712676525115967,1.0625,0.18904948234558105,1.9375,-0.006020069122314453,0.125,0.9859025478363037,-0.75,0.03499603271484375,0.0625,0.02645254135131836,-0.078125,0.004503011703491211,-0.01953125,0.26933836936950684,1.1875,-0.17822790145874023,-2.75,0.04377031326293945,-0.5,0.9922776222229004,-0.8125,-0.1653006672859192,0.0,0.05251502990722656,-0.3125,0.031951904296875,-0.078125,-0.0019052624702453613,-0.1677911877632141,0.0,0.0,0.0,0.0
2025-04-10 10:12:55.884120,0.2712554931640625,1.0625,0.18906140327453613,1.875,-0.006008148193359375,0.1875,0.9859263896942139,-0.75,0.035032033920288086,0.0625,0.02645254135131836,-0.068359375,0.004495382308959961,-0.01953125,0.26938629150390625,1.25,-0.17822790145874023,-2.75,0.04378223419189453,-0.5,0.9922895431518555,-0.8125,-0.16528868675231934,0.0,0.05246925354003906,-0.3125,0.031951904296875,-0.078125,-0.0019990205764770508,-0.1677911877632141,0.0,0.0,0.0,0.0
2025-04-10 10:12:56.359084,0.2712554931640625,1.0625,0.18907344341278076,1.875,-0.006020069122314453,0.125,0.9859025478363037,-0.75,0.03502011299133301,0.0625,0.02646017074584961,-0.068359375,0.004495382308959961,-0.01953125,0.26938629150390625,1.1875,-0.17822790145874023,-2.75,0.04378223419189453,-0.5,0.9922895431518555,-0.8125,-0.16528868675231934,0.0,0.05246925354003906,-0.302734375,0.031951904296875,-0.078125,-0.002025783061981201,-0.1677911877632141,0.0,0.0,0.0,0.0
2025-04-10 10:12:56.834575,0.2712676525115967,1.0625,0.18906140327453613,1.875,-0.006020069122314453,0.125,0.9859025478363037,-0.75,0.03505587577819824,0.0625,0.02646017074584961,-0.048828125,0.004495382308959961,-0.01953125,0.26938629150390625,1.25,-0.17821550369262695,-2.75,0.04377031326293945,-0.5,0.9922895431518555,-0.8125,-0.1653006672859192,0.0,0.05246162414550781,-0.302734375,0.03194427490234375,-0.09765625,-0.0021865367889404297,-0.1677911877632141,0.0,0.0,0.0,0.0
2025-04-10 10:12:57.309030,0.2712676525115967,1.0625,0.18907344341278076,1.875,-0.005995988845825195,0.1875,0.9859025478363037,-0.75,0.035032033920288086,0.0625,0.02646017074584961,-0.068359375,0.004495382308959961,-0.01953125,0.269362211227417,1.1875,-0.17820358276367188,-2.75,0.04378223419189453,-0.5,0.9922895431518555,-0.8125,-0.16526472568511963,0.0,0.05243062973022461,-0.302734375,0.03194427490234375,-0.078125,-0.0021463632583618164,-0.1677911877632141,0.0,0.0,0.0,0.0
2025-04-10 10:12:57.784307,0.2712676525115967,1.0625,0.18907344341278076,1.875,-0.006020069122314453,0.1875,0.9859025478363037,-0.75,0.03505587577819824,0.0625,0.02645254135131836,-0.068359375,0.004503011703491211,-0.01953125,0.26938629150390625,1.1875,-0.17820358276367188,-2.75,0.04377031326293945,-0.5,0.9922895431518555,-0.8125,-0.16528868675231934,0.0,0.05240011215209961,-0.3125,0.031951904296875,-0.078125,-0.002159714698791504,-0.1677911877632141,0.0,0.0,0.0,0.0
2025-04-10 10:12:58.285864,0.2712554931640625,1.0625,0.18907344341278076,1.875,-0.005995988845825195,0.1875,0.9859025478363037,-0.75,0.03502011299133301,0.0625,0.02645254135131836,-0.048828125,0.004495382308959961,-0.01953125,0.26938629150390625,1.25,-0.17820358276367188,-2.75,0.04378223419189453,-0.5,0.9922895431518555,-0.8125,-0.16528868675231934,0.0,0.05236959457397461,-0.3125,0.03194427490234375,-0.078125,-0.002106189727783203,-0.1677911877632141,0.0,0.0,0.0,0.0
2025-04-10 10:12:58.760760,0.2712676525115967,1.0625,0.18908536434173584,1.875,-0.005995988845825195,0.125,0.9859025478363037,-0.75,0.035032033920288086,0.0625,0.02645254135131836,-0.068359375,0.004495382308959961,-0.01953125,0.26939821243286133,1.25,-0.17820358276367188,-2.75,0.04378223419189453,-0.5,0.9922895431518555,-0.8125,-0.16528868675231934,0.0,0.05236959457397461,-0.302734375,0.031951904296875,-0.078125,-0.002039194107055664,-0.1677911877632141,0.0,0.0,0.0,0.0
2025-04-10 10:12:59.236130,0.2712435722351074,1.0625,0.18909740447998047,1.875,-0.006008148193359375,0.1875,0.9859025478363037,-0.75,0.03502011299133301,0.0625,0.02646017074584961,-0.048828125,0.004495382308959961,-0.01953125,0.26939821243286133,1.25,-0.17821550369262695,-2.75,0.04378223419189453,-0.5,0.9922895431518555,-0.8125,-0.16528868675231934,0.0,0.05237722396850586,-0.302734375,0.03194427490234375,-0.078125,-0.002052605152130127,-0.1677911877632141,0.0,0.0,0.0,0.0
2025-04-10 10:12:59.710953,0.2712435722351074,1.0625,0.18909740447998047,1.875,-0.006020069122314453,0.125,0.9858901500701904,-0.75,0.03500795364379883,0.0625,0.02646017074584961,-0.068359375,0.004487752914428711,-0.009765625,0.26938629150390625,1.25,-0.17821550369262695,-2.75,0.04377031326293945,-0.5,0.9922895431518555,-0.8125,-0.16531264781951904,0.0,0.05236959457397461,-0.3125,0.031951904296875,-0.078125,-0.002106189727783203,-0.1677911877632141,0.0,0.0,0.0,0.0
2025-04-10 10:13:00.185732,0.2712554931640625,1.0625,0.18907344341278076,1.875,-0.005984067916870117,0.1875,0.9859025478363037,-0.75,0.035043954849243164,0.0625,0.02645254135131836,-0.068359375,0.004495382308959961,-0.01953125,0.26939821243286133,1.25,-0.17822790145874023,-2.75,0.04377031326293945,-0.5,0.9922895431518555,-0.8125,-0.16528868675231934,0.0,0.052353858947753906,-0.3125,0.031951904296875,-0.078125,-0.0021463632583618164,-0.1677911877632141,0.0,0.0,0.0,0.0
2025-04-10 10:13:00.660707,0.2712554931640625,1.0625,0.18908536434173584,1.875,-0.006031990051269531,0.125,0.9859025478363037,-0.75,0.035032033920288086,0.0625,0.02645254135131836,-0.068359375,0.004495382308959961,-0.01953125,0.269362211227417,1.1875,-0.17821550369262695,-2.75,0.043746232986450195,-0.5,0.9922895431518555,-0.8125,-0.16526472568511963,0.0,0.052353858947753906,-0.302734375,0.03194427490234375,-0.09765625,-0.0021195411682128906,-0.1677911877632141,0.0,0.0,0.0,0.0
2025-04-10 10:13:01.159509,0.2712554931640625,1.0625,0.18909740447998047,1.875,-0.005995988845825195,0.1875,0.9859025478363037,-0.75,0.035043954849243164,0.0625,0.02645254135131836,-0.068359375,0.004495382308959961,-0.01953125,0.26939821243286133,1.25,-0.17820358276367188,-2.75,0.04377031326293945,-0.5625,0.9922776222229004,-0.8125,-0.16528868675231934,0.0,0.052330970764160156,-0.302734375,0.03194427490234375,-0.068359375,-0.0021195411682128906,-0.1677911877632141,0.0,0.0,0.0,0.0
2025-04-10 10:13:01.634835,0.2712554931640625,1.0625,0.18909740447998047,1.875,-0.006020069122314453,0.125,0.9859025478363037,-0.75,0.035043954849243164,0.0625,0.02646017074584961,-0.068359375,0.004480123519897461,-0.01953125,0.26939821243286133,1.25,-0.17822790145874023,-2.6875,0.04378223419189453,-0.5,0.9922895431518555,-0.8125,-0.16528868675231934,0.0,0.052330970764160156,-0.302734375,0.031951904296875,-0.078125,-0.0021463632583618164,-0.1677911877632141,0.0,0.0,0.0,0.0
2025-04-10 10:13:02.109500,0.27127957344055176,1.0625,0.18908536434173584,1.875,-0.005995988845825195,0.125,0.9859025478363037,-0.75,0.03499603271484375,0.0625,0.02645254135131836,-0.068359375,0.004503011703491211,-0.009765625,0.26938629150390625,1.25,-0.17822790145874023,-2.75,0.04378223419189453,-0.5,0.9922776222229004,-0.8125,-0.16528868675231934,0.0,0.052330970764160156,-0.302734375,0.0319671630859375,-0.078125,-0.0021329522132873535,-0.1677911877632141,0.0,0.0,0.0,0.0
2025-04-10 10:13:02.584532,0.2712676525115967,1.0625,0.18909740447998047,1.875,-0.006020069122314453,0.125,0.9858901500701904,-0.75,0.03500795364379883,0.0625,0.02645254135131836,-0.068359375,0.004487752914428711,-0.01953125,0.26938629150390625,1.1875,-0.1782398223876953,-2.75,0.04377031326293945,-0.5,0.9922895431518555,-0.8125,-0.16531264781951904,0.0,0.052330970764160156,-0.302734375,0.03194427490234375,-0.078125,-0.0021195411682128906,-0.1677911877632141,0.0,0.0,0.0,0.0
2025-04-10 10:13:03.059516,0.2712676525115967,1.0625,0.1891094446182251,1.875,-0.006008148193359375,0.125,0.9858901500701904,-0.75,0.03500795364379883,0.0625,0.02644491195678711,-0.068359375,0.004503011703491211,-0.009765625,0.26937437057495117,1.1875,-0.1782398223876953,-2.75,0.04378223419189453,-0.5,0.9922657012939453,-0.8125,-0.16528868675231934,0.0,0.052330970764160156,-0.302734375,0.031951904296875,-0.078125,-0.0021195411682128906,-0.1677911877632141,0.0,0.0,0.0,0.0
2025-04-10 10:13:03.535349,0.2712676525115967,1.0625,0.18909740447998047,1.875,-0.006008148193359375,0.125,0.9858901500701904,-0.75,0.03505587577819824,0.0625,0.02645254135131836,-0.068359375,0.004495382308959961,-0.01953125,0.26938629150390625,1.25,-0.1782398223876953,-2.75,0.04377031326293945,-0.5,0.9922895431518555,-0.8125,-0.16528868675231934,0.0,0.052323341369628906,-0.302734375,0.031951904296875,-0.078125,-0.0020927786827087402,-0.1677911877632141,0.0,0.0,0.0,0.0
2025-04-10 10:13:04.009527,0.2712435722351074,1.0625,0.1891094446182251,1.875,-0.006020069122314453,0.125,0.9858901500701904,-0.75,0.035043954849243164,0.0625,0.02645254135131836,-0.068359375,0.004495382308959961,-0.01953125,0.2695779800415039,1.1875,-0.17832374572753906,-2.75,0.04373431205749512,-0.5,0.9922895431518555,-0.8125,-0.16528868675231934,0.0,0.052308082580566406,-0.302734375,0.031951904296875,-0.09765625,-0.00206601619720459,-0.1677911877632141,0.0,0.0,0.0,0.0
2025-04-10 10:13:04.505614,0.27133941650390625,1.0625,0.1891334056854248,1.875,-0.005995988845825195,0.1875,0.9858901500701904,-0.75,0.035032033920288086,0.0625,0.02645254135131836,-0.078125,0.004495382308959961,-0.01953125,0.26961398124694824,1.1875,-0.17833566665649414,-2.75,0.04373431205749512,-0.5,0.9920501708984375,-0.8125,-0.16526472568511963,0.0,0.0522160530090332,-0.29296875,0.031951904296875,-0.078125,-0.0012758374214172363,-0.22372159361839294,0.0,0.0,0.0,0.0
2025-04-10 10:13:04.980573,0.27133941650390625,1.0625,0.1891334056854248,1.875,-0.006020069122314453,0.125,0.9858901500701904,-0.75,0.035043954849243164,0.0625,0.02646017074584961,-0.068359375,0.004487752914428711,-0.01953125,0.26961398124694824,1.1875,-0.17833566665649414,-2.75,0.04371023178100586,-0.5,0.9920501708984375,-0.8125,-0.16528868675231934,0.0,0.05220842361450195,-0.302734375,0.03195953369140625,-0.078125,-0.0013830065727233887,-0.1677911877632141,0.0,0.0,0.0,0.0
2025-04-10 10:13:05.455558,0.27132749557495117,1.0625,0.1891334056854248,1.875,-0.005995988845825195,0.125,0.9858901500701904,-0.75,0.03502011299133301,0.0625,0.02645254135131836,-0.068359375,0.004495382308959961,-0.01953125,0.26961398124694824,1.1875,-0.17834758758544922,-2.75,0.04373431205749512,-0.5,0.9920258522033691,-0.8125,-0.16526472568511963,0.0,0.0522160530090332,-0.302734375,0.03195953369140625,-0.078125,-0.001409769058227539,-0.1677911877632141,0.0,0.0,0.0,0.0
2025-04-10 10:13:05.930579,0.27132749557495117,1.0625,0.1891573667526245,1.875,-0.005995988845825195,0.125,0.9858901500701904,-0.75,0.03505587577819824,0.0625,0.02645254135131836,-0.068359375,0.004495382308959961,-0.01953125,0.26909875869750977,1.25,-0.17918634414672852,-2.6875,0.04270362854003906,-0.5,0.9904084205627441,-0.6875,-0.1652287244796753,-0.0625,0.04979228973388672,-0.15625,0.03186750411987305,-0.078125,-0.0013294219970703125,-0.1677911877632141,0.0,0.0,0.0,0.0
2025-04-10 10:13:06.405564,0.27132749557495117,1.0625,0.1891334056854248,1.9375,-0.006020069122314453,0.125,0.9858901500701904,-0.75,0.03509187698364258,0.0625,0.02645254135131836,-0.048828125,0.004495382308959961,-0.01953125,0.26831960678100586,1.25,-0.17934226989746094,-2.6875,0.04270362854003906,-0.5,0.9885025024414062,-0.5625,-0.16515684127807617,-0.0625,0.04887199401855469,-0.09765625,0.0318598747253418,-0.068359375,-0.001235663890838623,-0.22372159361839294,0.0,0.0,0.0,0.0
2025-04-10 10:13:06.880640,0.27132749557495117,1.0625,0.18914532661437988,1.875,-0.005995988845825195,0.125,0.9858901500701904,-0.75,0.035043954849243164,0.0625,0.02645254135131836,-0.068359375,0.004495382308959961,-0.009765625,0.2694580554962158,1.25,-0.1793661117553711,-2.6875,0.04281139373779297,-0.5,0.9896292686462402,-0.625,-0.16524070501327515,0.0,0.04918622970581055,-0.107421875,0.03197479248046875,-0.09765625,-0.0012892484664916992,-0.22372159361839294,0.0,0.0,0.0,0.0
2025-04-10 10:13:07.355597,0.27132749557495117,1.0625,0.18914532661437988,1.875,-0.005995988845825195,0.1875,0.9858901500701904,-0.75,0.03500795364379883,0.0625,0.02646017074584961,-0.048828125,0.004487752914428711,-0.009765625,0.2697458267211914,1.1875,-0.17948627471923828,-2.625,0.04281139373779297,-0.5,0.9896292686462402,-0.6875,-0.16525274515151978,-0.0625,0.04920196533203125,-0.1171875,0.0320439338684082,-0.078125,-0.0013562440872192383,-0.11186079680919647,0.0,0.0,0.0,0.0
2025-04-10 10:13:07.830623,0.27133941650390625,1.0625,0.1891573667526245,1.9375,-0.006020069122314453,0.125,0.9858901500701904,-0.75,0.03500795364379883,0.0625,0.02645254135131836,-0.068359375,0.004487752914428711,-0.009765625,0.26972174644470215,1.1875,-0.17951011657714844,-2.625,0.04283547401428223,-0.5,0.9896292686462402,-0.625,-0.16525274515151978,0.0,0.04920196533203125,-0.1171875,0.0320439338684082,-0.09765625,-0.0014901161193847656,-0.1677911877632141,0.0,0.0,0.0,0.0
2025-04-10 10:13:08.305627,0.27166295051574707,1.0625,0.19003212451934814,1.8125,-0.006044149398803711,0.125,0.985830545425415,-0.75,0.034972190856933594,0.0625,0.02645254135131836,-0.068359375,0.004487752914428711,-0.009765625,0.26993751525878906,1.1875,-0.17954587936401367,-2.625,0.04283547401428223,-0.5,0.989713191986084,-0.6875,-0.16526472568511963,0.0,0.04921722412109375,-0.1171875,0.0320439338684082,-0.09765625,-0.0024543404579162598,-0.1677911877632141,0.0,0.0,0.0,0.0
2025-04-10 10:13:08.780717,0.27313709259033203,1.0,0.21826696395874023,0.0625,-0.004617929458618164,0.0,0.983445405960083,-0.625,0.03502011299133301,0.0625,0.02644491195678711,-0.068359375,0.004434108734130859,-0.01953125,0.26970982551574707,1.1875,-0.1795821189880371,-2.625,0.04283547401428223,-0.5,0.9896650314331055,-0.6875,-0.16525274515151978,-0.0625,0.04920196533203125,-0.1171875,0.03205156326293945,-0.078125,-0.0023605823516845703,-0.1677911877632141,0.0,0.0,0.0,0.0
2025-04-10 10:13:09.255707,0.2730531692504883,1.0,0.214072585105896,0.4375,-0.00514531135559082,0.0625,0.9832899570465088,-0.5625,0.0350799560546875,0.0625,0.02645254135131836,-0.068359375,0.004426240921020508,0.0,0.269817590713501,1.1875,-0.17961788177490234,-2.625,0.042847394943237305,-0.5,0.9897370338439941,-0.6875,-0.1652287244796753,-0.0625,0.04920196533203125,-0.1171875,0.03203630447387695,-0.078125,-0.003016829490661621,-0.11186079680919647,0.0,0.0,0.0,0.0
2025-04-10 10:13:09.730684,0.27222633361816406,1.0,0.22442686557769775,-0.125,-0.0037670135498046875,0.0,0.9829423427581787,-0.5625,0.03500795364379883,0.0625,0.02644491195678711,-0.068359375,0.004418611526489258,-0.009765625,0.26978182792663574,1.1875,-0.17966604232788086,-2.625,0.04283547401428223,-0.5,0.9897851943969727,-0.6875,-0.1652287244796753,0.0,0.04920196533203125,-0.1171875,0.03205156326293945,-0.078125,-0.004489898681640625,0.0,0.0,0.0,0.0,0.0
2025-04-10 10:13:10.213183,0.2770199775695801,0.6875,0.20956647396087646,0.625,-0.005744457244873047,0.0625,0.982990026473999,-0.5625,0.03500795364379883,0.0625,0.02645254135131836,-0.068359375,0.004380226135253906,-0.009765625,0.2698535919189453,1.1875,-0.17968988418579102,-2.625,0.042847394943237305,-0.5,0.9897971153259277,-0.6875,-0.16526472568511963,0.0,0.04920196533203125,-0.1171875,0.03205156326293945,-0.078125,-0.004061400890350342,0.0,0.0,0.0,0.0,0.0
2025-04-10 10:13:10.688163,0.27825427055358887,0.6875,0.205407977104187,0.9375,-0.006067991256713867,0.125,0.982990026473999,-0.5625,0.03505587577819824,0.0625,0.02645254135131836,-0.068359375,0.004372596740722656,-0.009765625,0.2698655128479004,1.1875,-0.17971372604370117,-2.625,0.04283547401428223,-0.5,0.9897851943969727,-0.6875,-0.16525274515151978,-0.0625,0.04920196533203125,-0.1171875,0.0320439338684082,-0.078125,-0.003699779510498047,-0.11186079680919647,0.0,0.0,0.0,0.0
2025-04-10 10:13:11.163096,0.27826642990112305,0.6875,0.205407977104187,0.875,-0.006115913391113281,0.125,0.982990026473999,-0.5625,0.035032033920288086,0.0625,0.02644491195678711,-0.068359375,0.004372596740722656,-0.009765625,0.2698535919189453,1.1875,-0.17973756790161133,-2.625,0.04283547401428223,-0.5,0.9897851943969727,-0.6875,-0.16526472568511963,0.0,0.0492095947265625,-0.1171875,0.0320439338684082,-0.09765625,-0.002668619155883789,-0.1677911877632141,0.0,0.0,0.0,0.0
2025-04-10 10:13:11.638138,0.27825427055358887,0.625,0.205407977104187,0.875,-0.006092071533203125,0.125,0.982978105545044,-0.5625,0.035043954849243164,0.0625,0.02646017074584961,-0.068359375,0.004364967346191406,-0.009765625,0.2698535919189453,1.1875,-0.1797618865966797,-2.625,0.04283547401428223,-0.5,0.9898090362548828,-0.6875,-0.16525274515151978,-0.0625,0.04920196533203125,-0.1171875,0.03205156326293945,-0.09765625,-0.0026953816413879395,-0.1677911877632141,0.0,0.0,0.0,0.0
2025-04-10 10:13:12.113160,0.27825427055358887,0.6875,0.205407977104187,0.9375,-0.006079912185668945,0.125,0.982990026473999,-0.5625,0.035032033920288086,0.0625,0.02645254135131836,-0.068359375,0.004372596740722656,-0.009765625,0.2699015140533447,1.1875,-0.17977380752563477,-2.625,0.04282355308532715,-0.5,0.9898090362548828,-0.6875,-0.16525274515151978,0.0,0.0491938591003418,-0.1171875,0.03205156326293945,-0.078125,-0.0029230713844299316,-0.1677911877632141,0.0,0.0,0.0,0.0
2025-04-10 10:13:12.588133,0.27826642990112305,0.6875,0.205407977104187,0.875,-0.006115913391113281,0.125,0.9830019474029541,-0.5625,0.035032033920288086,0.0625,0.02645254135131836,-0.068359375,0.004357337951660156,-0.01953125,0.2698535919189453,1.1875,-0.17978572845458984,-2.625,0.04283547401428223,-0.5,0.9898090362548828,-0.6875,-0.16525274515151978,0.0,0.0492095947265625,-0.1171875,0.0320439338684082,-0.09765625,-0.0026284456253051758,-0.1677911877632141,0.0,0.0,0.0,0.0
2025-04-10 10:13:13.063129,0.27826642990112305,0.6875,0.205407977104187,0.875,-0.006092071533203125,0.125,0.982990026473999,-0.5625,0.03505587577819824,0.0625,0.02645254135131836,-0.068359375,0.004364967346191406,0.0,0.26982975006103516,1.1875,-0.1798095703125,-2.625,0.04283547401428223,-0.5,0.9897851943969727,-0.6875,-0.16525274515151978,-0.0625,0.0492095947265625,-0.1171875,0.03203630447387695,-0.09765625,-0.0026016831398010254,-0.1677911877632141,0.0,0.0,0.0,0.0
2025-04-10 10:13:13.538308,0.27825427055358887,0.6875,0.205407977104187,0.9375,-0.006115913391113281,0.125,0.982990026473999,-0.5625,0.035032033920288086,0.0625,0.02645254135131836,-0.068359375,0.004372596740722656,-0.01953125,0.2698535919189453,1.1875,-0.1798095703125,-2.625,0.042847394943237305,-0.5,0.9898090362548828,-0.6875,-0.16525274515151978,0.0,0.04920196533203125,-0.1171875,0.0320439338684082,-0.09765625,-0.002615034580230713,-0.1677911877632141,0.0,0.0,0.0,0.0
2025-04-10 10:13:14.013337,0.2782783508300781,0.6875,0.205407977104187,0.875,-0.006115913391113281,0.125,0.9830019474029541,-0.5625,0.035103797912597656,0.0625,0.02644491195678711,-0.068359375,0.004357337951660156,-0.01953125,0.26982975006103516,1.1875,-0.17985773086547852,-2.625,0.04282355308532715,-0.5,0.9898090362548828,-0.6875,-0.16526472568511963,0.0,0.04920196533203125,-0.1171875,0.0320439338684082,-0.09765625,-0.0025748610496520996,-0.1677911877632141,0.0,0.0,0.0,0.0
2025-04-10 10:13:14.498699,0.27826642990112305,0.6875,0.20539593696594238,0.9375,-0.006092071533203125,0.125,0.982978105545044,-0.5625,0.0350799560546875,0.125,0.02645254135131836,-0.068359375,0.004364967346191406,0.0,0.2698535919189453,1.1875,-0.1798696517944336,-2.625,0.04283547401428223,-0.5,0.9898090362548828,-0.6875,-0.16526472568511963,0.0,0.04920196533203125,-0.1171875,0.0320439338684082,-0.078125,-0.0026016831398010254,-0.1677911877632141,0.0,0.0,0.0,0.0
2025-04-10 10:13:14.973765,0.2782783508300781,0.6875,0.205407977104187,0.9375,-0.006092071533203125,0.1875,0.982990026473999,-0.5625,0.035032033920288086,0.0625,0.02645254135131836,-0.048828125,0.004364967346191406,-0.009765625,0.2698535919189453,1.125,-0.1798696517944336,-2.625,0.042847394943237305,-0.5,0.9898090362548828,-0.75,-0.16525274515151978,-0.0625,0.04920196533203125,-0.1171875,0.0320439338684082,-0.09765625,-0.0025882720947265625,-0.1677911877632141,0.0,0.0,0.0,0.0
2025-04-10 10:13:15.450674,0.2782783508300781,0.75,0.20543193817138672,0.875,-0.006115913391113281,0.125,0.982978105545044,-0.5625,0.03500795364379883,0.0625,0.02645254135131836,-0.068359375,0.004364967346191406,-0.009765625,0.26982975006103516,1.1875,-0.17988157272338867,-2.625,0.042847394943237305,-0.5,0.9898090362548828,-0.6875,-0.16526472568511963,-0.0625,0.04920196533203125,-0.126953125,0.03205156326293945,-0.09765625,-0.0025882720947265625,-0.1677911877632141,0.0,0.0,0.0,0.0
2025-04-10 10:13:15.925661,0.27826642990112305,0.6875,0.205407977104187,0.875,-0.006092071533203125,0.125,0.982978105545044,-0.5625,0.035043954849243164,0.0625,0.02646017074584961,-0.068359375,0.004364967346191406,-0.01953125,0.2698655128479004,1.25,-0.1799173355102539,-2.625,0.04283547401428223,-0.5,0.9898090362548828,-0.6875,-0.16526472568511963,0.0,0.0492095947265625,-0.1171875,0.03205156326293945,-0.09765625,-0.0026016831398010254,-0.1677911877632141,0.0,0.0,0.0,0.0
2025-04-10 10:13:16.400603,0.27826642990112305,0.6875,0.205407977104187,0.875,-0.006067991256713867,0.1875,0.982990026473999,-0.5625,0.03500795364379883,0.0625,0.02645254135131836,-0.068359375,0.004364967346191406,-0.009765625,0.26984167098999023,1.1875,-0.1799173355102539,-2.625,0.04282355308532715,-0.5,0.9898090362548828,-0.6875,-0.16525274515151978,-0.0625,0.0491938591003418,-0.1171875,0.0320439338684082,-0.09765625,-0.0026016831398010254,-0.1677911877632141,0.0,0.0,0.0,0.0
2025-04-10 10:13:16.875627,0.2782783508300781,0.6875,0.20543193817138672,0.875,-0.006092071533203125,0.125,0.982990026473999,-0.5625,0.035043954849243164,0.0625,0.02646017074584961,-0.048828125,0.004372596740722656,-0.01953125,0.26982975006103516,1.1875,-0.17992925643920898,-2.6875,0.04283547401428223,-0.5,0.9898090362548828,-0.6875,-0.16526472568511963,0.0,0.0492095947265625,-0.1171875,0.0320439338684082,-0.09765625,-0.0025882720947265625,-0.1677911877632141,0.0,0.0,0.0,0.0
2025-04-10 10:13:17.350766,0.2782783508300781,0.6875,0.205407977104187,0.875,-0.006115913391113281,0.125,0.982990026473999,-0.5625,0.035032033920288086,0.0625,0.02644491195678711,-0.068359375,0.004364967346191406,-0.009765625,0.26984167098999023,1.1875,-0.17994165420532227,-2.625,0.04283547401428223,-0.5,0.9898090362548828,-0.6875,-0.16525274515151978,0.0,0.04920196533203125,-0.1171875,0.0320439338684082,-0.09765625,-0.0025882720947265625,-0.1677911877632141,0.0,0.0,0.0,0.0
2025-04-10 10:13:17.825666,0.27825427055358887,0.6875,0.205407977104187,0.875,-0.006115913391113281,0.125,0.982990026473999,-0.5625,0.03505587577819824,0.0625,0.02645254135131836,-0.068359375,0.004364967346191406,-0.009765625,0.2698535919189453,1.1875,-0.17994165420532227,-2.625,0.04282355308532715,-0.5,0.9898090362548828,-0.6875,-0.16526472568511963,0.0,0.04920196533203125,-0.1171875,0.0320439338684082,-0.09765625,-0.0026016831398010254,-0.1677911877632141,0.0,0.0,0.0,0.0
2025-04-10 10:13:18.300789,0.27826642990112305,0.6875,0.205407977104187,0.9375,-0.006115913391113281,0.125,0.982978105545044,-0.5625,0.03502011299133301,0.0625,0.02646017074584961,-0.068359375,0.004372596740722656,-0.009765625,0.26984167098999023,1.1875,-0.17996549606323242,-2.625,0.04283547401428223,-0.5,0.9898209571838379,-0.625,-0.16526472568511963,0.0,0.0492095947265625,-0.126953125,0.0320439338684082,-0.078125,-0.0026016831398010254,-0.1677911877632141,0.0,0.0,0.0,0.0
2025-04-10 10:13:18.775696,0.27826642990112305,0.6875,0.20539593696594238,0.9375,-0.006115913391113281,0.125,0.982990026473999,-0.5625,0.03499603271484375,0.0625,0.02646017074584961,-0.068359375,0.004372596740722656,-0.01953125,0.2698535919189453,1.25,-0.17995357513427734,-2.625,0.04283547401428223,-0.5,0.9898090362548828,-0.6875,-0.16525274515151978,0.0,0.04921722412109375,-0.1171875,0.03205156326293945,-0.078125,-0.0026016831398010254,-0.1677911877632141,0.0,0.0,0.0,0.0
2025-04-10 10:13:19.250707,0.2782783508300781,0.6875,0.205407977104187,0.9375,-0.006079912185668945,0.1875,0.982990026473999,-0.5625,0.035043954849243164,0.0625,0.02646017074584961,-0.068359375,0.004364967346191406,-0.01953125,0.26984167098999023,1.1875,-0.1799774169921875,-2.625,0.042847394943237305,-0.4375,0.9898090362548828,-0.6875,-0.16526472568511963,0.0,0.0492095947265625,-0.1171875,0.0320439338684082,-0.09765625,-0.0026016831398010254,-0.1677911877632141,0.0,0.0,0.0,0.0
2025-04-10 10:13:19.725697,0.27826642990112305,0.6875,0.2053840160369873,0.875,-0.006115913391113281,0.125,0.982978105545044,-0.5625,0.03509187698364258,0.0625,0.02646017074584961,-0.068359375,0.004372596740722656,-0.009765625,0.2698655128479004,1.1875,-0.18000125885009766,-2.625,0.042847394943237305,-0.5,0.989832878112793,-0.6875,-0.16525274515151978,-0.0625,0.04920196533203125,-0.1171875,0.0320439338684082,-0.09765625,-0.0026016831398010254,-0.1677911877632141,0.0,0.0,0.0,0.0
2025-04-10 10:13:20.222815,0.27826642990112305,0.6875,0.205407977104187,0.9375,-0.006092071533203125,0.125,0.982990026473999,-0.625,0.03502011299133301,0.0625,0.02644491195678711,-0.068359375,0.004372596740722656,-0.009765625,0.2698655128479004,1.125,-0.18000125885009766,-2.625,0.04282355308532715,-0.5,0.989832878112793,-0.6875,-0.16525274515151978,-0.0625,0.04920196533203125,-0.126953125,0.0320439338684082,-0.09765625,-0.0026016831398010254,-0.1677911877632141,0.0,0.0,0.0,0.0
2025-04-10 10:13:20.703344,0.27826642990112305,0.6875,0.205407977104187,0.875,-0.006127834320068359,0.125,0.982978105545044,-0.5625,0.035043954849243164,0.0625,0.02645254135131836,-0.068359375,0.004372596740722656,-0.009765625,0.26984167098999023,1.125,-0.18000125885009766,-2.625,0.04283547401428223,-0.5,0.9898090362548828,-0.6875,-0.16525274515151978,0.0,0.04920196533203125,-0.1171875,0.03205156326293945,-0.078125,-0.0026016831398010254,-0.1677911877632141,0.0,0.0,0.0,0.0
2025-04-10 10:13:21.202086,0.2782783508300781,0.6875,0.20543193817138672,0.9375,-0.006127834320068359,0.125,0.9830019474029541,-0.5625,0.035043954849243164,0.125,0.02645254135131836,-0.068359375,0.004364967346191406,-0.01953125,0.26984167098999023,1.1875,-0.18002557754516602,-2.625,0.042847394943237305,-0.5,0.9898090362548828,-0.6875,-0.16525274515151978,0.0,0.0492095947265625,-0.1171875,0.0320439338684082,-0.09765625,-0.0025882720947265625,-0.1677911877632141,0.0,0.0,0.0,0.0
2025-04-10 10:13:21.677062,0.27826642990112305,0.6875,0.205407977104187,0.875,-0.006127834320068359,0.125,0.982978105545044,-0.5625,0.03502011299133301,0.0625,0.02645254135131836,-0.048828125,0.004364967346191406,-0.01953125,0.2698535919189453,1.1875,-0.18002557754516602,-2.625,0.04283547401428223,-0.5,0.989832878112793,-0.6875,-0.16525274515151978,-0.0625,0.04920196533203125,-0.1171875,0.0320439338684082,-0.078125,-0.0025882720947265625,-0.1677911877632141,0.0,0.0,0.0,0.0
2025-04-10 10:13:22.152151,0.27826642990112305,0.625,0.20543193817138672,0.9375,-0.006092071533203125,0.1875,0.982990026473999,-0.5625,0.035032033920288086,0.0625,0.02645254135131836,-0.068359375,0.004364967346191406,-0.01953125,0.26984167098999023,1.1875,-0.1800374984741211,-2.625,0.04283547401428223,-0.5,0.989832878112793,-0.6875,-0.16526472568511963,-0.0625,0.04920196533203125,-0.126953125,0.03205156326293945,-0.078125,-0.0026016831398010254,-0.1677911877632141,0.0,0.0,0.0,0.0
2025-04-10 10:13:22.661298,0.2782902717590332,0.6875,0.205407977104187,0.9375,-0.006115913391113281,0.1875,0.982978105545044,-0.5625,0.03506803512573242,0.0625,0.02645254135131836,-0.048828125,0.004364967346191406,-0.01953125,0.2698535919189453,1.1875,-0.18006134033203125,-2.625,0.04283547401428223,-0.5,0.989832878112793,-0.625,-0.1652287244796753,0.0,0.0492095947265625,-0.1171875,0.0320439338684082,-0.078125,-0.001757979393005371,-0.1677911877632141,0.0,0.0,0.0,0.0
2025-04-10 10:13:23.136288,0.27826642990112305,0.6875,0.205407977104187,0.875,-0.006092071533203125,0.1875,0.982978105545044,-0.5625,0.03505587577819824,0.0625,0.02645254135131836,-0.068359375,0.004364967346191406,-0.009765625,0.2698535919189453,1.1875,-0.1800851821899414,-2.625,0.04283547401428223,-0.5,0.9898090362548828,-0.6875,-0.16525274515151978,-0.0625,0.04920196533203125,-0.107421875,0.0320439338684082,-0.078125,0.004911184310913086,-0.615234375,0.0,0.0,0.0,0.0
2025-04-10 10:13:23.611273,0.2782902717590332,0.6875,0.20543193817138672,0.875,-0.006092071533203125,0.1875,0.982990026473999,-0.5,0.03506803512573242,0.0625,0.02646017074584961,-0.068359375,0.004380226135253906,-0.01953125,0.26987767219543457,1.1875,-0.18010902404785156,-2.625,0.04282355308532715,-0.5,0.989832878112793,-0.6875,-0.16524070501327515,0.0,0.0492095947265625,-0.126953125,0.03205156326293945,-0.078125,0.014499783515930176,-1.1745383739471436,0.0,0.0,0.0,0.0
2025-04-10 10:13:24.086337,0.27832627296447754,0.6875,0.205407977104187,0.875,-0.006092071533203125,0.125,0.982990026473999,-0.5625,0.035043954849243164,0.0625,0.02644491195678711,-0.068359375,0.004372596740722656,-0.009765625,0.26988959312438965,1.1875,-0.18013334274291992,-2.625,0.04283547401428223,-0.5,0.989844799041748,-0.6875,-0.16525274515151978,-0.0625,0.04921722412109375,-0.1171875,0.03205156326293945,-0.09765625,0.04005151987075806,-2.7405896186828613,0.0,0.0,0.0,0.0
2025-04-10 10:13:24.561372,0.2784101963043213,0.625,0.20539593696594238,0.875,-0.006115913391113281,0.125,0.982978105545044,-0.5625,0.03506803512573242,0.0625,0.02644491195678711,-0.068359375,0.004372596740722656,-0.009765625,0.26987767219543457,1.1875,-0.1802048683166504,-2.625,0.04283547401428223,-0.5,0.989844799041748,-0.6875,-0.16524070501327515,-0.0625,0.04920196533203125,-0.126953125,0.0320281982421875,-0.09765625,0.04550200700759888,-2.852450370788574,0.0,0.0,0.0,0.0
2025-04-10 10:13:25.036385,0.2784101963043213,0.625,0.20539593696594238,0.9375,-0.006139993667602539,0.125,0.982978105545044,-0.5625,0.03505587577819824,0.0625,0.02645254135131836,-0.068359375,0.004364967346191406,-0.009765625,0.27004528045654297,1.1875,-0.18033695220947266,-2.5625,0.04283547401428223,-0.5,0.9898929595947266,-0.6875,-0.16526472568511963,0.0,0.04921722412109375,-0.126953125,0.03203630447387695,-0.09765625,0.009223401546478271,-0.7270951867103577,0.0,0.0,0.0,0.0
2025-04-10 10:13:25.511397,0.2784101963043213,0.625,0.20543193817138672,0.875,-0.006092071533203125,0.125,0.982990026473999,-0.5625,0.035043954849243164,0.0625,0.02645254135131836,-0.068359375,0.004372596740722656,-0.009765625,0.2700333595275879,1.1875,-0.18039703369140625,-2.625,0.04283547401428223,-0.5,0.9899287223815918,-0.6875,-0.16525274515151978,0.0,0.04920196533203125,-0.126953125,0.03203630447387695,-0.09765625,0.0009873509407043457,-0.3355823755264282,0.0,0.0,0.0,0.0
2025-04-10 10:13:26.006350,0.2784101963043213,0.625,0.205407977104187,0.875,-0.006127834320068359,0.125,0.982978105545044,-0.5625,0.03505587577819824,0.0625,0.02645254135131836,-0.068359375,0.004364967346191406,-0.01953125,0.26999735832214355,1.1875,-0.18051671981811523,-2.625,0.04283547401428223,-0.5,0.9899287223815918,-0.625,-0.1652287244796753,-0.0625,0.04921722412109375,-0.1171875,0.0320439338684082,-0.09765625,0.0011212825775146484,-0.3355823755264282,0.0,0.0,0.0,0.0
2025-04-10 10:13:26.481328,0.2784101963043213,0.625,0.205407977104187,0.875,-0.006115913391113281,0.125,0.9830019474029541,-0.5625,0.03506803512573242,0.0625,0.02645254135131836,-0.068359375,0.004364967346191406,0.0,0.27004528045654297,1.25,-0.18057680130004883,-2.625,0.04283547401428223,-0.5,0.9899530410766602,-0.6875,-0.16524070501327515,0.0,0.0492095947265625,-0.1171875,0.0320439338684082,-0.09765625,0.0009873509407043457,-0.3355823755264282,0.0,0.0,0.0,0.0
2025-04-10 10:13:26.966697,0.2784101963043213,0.625,0.20543193817138672,0.875,-0.006092071533203125,0.125,0.982978105545044,-0.5625,0.0350799560546875,0.0625,0.02644491195678711,-0.048828125,0.004364967346191406,-0.01953125,0.27000951766967773,1.1875,-0.18060064315795898,-2.625,0.04283547401428223,-0.5,0.9899287223815918,-0.6875,-0.16525274515151978,0.0,0.0492095947265625,-0.1171875,0.0320439338684082,-0.09765625,0.0006793737411499023,-0.3355823755264282,0.0,0.0,0.0,0.0
2025-04-10 10:13:27.441789,0.2784101963043213,0.625,0.20543193817138672,0.875,-0.006092071533203125,0.125,0.982990026473999,-0.5625,0.035032033920288086,0.0625,0.02645254135131836,-0.068359375,0.004364967346191406,-0.01953125,0.26999735832214355,1.125,-0.18061256408691406,-2.625,0.04283547401428223,-0.5,0.9899287223815918,-0.6875,-0.16525274515151978,-0.0625,0.0492095947265625,-0.126953125,0.0320439338684082,-0.09765625,0.0007328987121582031,-0.2796519994735718,0.0,0.0,0.0,0.0
2025-04-10 10:13:27.916908,0.2784101963043213,0.625,0.205407977104187,0.875,-0.006079912185668945,0.125,0.9830019474029541,-0.5625,0.03505587577819824,0.0625,0.02645254135131836,-0.048828125,0.004364967346191406,-0.01953125,0.27000951766967773,1.1875,-0.18063640594482422,-2.5625,0.04283547401428223,-0.5,0.9899287223815918,-0.6875,-0.1652287244796753,-0.0625,0.0492095947265625,-0.1171875,0.0320439338684082,-0.078125,0.0007195472717285156,-0.2796519994735718,0.0,0.0,0.0,0.0
2025-04-10 10:13:28.391969,0.2784101963043213,0.625,0.205407977104187,0.875,-0.006092071533203125,0.1875,0.982990026473999,-0.5625,0.03505587577819824,0.0625,0.02644491195678711,-0.068359375,0.004372596740722656,-0.009765625,0.27000951766967773,1.1875,-0.1806483268737793,-2.625,0.04283547401428223,-0.5,0.9899287223815918,-0.6875,-0.16525274515151978,-0.0625,0.0492095947265625,-0.1171875,0.0320439338684082,-0.078125,0.0006257891654968262,-0.2796519994735718,0.0,0.0,0.0,0.0
2025-04-10 10:13:28.867025,0.2784101963043213,0.625,0.205407977104187,0.875,-0.006092071533203125,0.1875,0.982990026473999,-0.5625,0.035103797912597656,0.0625,0.02645254135131836,-0.068359375,0.004380226135253906,-0.009765625,0.2700214385986328,1.1875,-0.18066072463989258,-2.625,0.04283547401428223,-0.5,0.9899287223815918,-0.6875,-0.16526472568511963,0.0,0.0492095947265625,-0.1171875,0.0320439338684082,-0.09765625,0.0003713369369506836,-0.2796519994735718,0.0,0.0,0.0,0.0
2025-04-10 10:13:29.356155,0.2784101963043213,0.625,0.205407977104187,0.875,-0.006115913391113281,0.125,0.982978105545044,-0.5625,0.035032033920288086,0.0625,0.02644491195678711,-0.068359375,0.004372596740722656,-0.009765625,0.2700333595275879,1.1875,-0.18067264556884766,-2.625,0.04283547401428223,-0.5,0.9899287223815918,-0.6875,-0.16525274515151978,-0.0625,0.04921722412109375,-0.126953125,0.03203630447387695,-0.09765625,0.00029098987579345703,-0.2796519994735718,0.0,0.0,0.0,0.0
2025-04-10 10:13:29.902579,0.27842211723327637,0.625,0.205407977104187,0.875,-0.006092071533203125,0.125,0.982990026473999,-0.5625,0.03500795364379883,0.0625,0.02645254135131836,-0.068359375,0.004364967346191406,-0.01953125,0.27000951766967773,1.1875,-0.18068456649780273,-2.625,0.04282355308532715,-0.5,0.9899287223815918,-0.6875,-0.16525274515151978,-0.0625,0.0492095947265625,-0.1171875,0.0320439338684082,-0.09765625,-0.00021791458129882812,-0.22372159361839294,0.0,0.0,0.0,0.0
2025-04-10 10:13:30.377362,0.27842211723327637,0.625,0.20539593696594238,0.875,-0.006127834320068359,0.125,0.982978105545044,-0.5625,0.035032033920288086,0.0625,0.02645254135131836,-0.068359375,0.004364967346191406,-0.01953125,0.2700333595275879,1.1875,-0.1806964874267578,-2.5625,0.042847394943237305,-0.5,0.9899530410766602,-0.6875,-0.16526472568511963,0.0,0.0492095947265625,-0.126953125,0.0320439338684082,-0.078125,-0.0007535815238952637,-0.22372159361839294,0.0,0.0,0.0,0.0
2025-04-10 10:13:30.852459,0.27842211723327637,0.625,0.205407977104187,0.875,-0.006127834320068359,0.1875,0.982978105545044,-0.5625,0.035043954849243164,0.0625,0.02644491195678711,-0.068359375,0.004364967346191406,-0.009765625,0.27000951766967773,1.1875,-0.1806964874267578,-2.625,0.04283547401428223,-0.5,0.9899287223815918,-0.6875,-0.1652287244796753,-0.0625,0.0492095947265625,-0.1171875,0.03205156326293945,-0.09765625,-0.0009544491767883301,-0.22372159361839294,0.0,0.0,0.0,0.0
2025-04-10 10:13:31.327565,0.27842211723327637,0.625,0.205407977104187,0.875,-0.006115913391113281,0.125,0.9829542636871338,-0.5625,0.035032033920288086,0.0625,0.02646017074584961,-0.068359375,0.004357337951660156,-0.009765625,0.26999735832214355,1.1875,-0.1806964874267578,-2.5625,0.04283547401428223,-0.5,0.9899287223815918,-0.6875,-0.16525274515151978,-0.0625,0.04920196533203125,-0.1171875,0.03205156326293945,-0.078125,-0.00107496976852417,-0.22372159361839294,0.0,0.0,0.0,0.0
2025-04-10 10:13:31.812692,0.2784101963043213,0.625,0.205407977104187,0.875,-0.006115913391113281,0.125,0.982990026473999,-0.5625,0.03506803512573242,0.0625,0.02645254135131836,-0.068359375,0.004372596740722656,-0.009765625,0.26999735832214355,1.125,-0.18072032928466797,-2.625,0.04283547401428223,-0.5,0.9899530410766602,-0.6875,-0.16525274515151978,-0.0625,0.0492095947265625,-0.126953125,0.0320439338684082,-0.09765625,-0.0018115639686584473,-0.1677911877632141,0.0,0.0,0.0,0.0
2025-04-10 10:13:32.287961,0.27842211723327637,0.625,0.205407977104187,0.875,-0.006127834320068359,0.125,0.982978105545044,-0.5625,0.035043954849243164,0.0625,0.02644491195678711,-0.048828125,0.004364967346191406,-0.009765625,0.26999735832214355,1.1875,-0.18072032928466797,-2.625,0.04283547401428223,-0.5,0.9899530410766602,-0.6875,-0.1652287244796753,-0.0625,0.0492095947265625,-0.1171875,0.0320439338684082,-0.078125,-0.00221329927444458,-0.1677911877632141,0.0,0.0,0.0,0.0
2025-04-10 10:13:32.780832,0.2784101963043213,0.625,0.2054198980331421,0.9375,-0.006092071533203125,0.125,0.982990026473999,-0.5625,0.035032033920288086,0.0625,0.02645254135131836,-0.068359375,0.004364967346191406,-0.01953125,0.27000951766967773,1.1875,-0.18072032928466797,-2.625,0.04283547401428223,-0.5,0.9899649620056152,-0.6875,-0.16525274515151978,-0.0625,0.0492095947265625,-0.126953125,0.03205156326293945,-0.09765625,-0.0022936463356018066,-0.1677911877632141,0.0,0.0,0.0,0.0
2025-04-10 10:13:33.255899,0.27842211723327637,0.625,0.205407977104187,0.875,-0.006127834320068359,0.125,0.9830019474029541,-0.5625,0.035032033920288086,0.0625,0.02645254135131836,-0.068359375,0.004372596740722656,-0.01953125,0.27000951766967773,1.1875,-0.18072032928466797,-2.625,0.04282355308532715,-0.5,0.9899287223815918,-0.6875,-0.16525274515151978,-0.0625,0.04920196533203125,-0.1171875,0.03205156326293945,-0.09765625,-0.0022802352905273438,-0.1677911877632141,0.0,0.0,0.0,0.0
2025-04-10 10:13:33.730714,0.2784101963043213,0.625,0.2054198980331421,0.9375,-0.006115913391113281,0.125,0.982978105545044,-0.5625,0.03502011299133301,0.0625,0.02645254135131836,-0.068359375,0.004372596740722656,0.0,0.2700214385986328,1.1875,-0.18072032928466797,-2.625,0.042847394943237305,-0.5,0.9899287223815918,-0.6875,-0.16525274515151978,0.0,0.0492095947265625,-0.1171875,0.0320439338684082,-0.09765625,-0.002521336078643799,-0.1677911877632141,0.0,0.0,0.0,0.0
2025-04-10 10:13:34.208750,0.2784101963043213,0.625,0.205407977104187,0.875,-0.006079912185668945,0.1875,0.982978105545044,-0.5625,0.03500795364379883,0.0625,0.02644491195678711,-0.078125,0.004364967346191406,-0.01953125,0.26999735832214355,1.1875,-0.18072032928466797,-2.625,0.04282355308532715,-0.5,0.9899287223815918,-0.6875,-0.16525274515151978,-0.0625,0.04921722412109375,-0.1171875,0.0320439338684082,-0.078125,-0.002655208110809326,-0.1677911877632141,0.0,0.0,0.0,0.0
2025-04-10 10:13:34.683717,0.2784101963043213,0.625,0.205407977104187,0.875,-0.006092071533203125,0.125,0.982978105545044,-0.5625,0.03500795364379883,0.0625,0.02644491195678711,-0.048828125,0.004364967346191406,-0.009765625,0.2700214385986328,1.1875,-0.18074417114257812,-2.5625,0.04282355308532715,-0.5,0.9899287223815918,-0.6875,-0.16526472568511963,0.0,0.04920196533203125,-0.126953125,0.03203630447387695,-0.078125,-0.0035257339477539062,-0.1677911877632141,0.0,0.0,0.0,0.0
2025-04-10 10:13:35.158900,0.2784101963043213,0.625,0.205407977104187,0.875,-0.006115913391113281,0.125,0.9829542636871338,-0.5625,0.03506803512573242,0.0625,0.02644491195678711,-0.068359375,0.004364967346191406,-0.009765625,0.2700214385986328,1.1875,-0.18072032928466797,-2.5625,0.04283547401428223,-0.5,0.9899287223815918,-0.6875,-0.16525274515151978,0.0,0.0492095947265625,-0.1171875,0.0320439338684082,-0.078125,-0.003606081008911133,-0.11186079680919647,0.0,0.0,0.0,0.0
2025-04-10 10:13:35.634329,0.2783982753753662,0.625,0.20543193817138672,0.9375,-0.006115913391113281,0.125,0.982978105545044,-0.5625,0.035032033920288086,0.0625,0.02644491195678711,-0.068359375,0.004372596740722656,-0.01953125,0.27004528045654297,1.1875,-0.18074417114257812,-2.625,0.042847394943237305,-0.5,0.9899287223815918,-0.6875,-0.1652287244796753,-0.0625,0.04921722412109375,-0.126953125,0.03205156326293945,-0.078125,-0.003458738327026367,-0.11186079680919647,0.0,0.0,0.0,0.0
2025-04-10 10:13:36.112520,0.2784101963043213,0.625,0.205407977104187,0.875,-0.006115913391113281,0.125,0.982978105545044,-0.5625,0.035043954849243164,0.0625,0.02645254135131836,-0.068359375,0.004364967346191406,-0.01953125,0.27000951766967773,1.1875,-0.18073225021362305,-2.5625,0.042847394943237305,-0.5,0.9899287223815918,-0.6875,-0.16525274515151978,0.0,0.04921722412109375,-0.1171875,0.03205156326293945,-0.078125,-0.0038337111473083496,-0.11186079680919647,0.0,0.0,0.0,0.0
2025-04-10 10:13:36.593335,0.2784101963043213,0.625,0.205407977104187,0.875,-0.006127834320068359,0.125,0.9829542636871338,-0.5625,0.035032033920288086,0.0625,0.02645254135131836,-0.068359375,0.004364967346191406,-0.009765625,0.2700333595275879,1.1875,-0.18076848983764648,-2.5625,0.042847394943237305,-0.5,0.9899287223815918,-0.6875,-0.16525274515151978,0.0,0.0492095947265625,-0.126953125,0.03205156326293945,-0.078125,-0.0037801265716552734,-0.11186079680919647,0.0,0.0,0.0,0.0
2025-04-10 10:13:37.069584,0.2784101963043213,0.625,0.20543193817138672,0.875,-0.006079912185668945,0.125,0.982978105545044,-0.5625,0.03506803512573242,0.0625,0.02646017074584961,-0.068359375,0.004380226135253906,-0.009765625,0.26999735832214355,1.1875,-0.1807565689086914,-2.5625,0.04282355308532715,-0.5,0.9899287223815918,-0.6875,-0.1652287244796753,-0.0625,0.0492095947265625,-0.107421875,0.03203630447387695,-0.078125,-0.0038203001022338867,-0.11186079680919647,0.0,0.0,0.0,0.0
2025-04-10 10:13:37.543300,0.27843403816223145,0.625,0.205407977104187,0.9375,-0.006092071533203125,0.125,0.982978105545044,-0.5625,0.03506803512573242,0.0625,0.02644491195678711,-0.068359375,0.004357337951660156,-0.01953125,0.26999735832214355,1.1875,-0.18076848983764648,-2.5625,0.04283547401428223,-0.5,0.9899530410766602,-0.6875,-0.16526472568511963,0.0,0.0492095947265625,-0.1171875,0.03203630447387695,-0.09765625,-0.0038203001022338867,0.0,0.0,0.0,0.0,0.0
2025-04-10 10:13:38.018222,0.2784101963043213,0.625,0.20543193817138672,0.9375,-0.006092071533203125,0.125,0.982978105545044,-0.5625,0.03505587577819824,0.0625,0.02645254135131836,-0.068359375,0.004364967346191406,-0.009765625,0.2700333595275879,1.1875,-0.1807565689086914,-2.5625,0.042847394943237305,-0.5,0.9899287223815918,-0.6875,-0.16525274515151978,0.0,0.0492095947265625,-0.1171875,0.03205156326293945,-0.078125,-0.0038604736328125,-0.11186079680919647,0.0,0.0,0.0,0.0
2025-04-10 10:13:38.516143,0.27842211723327637,0.625,0.205407977104187,0.875,-0.006115913391113281,0.1875,0.9829542636871338,-0.5625,0.03506803512573242,0.0625,0.02645254135131836,-0.048828125,0.004364967346191406,-0.01953125,0.27000951766967773,1.1875,-0.1807565689086914,-2.5625,0.04283547401428223,-0.5,0.9899287223815918,-0.6875,-0.16525274515151978,-0.0625,0.0492095947265625,-0.1171875,0.03205156326293945,-0.078125,-0.004289031028747559,-0.11186079680919647,0.0,0.0,0.0,0.0
2025-04-10 10:13:38.991082,0.2783982753753662,0.625,0.2054198980331421,0.875,-0.006103992462158203,0.1875,0.982978105545044,-0.5625,0.03509187698364258,0.0625,0.02646017074584961,-0.048828125,0.004364967346191406,-0.009765625,0.2700333595275879,1.1875,-0.18076848983764648,-2.5625,0.04283547401428223,-0.5,0.9899530410766602,-0.6875,-0.16525274515151978,-0.0625,0.0492095947265625,-0.126953125,0.0320439338684082,-0.09765625,-0.004289031028747559,-0.11186079680919647,0.0,0.0,0.0,0.0
2025-04-10 10:13:39.466138,0.2784101963043213,0.625,0.20543193817138672,0.9375,-0.006115913391113281,0.125,0.982978105545044,-0.5625,0.03506803512573242,0.0625,0.02646017074584961,-0.048828125,0.004372596740722656,-0.009765625,0.26999735832214355,1.1875,-0.18076848983764648,-2.5625,0.04283547401428223,-0.5,0.9899530410766602,-0.6875,-0.16525274515151978,0.0,0.0491938591003418,-0.1171875,0.0320439338684082,-0.09765625,-0.004275679588317871,-0.11186079680919647,0.0,0.0,0.0,0.0
2025-04-10 10:13:39.943015,0.2784101963043213,0.625,0.205407977104187,0.875,-0.006092071533203125,0.125,0.982978105545044,-0.5625,0.035032033920288086,0.0625,0.02644491195678711,-0.068359375,0.004364967346191406,-0.009765625,0.2700214385986328,1.1875,-0.18078041076660156,-2.5625,0.042847394943237305,-0.5,0.9899530410766602,-0.6875,-0.1652287244796753,-0.0625,0.0492095947265625,-0.1171875,0.0320439338684082,-0.078125,-0.0043024420738220215,0.0,0.0,0.0,0.0,0.0
2025-04-10 10:13:40.420957,0.2784101963043213,0.625,0.20539593696594238,0.9375,-0.006103992462158203,0.1875,0.982978105545044,-0.5625,0.03505587577819824,0.0625,0.02645254135131836,-0.068359375,0.004380226135253906,-0.009765625,0.27000951766967773,1.1875,-0.18079233169555664,-2.5,0.04283547401428223,-0.5,0.9899530410766602,-0.6875,-0.16525274515151978,-0.0625,0.0492095947265625,-0.1171875,0.0320439338684082,-0.078125,-0.004088163375854492,-0.11186079680919647,0.0,0.0,0.0,0.0
2025-04-10 10:13:40.895996,0.2784101963043213,0.625,0.2054198980331421,0.875,-0.006079912185668945,0.125,0.9829542636871338,-0.5625,0.03509187698364258,0.0625,0.02645254135131836,-0.048828125,0.004372596740722656,-0.009765625,0.26999735832214355,1.1875,-0.18080425262451172,-2.5625,0.04283547401428223,-0.5,0.9899287223815918,-0.6875,-0.1652287244796753,0.0,0.0492095947265625,-0.1171875,0.0320439338684082,-0.09765625,-0.003190934658050537,-0.1677911877632141,0.0,0.0,0.0,0.0
2025-04-10 10:13:41.370965,0.2784101963043213,0.625,0.20543193817138672,0.875,-0.006127834320068359,0.125,0.982978105545044,-0.5625,0.03506803512573242,0.0625,0.02644491195678711,-0.048828125,0.004364967346191406,-0.009765625,0.2699854373931885,1.1875,-0.18082809448242188,-2.5,0.04283547401428223,-0.5,0.9899287223815918,-0.6875,-0.16525274515151978,-0.0625,0.0492095947265625,-0.1171875,0.0320439338684082,-0.078125,-0.002507925033569336,-0.1677911877632141,0.0,0.0,0.0,0.0
2025-04-10 10:13:41.846183,0.2784101963043213,0.625,0.205407977104187,0.875,-0.006127834320068359,0.125,0.982990026473999,-0.5625,0.03505587577819824,0.0625,0.026436805725097656,-0.068359375,0.004372596740722656,-0.01953125,0.2699854373931885,1.1875,-0.18082809448242188,-2.5625,0.04283547401428223,-0.5,0.9899287223815918,-0.6875,-0.16525274515151978,-0.0625,0.04921722412109375,-0.146484375,0.0320439338684082,-0.078125,-0.0024811625480651855,-0.1677911877632141,0.0,0.0,0.0,0.0
2025-04-10 10:13:42.321032,0.2784101963043213,0.625,0.205407977104187,0.9375,-0.006115913391113281,0.125,0.982978105545044,-0.5625,0.03505587577819824,0.0625,0.02645254135131836,-0.068359375,0.004372596740722656,-0.009765625,0.2699735164642334,1.1875,-0.1808161735534668,-2.5625,0.04282355308532715,-0.5,0.9899287223815918,-0.6875,-0.16525274515151978,-0.0625,0.0492095947265625,-0.1171875,0.03203630447387695,-0.09765625,-0.0024811625480651855,-0.1677911877632141,0.0,0.0,0.0,0.0
2025-04-10 10:13:42.801721,0.2784101963043213,0.625,0.20543193817138672,0.875,-0.006067991256713867,0.125,0.982978105545044,-0.5625,0.03506803512573242,0.0625,0.02645254135131836,-0.068359375,0.004372596740722656,0.0,0.26999735832214355,1.1875,-0.18080425262451172,-2.5625,0.04283547401428223,-0.5,0.9899287223815918,-0.6875,-0.16525274515151978,-0.0625,0.04920196533203125,-0.1171875,0.0320439338684082,-0.09765625,-0.002507925033569336,-0.1677911877632141,0.0,0.0,0.0,0.0
2025-04-10 10:13:43.276642,0.2784101963043213,0.625,0.205407977104187,0.9375,-0.006092071533203125,0.125,0.982978105545044,-0.5625,0.035127878189086914,0.0625,0.02645254135131836,-0.068359375,0.004380226135253906,-0.01953125,0.2699854373931885,1.1875,-0.1808161735534668,-2.5625,0.042847394943237305,-0.5,0.9899287223815918,-0.6875,-0.1652287244796753,-0.0625,0.0492095947265625,-0.1171875,0.0320439338684082,-0.068359375,-0.002494513988494873,-0.1677911877632141,0.0,0.0,0.0,0.0
2025-04-10 10:13:43.751668,0.27842211723327637,0.625,0.205407977104187,0.875,-0.006115913391113281,0.125,0.982978105545044,-0.5625,0.03505587577819824,0.0625,0.02645254135131836,-0.068359375,0.004372596740722656,-0.009765625,0.26999735832214355,1.1875,-0.18082809448242188,-2.5625,0.04283547401428223,-0.5,0.9899649620056152,-0.6875,-0.16525274515151978,0.0,0.0492095947265625,-0.1171875,0.03203630447387695,-0.078125,-0.0024811625480651855,-0.1677911877632141,0.0,0.0,0.0,0.0
2025-04-10 10:13:44.226527,0.2784101963043213,0.5625,0.205407977104187,0.875,-0.006092071533203125,0.125,0.982978105545044,-0.5625,0.03509187698364258,0.0625,0.02645254135131836,-0.068359375,0.004372596740722656,-0.009765625,0.26999735832214355,1.1875,-0.1808161735534668,-2.5625,0.042847394943237305,-0.5,0.9899287223815918,-0.6875,-0.16525274515151978,0.0,0.04920196533203125,-0.1171875,0.03205156326293945,-0.09765625,-0.002494513988494873,-0.1677911877632141,0.0,0.0,0.0,0.0
2025-04-10 10:13:44.701700,0.2784101963043213,0.6875,0.205407977104187,0.9375,-0.006115913391113281,0.1875,0.982978105545044,-0.5625,0.0350799560546875,0.0625,0.02646017074584961,-0.048828125,0.004364967346191406,-0.01953125,0.2699854373931885,1.1875,-0.18084049224853516,-2.5625,0.042847394943237305,-0.5,0.9899287223815918,-0.6875,-0.16525274515151978,-0.0625,0.0492095947265625,-0.1171875,0.0320439338684082,-0.09765625,-0.002494513988494873,-0.1677911877632141,0.0,0.0,0.0,0.0
2025-04-10 10:13:45.204239,0.2784101963043213,0.625,0.205407977104187,0.9375,-0.006127834320068359,0.125,0.9829542636871338,-0.5625,0.03505587577819824,0.0625,0.02645254135131836,-0.048828125,0.004380226135253906,-0.01953125,0.26999735832214355,1.1875,-0.18082809448242188,-2.5625,0.04283547401428223,-0.5,0.9899287223815918,-0.6875,-0.16525274515151978,-0.0625,0.04920196533203125,-0.126953125,0.0320439338684082,-0.078125,-0.002494513988494873,-0.1677911877632141,0.0,0.0,0.0,0.0
2025-04-10 10:13:45.679320,0.2784101963043213,0.625,0.2054198980331421,0.875,-0.006127834320068359,0.125,0.982978105545044,-0.5625,0.03505587577819824,0.0625,0.02645254135131836,-0.068359375,0.004372596740722656,-0.009765625,0.2699735164642334,1.1875,-0.1808161735534668,-2.5625,0.04282355308532715,-0.5,0.9899287223815918,-0.6875,-0.16525274515151978,-0.0625,0.04921722412109375,-0.1171875,0.03205156326293945,-0.09765625,-0.002507925033569336,-0.1677911877632141,0.0,0.0,0.0,0.0
2025-04-10 10:13:46.155049,0.2784101963043213,0.625,0.20539593696594238,0.875,-0.006092071533203125,0.125,0.982990026473999,-0.5625,0.0350799560546875,0.0625,0.02645254135131836,-0.068359375,0.004372596740722656,-0.01953125,0.27000951766967773,1.1875,-0.18084049224853516,-2.625,0.04283547401428223,-0.5,0.9899287223815918,-0.6875,-0.16525274515151978,0.0,0.0492095947265625,-0.126953125,0.0320281982421875,-0.068359375,-0.0024811625480651855,-0.1677911877632141,0.0,0.0,0.0,0.0
2025-04-10 10:13:46.629297,0.2784101963043213,0.625,0.205407977104187,0.875,-0.006127834320068359,0.125,0.982978105545044,-0.5625,0.035043954849243164,0.0625,0.02645254135131836,-0.068359375,0.004372596740722656,-0.009765625,0.26999735832214355,1.1875,-0.1808161735534668,-2.5625,0.04283547401428223,-0.5,0.9899530410766602,-0.6875,-0.16525274515151978,0.0,0.04921722412109375,-0.1171875,0.0320439338684082,-0.078125,-0.002507925033569336,-0.1677911877632141,0.0,0.0,0.0,0.0
2025-04-10 10:13:47.125962,0.27842211723327637,0.625,0.205407977104187,0.9375,-0.006092071533203125,0.125,0.982978105545044,-0.5625,0.035032033920288086,0.0625,0.02645254135131836,-0.068359375,0.004372596740722656,-0.01953125,0.26999735832214355,1.1875,-0.1808161735534668,-2.5625,0.042847394943237305,-0.5,0.9899287223815918,-0.625,-0.16525274515151978,0.0,0.04920196533203125,-0.1171875,0.03205156326293945,-0.078125,-0.002494513988494873,-0.1677911877632141,0.0,0.0,0.0,0.0
2025-04-10 10:13:47.629556,0.2784101963043213,0.625,0.205407977104187,0.875,-0.006115913391113281,0.1875,0.9829542636871338,-0.625,0.03499603271484375,0.0625,0.02645254135131836,-0.048828125,0.004364967346191406,0.0,0.26999735832214355,1.1875,-0.18082809448242188,-2.5625,0.042847394943237305,-0.5,0.9899287223815918,-0.6875,-0.16525274515151978,-0.0625,0.0492095947265625,-0.1171875,0.03205156326293945,-0.078125,-0.002507925033569336,-0.1677911877632141,0.0,0.0,0.0,0.0
2025-04-10 10:13:48.106699,0.27842211723327637,0.625,0.205407977104187,0.875,-0.006115913391113281,0.125,0.982978105545044,-0.5625,0.03505587577819824,0.0625,0.02645254135131836,-0.068359375,0.004364967346191406,-0.009765625,0.26999735832214355,1.1875,-0.18082809448242188,-2.5625,0.04283547401428223,-0.5,0.9899287223815918,-0.6875,-0.1652287244796753,-0.0625,0.0492095947265625,-0.1171875,0.0320439338684082,-0.09765625,-0.002494513988494873,-0.1677911877632141,0.0,0.0,0.0,0.0
2025-04-10 10:13:48.612915,0.2784101963043213,0.625,0.20539593696594238,0.875,-0.006092071533203125,0.125,0.982978105545044,-0.5625,0.035032033920288086,0.0625,0.02644491195678711,-0.068359375,0.004372596740722656,-0.01953125,0.2699854373931885,1.1875,-0.18082809448242188,-2.5625,0.04283547401428223,-0.5,0.9899406433105469,-0.6875,-0.1652287244796753,-0.0625,0.0492095947265625,-0.1171875,0.0320439338684082,-0.078125,-0.0024811625480651855,-0.1677911877632141,0.0,0.0,0.0,0.0
2025-04-10 10:13:49.087949,0.2784101963043213,0.625,0.205407977104187,0.875,-0.006139993667602539,0.125,0.9829542636871338,-0.5625,0.0350799560546875,0.0625,0.02644491195678711,-0.068359375,0.004372596740722656,-0.01953125,0.2699854373931885,1.1875,-0.18082809448242188,-2.5625,0.04283547401428223,-0.5,0.9899287223815918,-0.6875,-0.1652287244796753,-0.0625,0.0492095947265625,-0.126953125,0.0320439338684082,-0.09765625,-0.002494513988494873,-0.1677911877632141,0.0,0.0,0.0,0.0
2025-04-10 10:13:49.562870,0.27842211723327637,0.625,0.205407977104187,0.875,-0.006127834320068359,0.1875,0.982978105545044,-0.5,0.0350799560546875,0.0625,0.02645254135131836,-0.048828125,0.004364967346191406,-0.009765625,0.27000951766967773,1.1875,-0.18082809448242188,-2.5625,0.04282355308532715,-0.5,0.9899287223815918,-0.6875,-0.16526472568511963,0.0,0.0492095947265625,-0.126953125,0.03203630447387695,-0.078125,-0.002507925033569336,-0.1677911877632141,0.0,0.0,0.0,0.0
2025-04-10 10:13:50.038224,0.2784101963043213,0.625,0.20543193817138672,0.875,-0.006127834320068359,0.125,0.982978105545044,-0.5625,0.035032033920288086,0.0625,0.02644491195678711,-0.068359375,0.004372596740722656,-0.009765625,0.26999735832214355,1.1875,-0.18082809448242188,-2.5625,0.042847394943237305,-0.4375,0.9899287223815918,-0.6875,-0.16525274515151978,0.0,0.0492095947265625,-0.107421875,0.03206682205200195,-0.078125,-0.002507925033569336,-0.1677911877632141,0.0,0.0,0.0,0.0
2025-04-10 10:13:50.540761,0.2784101963043213,0.625,0.205407977104187,0.875,-0.006115913391113281,0.125,0.982978105545044,-0.5625,0.03505587577819824,0.0625,0.026436805725097656,-0.068359375,0.004372596740722656,-0.01953125,0.2699854373931885,1.1875,-0.18082809448242188,-2.5625,0.04283547401428223,-0.5,0.9899287223815918,-0.6875,-0.16525274515151978,0.0,0.04920196533203125,-0.1171875,0.03205156326293945,-0.09765625,-0.002494513988494873,-0.1677911877632141,0.0,0.0,0.0,0.0
2025-04-10 10:13:51.033975,0.2784101963043213,0.625,0.205407977104187,0.875,-0.006115913391113281,0.1875,0.982978105545044,-0.5625,0.03506803512573242,0.0625,0.02646017074584961,-0.068359375,0.004372596740722656,0.0,0.26999735832214355,1.1875,-0.18084049224853516,-2.5625,0.04283547401428223,-0.5,0.9899530410766602,-0.6875,-0.16525274515151978,-0.0625,0.04920196533203125,-0.1171875,0.03203630447387695,-0.09765625,-0.002494513988494873,-0.1677911877632141,0.0,0.0,0.0,0.0
2025-04-10 10:13:51.508581,0.2784101963043213,0.625,0.205407977104187,0.9375,-0.006115913391113281,0.125,0.982978105545044,-0.5625,0.03506803512573242,0.0625,0.02644491195678711,-0.068359375,0.004357337951660156,-0.009765625,0.26999735832214355,1.1875,-0.18082809448242188,-2.5625,0.04283547401428223,-0.5,0.9899287223815918,-0.6875,-0.16526472568511963,0.0,0.0492095947265625,-0.126953125,0.0320439338684082,-0.09765625,-0.002507925033569336,-0.1677911877632141,0.0,0.0,0.0,0.0
2025-04-10 10:13:51.983450,0.2784101963043213,0.625,0.205407977104187,0.875,-0.006115913391113281,0.1875,0.982990026473999,-0.5625,0.03505587577819824,0.0625,0.02645254135131836,-0.068359375,0.004364967346191406,-0.009765625,0.2699854373931885,1.1875,-0.18084049224853516,-2.5625,0.04282355308532715,-0.5,0.9899287223815918,-0.6875,-0.16525274515151978,0.0,0.04920196533203125,-0.126953125,0.03205156326293945,-0.078125,-0.0024811625480651855,-0.1677911877632141,0.0,0.0,0.0,0.0
2025-04-10 10:13:52.467417,0.27842211723327637,0.625,0.205407977104187,0.875,-0.006139993667602539,0.125,0.982990026473999,-0.5625,0.035032033920288086,0.0625,0.02646017074584961,-0.068359375,0.004357337951660156,-0.01953125,0.2699735164642334,1.1875,-0.18082809448242188,-2.5625,0.04283547401428223,-0.5,0.9899287223815918,-0.6875,-0.16525274515151978,-0.0625,0.04920196533203125,-0.1171875,0.0320439338684082,-0.078125,-0.0024543404579162598,-0.1677911877632141,0.0,0.0,0.0,0.0
2025-04-10 10:13:52.942394,0.2784101963043213,0.625,0.205407977104187,0.875,-0.006092071533203125,0.125,0.982978105545044,-0.5625,0.03505587577819824,0.0625,0.02645254135131836,-0.068359375,0.004364967346191406,-0.009765625,0.2699854373931885,1.1875,-0.18085241317749023,-2.5625,0.04282355308532715,-0.5,0.9899287223815918,-0.6875,-0.16526472568511963,0.0,0.04921722412109375,-0.1171875,0.0320439338684082,-0.078125,-0.002387404441833496,-0.1677911877632141,0.0,0.0,0.0,0.0
2025-04-10 10:13:53.417197,0.2784101963043213,0.625,0.205407977104187,0.875,-0.006127834320068359,0.125,0.982978105545044,-0.5625,0.03509187698364258,0.0625,0.02644491195678711,-0.078125,0.004372596740722656,-0.01953125,0.2699735164642334,1.1875,-0.18085241317749023,-2.5625,0.04283547401428223,-0.5,0.9899287223815918,-0.6875,-0.1652287244796753,-0.0625,0.0492095947265625,-0.1171875,0.0320439338684082,-0.078125,-0.0024811625480651855,-0.1677911877632141,0.0,0.0,0.0,0.0
2025-04-10 10:13:53.892136,0.27842211723327637,0.625,0.205407977104187,0.875,-0.006115913391113281,0.1875,0.982978105545044,-0.5625,0.0350799560546875,0.0625,0.02645254135131836,-0.068359375,0.004380226135253906,-0.01953125,0.2700934410095215,1.1875,-0.18085241317749023,-2.5625,0.042847394943237305,-0.5,0.9899287223815918,-0.6875,-0.16525274515151978,-0.0625,0.04921722412109375,-0.107421875,0.0320439338684082,-0.09765625,-0.002387404441833496,-0.1677911877632141,0.0,0.0,0.0,0.0
2025-04-10 10:13:54.367215,0.27842211723327637,0.625,0.205407977104187,0.875,-0.006127834320068359,0.125,0.982978105545044,-0.5625,0.03506803512573242,0.0625,0.02644491195678711,-0.048828125,0.004372596740722656,-0.009765625,0.27011728286743164,1.1875,-0.18085241317749023,-2.5625,0.04283547401428223,-0.5,0.9899287223815918,-0.6875,-0.16525274515151978,0.0,0.0492095947265625,-0.126953125,0.0320439338684082,-0.078125,-0.0025480985641479492,-0.1677911877632141,0.0,0.0,0.0,0.0
2025-04-10 10:13:54.842354,0.2784101963043213,0.625,0.205407977104187,0.875,-0.006127834320068359,0.125,0.982978105545044,-0.5625,0.03500795364379883,0.0625,0.02644491195678711,-0.068359375,0.004372596740722656,-0.009765625,0.27005743980407715,1.1875,-0.18085241317749023,-2.5625,0.04282355308532715,-0.5625,0.9899287223815918,-0.6875,-0.16525274515151978,0.0,0.0492095947265625,-0.126953125,0.03205156326293945,-0.078125,-0.002682030200958252,-0.1677911877632141,0.0,0.0,0.0,0.0
2025-04-10 10:13:55.317266,0.2784101963043213,0.625,0.20543193817138672,0.875,-0.006092071533203125,0.125,0.9829542636871338,-0.5625,0.035115957260131836,0.0625,0.02645254135131836,-0.068359375,0.004364967346191406,-0.009765625,0.27011728286743164,1.1875,-0.18085241317749023,-2.5625,0.04283547401428223,-0.5,0.9899287223815918,-0.6875,-0.1652287244796753,0.0,0.0492095947265625,-0.1171875,0.03206682205200195,-0.09765625,-0.0026418566703796387,-0.1677911877632141,0.0,0.0,0.0,0.0
2025-04-10 10:13:55.869188,0.27842211723327637,0.625,0.205407977104187,0.875,-0.006127834320068359,0.125,0.982978105545044,-0.5625,0.03505587577819824,0.0625,0.02644491195678711,-0.068359375,0.004372596740722656,-0.01953125,0.27011728286743164,1.1875,-0.1808643341064453,-2.5625,0.04283547401428223,-0.5,0.9899530410766602,-0.6875,-0.16525274515151978,0.0,0.0492095947265625,-0.1171875,0.0320439338684082,-0.09765625,-0.0025748610496520996,-0.1677911877632141,0.0,0.0,0.0,0.0
2025-04-10 10:13:56.336547,0.2784101963043213,0.625,0.205407977104187,0.875,-0.006127834320068359,0.125,0.982978105545044,-0.5625,0.035043954849243164,0.0625,0.02646017074584961,-0.068359375,0.004364967346191406,-0.009765625,0.2701292037963867,1.1875,-0.1808762550354004,-2.5625,0.04282355308532715,-0.5,0.9899287223815918,-0.6875,-0.16526472568511963,0.0,0.0492095947265625,-0.1171875,0.03205156326293945,-0.078125,-0.0025882720947265625,-0.1677911877632141,0.0,0.0,0.0,0.0
2025-04-10 10:13:56.811611,0.2784101963043213,0.625,0.205407977104187,0.9375,-0.006127834320068359,0.125,0.982990026473999,-0.5625,0.035032033920288086,0.0625,0.02645254135131836,-0.068359375,0.004364967346191406,-0.009765625,0.2701292037963867,1.1875,-0.1808762550354004,-2.5625,0.04283547401428223,-0.5,0.9899287223815918,-0.6875,-0.1652287244796753,-0.0625,0.0492095947265625,-0.1171875,0.0320439338684082,-0.09765625,-0.0026418566703796387,-0.1677911877632141,0.0,0.0,0.0,0.0
2025-04-10 10:13:57.286711,0.27843403816223145,0.625,0.205407977104187,0.9375,-0.006127834320068359,0.125,0.982990026473999,-0.5625,0.0350799560546875,0.0625,0.02645254135131836,-0.048828125,0.004372596740722656,-0.01953125,0.2701292037963867,1.125,-0.1808762550354004,-2.5625,0.04282355308532715,-0.5,0.9899649620056152,-0.6875,-0.16525274515151978,-0.0625,0.0492095947265625,-0.1171875,0.0320439338684082,-0.09765625,-0.0027623772621154785,-0.1677911877632141,0.0,0.0,0.0,0.0
2025-04-10 10:13:57.761492,0.2784101963043213,0.625,0.205407977104187,0.875,-0.006115913391113281,0.125,0.982978105545044,-0.5625,0.03505587577819824,0.0625,0.02644491195678711,-0.068359375,0.004364967346191406,-0.009765625,0.2701292037963867,1.25,-0.1808762550354004,-2.5,0.04282355308532715,-0.5,0.9899287223815918,-0.6875,-0.16526472568511963,0.0,0.04921722412109375,-0.1171875,0.0320439338684082,-0.09765625,-0.0027623772621154785,-0.1677911877632141,0.0,0.0,0.0,0.0
2025-04-10 10:13:58.236522,0.2784101963043213,0.625,0.205407977104187,0.875,-0.006115913391113281,0.1875,0.982978105545044,-0.5625,0.03505587577819824,0.0625,0.02645254135131836,-0.068359375,0.004372596740722656,-0.009765625,0.2701292037963867,1.1875,-0.1808762550354004,-2.5625,0.04282355308532715,-0.5,0.9899287223815918,-0.6875,-0.16525274515151978,-0.0625,0.04920196533203125,-0.1171875,0.0320439338684082,-0.09765625,-0.0027623772621154785,-0.1677911877632141,0.0,0.0,0.0,0.0
2025-04-10 10:13:58.711503,0.2784101963043213,0.625,0.205407977104187,0.875,-0.006127834320068359,0.125,0.982990026473999,-0.5625,0.03509187698364258,0.0625,0.02644491195678711,-0.048828125,0.004372596740722656,-0.009765625,0.2701292037963867,1.1875,-0.1808762550354004,-2.5625,0.04283547401428223,-0.5,0.9899287223815918,-0.6875,-0.16525274515151978,0.0,0.0492095947265625,-0.107421875,0.0320281982421875,-0.078125,-0.0027222037315368652,-0.1677911877632141,0.0,0.0,0.0,0.0
2025-04-10 10:13:59.186785,0.2784101963043213,0.625,0.205407977104187,0.875,-0.006092071533203125,0.125,0.982978105545044,-0.5625,0.03505587577819824,0.0625,0.02645254135131836,-0.068359375,0.004364967346191406,-0.009765625,0.2701292037963867,1.1875,-0.1808762550354004,-2.5625,0.04283547401428223,-0.5,0.9899287223815918,-0.6875,-0.16524070501327515,-0.0625,0.0492095947265625,-0.1171875,0.0320439338684082,-0.078125,-0.0027087926864624023,-0.1677911877632141,0.0,0.0,0.0,0.0
2025-04-10 10:13:59.664369,0.2784101963043213,0.625,0.205407977104187,0.875,-0.006092071533203125,0.125,0.982978105545044,-0.5625,0.035043954849243164,0.0625,0.02644491195678711,-0.068359375,0.004372596740722656,-0.009765625,0.27010536193847656,1.1875,-0.1808762550354004,-2.5625,0.04283547401428223,-0.5,0.9899287223815918,-0.6875,-0.16525274515151978,-0.0625,0.04920196533203125,-0.1171875,0.0320439338684082,-0.107421875,-0.002682030200958252,-0.1677911877632141,0.0,0.0,0.0,0.0
2025-04-10 10:14:00.139390,0.27842211723327637,0.625,0.205407977104187,0.875,-0.006115913391113281,0.125,0.982978105545044,-0.5625,0.03505587577819824,0.0625,0.02645254135131836,-0.068359375,0.004372596740722656,-0.009765625,0.2701413631439209,1.1875,-0.1808762550354004,-2.5625,0.04283547401428223,-0.5,0.9899287223815918,-0.6875,-0.1652287244796753,0.0,0.04921722412109375,-0.1171875,0.03203630447387695,-0.09765625,-0.002668619155883789,-0.1677911877632141,0.0,0.0,0.0,0.0
2025-04-10 10:14:00.639179,0.2784101963043213,0.625,0.205407977104187,0.9375,-0.006115913391113281,0.125,0.982978105545044,-0.5625,0.035103797912597656,0.0625,0.02646017074584961,-0.068359375,0.004357337951660156,-0.009765625,0.27010536193847656,1.1875,-0.1808762550354004,-2.5625,0.04283547401428223,-0.5,0.9899530410766602,-0.6875,-0.16525274515151978,-0.0625,0.04921722412109375,-0.126953125,0.03203630447387695,-0.09765625,-0.002561509609222412,-0.1677911877632141,0.0,0.0,0.0,0.0
2025-04-10 10:14:01.115003,0.2784101963043213,0.625,0.205407977104187,0.9375,-0.006092071533203125,0.125,0.9829542636871338,-0.5625,0.03505587577819824,0.0625,0.02646017074584961,-0.068359375,0.004372596740722656,-0.009765625,0.2701292037963867,1.1875,-0.1808643341064453,-2.5625,0.042847394943237305,-0.5,0.9899287223815918,-0.6875,-0.1652287244796753,-0.0625,0.0492095947265625,-0.1171875,0.0320439338684082,-0.09765625,-0.002561509609222412,-0.1677911877632141,0.0,0.0,0.0,0.0
2025-04-10 10:14:01.589218,0.27842211723327637,0.625,0.20539593696594238,0.875,-0.006139993667602539,0.125,0.9829542636871338,-0.5625,0.035115957260131836,0.0625,0.02645254135131836,-0.068359375,0.004364967346191406,-0.009765625,0.270153284072876,1.1875,-0.18088817596435547,-2.5625,0.04282355308532715,-0.5,0.9899287223815918,-0.6875,-0.16525274515151978,0.0,0.0492095947265625,-0.126953125,0.0320439338684082,-0.09765625,-0.0026016831398010254,-0.1677911877632141,0.0,0.0,0.0,0.0
2025-04-10 10:14:02.064173,0.27842211723327637,0.625,0.205407977104187,0.875,-0.006092071533203125,0.1875,0.9829542636871338,-0.5625,0.0350799560546875,0.0625,0.02645254135131836,-0.048828125,0.004357337951660156,-0.009765625,0.2701413631439209,1.1875,-0.1808762550354004,-2.5625,0.04283547401428223,-0.5,0.9899530410766602,-0.6875,-0.16525274515151978,0.0,0.0492095947265625,-0.1171875,0.03205156326293945,-0.09765625,-0.002829313278198242,-0.1677911877632141,0.0,0.0,0.0,0.0
2025-04-10 10:14:02.541103,0.2784101963043213,0.625,0.205407977104187,0.875,-0.006127834320068359,0.125,0.982978105545044,-0.5625,0.0350799560546875,0.0625,0.02645254135131836,-0.048828125,0.004364967346191406,-0.009765625,0.2701292037963867,1.1875,-0.1808762550354004,-2.5625,0.04283547401428223,-0.5,0.9899287223815918,-0.6875,-0.1652287244796753,-0.0625,0.04921722412109375,-0.1171875,0.0320439338684082,-0.078125,-0.0027087926864624023,-0.1677911877632141,0.0,0.0,0.0,0.0
2025-04-10 10:14:03.048295,0.2784101963043213,0.625,0.20539593696594238,0.9375,-0.006127834320068359,0.125,0.982978105545044,-0.5625,0.03509187698364258,0.0625,0.02644491195678711,-0.068359375,0.004372596740722656,-0.01953125,0.2701413631439209,1.1875,-0.1808762550354004,-2.5,0.04283547401428223,-0.5,0.9899287223815918,-0.6875,-0.16525274515151978,-0.0625,0.0492095947265625,-0.1171875,0.0320439338684082,-0.078125,-0.0026284456253051758,-0.1677911877632141,0.0,0.0,0.0,0.0
2025-04-10 10:14:03.523269,0.27842211723327637,0.625,0.205407977104187,0.875,-0.006127834320068359,0.125,0.982990026473999,-0.5625,0.03505587577819824,0.0625,0.02646017074584961,-0.048828125,0.004364967346191406,-0.009765625,0.27011728286743164,1.1875,-0.18090009689331055,-2.5625,0.04282355308532715,-0.5,0.9899530410766602,-0.6875,-0.16525274515151978,-0.0625,0.0492095947265625,-0.1171875,0.0320439338684082,-0.078125,-0.0016508102416992188,-0.11186079680919647,0.0,0.0,0.0,0.0
2025-04-10 10:14:03.998291,0.2784101963043213,0.625,0.205407977104187,0.9375,-0.006115913391113281,0.125,0.982978105545044,-0.5625,0.03509187698364258,0.0625,0.02646017074584961,-0.068359375,0.004372596740722656,-0.01953125,0.27027320861816406,1.125,-0.18088817596435547,-2.5625,0.04282355308532715,-0.5,0.9899287223815918,-0.6875,-0.16525274515151978,-0.0625,0.04921722412109375,-0.1171875,0.0320439338684082,-0.09765625,-0.002159714698791504,-0.1677911877632141,0.0,0.0,0.0,0.0
2025-04-10 10:14:04.473308,0.2784101963043213,0.625,0.205407977104187,0.875,-0.006115913391113281,0.125,0.9830019474029541,-0.5625,0.03505587577819824,0.0625,0.02645254135131836,-0.068359375,0.004380226135253906,-0.009765625,0.27011728286743164,1.1875,-0.18088817596435547,-2.5625,0.04283547401428223,-0.5,0.9899287223815918,-0.6875,-0.16525274515151978,0.0,0.0492095947265625,-0.1171875,0.0320439338684082,-0.09765625,-0.0003116726875305176,-0.22372159361839294,0.0,0.0,0.0,0.0
2025-04-10 10:14:04.948283,0.2784101963043213,0.625,0.20543193817138672,0.875,-0.006092071533203125,0.1875,0.982978105545044,-0.5625,0.03509187698364258,0.0625,0.02645254135131836,-0.068359375,0.004372596740722656,-0.01953125,0.2701292037963867,1.1875,-0.18088817596435547,-2.5,0.04282355308532715,-0.5,0.9899287223815918,-0.6875,-0.16525274515151978,0.0,0.0492095947265625,-0.1171875,0.03205156326293945,-0.078125,-0.0007803440093994141,-0.22372159361839294,0.0,0.0,0.0,0.0
2025-04-10 10:14:05.423227,0.2784101963043213,0.625,0.20539593696594238,0.875,-0.006092071533203125,0.125,0.982978105545044,-0.5625,0.03509187698364258,0.0625,0.02646017074584961,-0.068359375,0.004349708557128906,-0.01953125,0.2701413631439209,1.25,-0.18091201782226562,-2.5625,0.04282355308532715,-0.5,0.9899287223815918,-0.6875,-0.16525274515151978,-0.0625,0.0492095947265625,-0.1171875,0.0320591926574707,-0.09765625,-0.000967860221862793,-0.22372159361839294,0.0,0.0,0.0,0.0
2025-04-10 10:14:05.902180,0.27842211723327637,0.625,0.20539593696594238,0.875,-0.006115913391113281,0.125,0.982978105545044,-0.5625,0.03506803512573242,0.0625,0.02644491195678711,-0.068359375,0.004364967346191406,-0.01953125,0.2701292037963867,1.1875,-0.18091201782226562,-2.5625,0.04283547401428223,-0.5,0.9899287223815918,-0.6875,-0.16525274515151978,0.0,0.0492095947265625,-0.1171875,0.0320439338684082,-0.078125,-0.0009812712669372559,-0.22372159361839294,0.0,0.0,0.0,0.0
2025-04-10 10:14:06.376220,0.2784101963043213,0.5625,0.205407977104187,0.875,-0.006115913391113281,0.125,0.982990026473999,-0.5625,0.035032033920288086,0.0625,0.02646017074584961,-0.048828125,0.004364967346191406,-0.009765625,0.2702012062072754,1.1875,-0.18090009689331055,-2.5625,0.04283547401428223,-0.5,0.9899530410766602,-0.6875,-0.16525274515151978,-0.0625,0.0492095947265625,-0.126953125,0.0320439338684082,-0.09765625,-0.0015169382095336914,-0.11186079680919647,0.0,0.0,0.0,0.0
2025-04-10 10:14:06.851260,0.2784101963043213,0.625,0.205407977104187,0.9375,-0.006115913391113281,0.125,0.982978105545044,-0.5625,0.03506803512573242,0.0625,0.02645254135131836,-0.068359375,0.004357337951660156,-0.009765625,0.2702012062072754,1.1875,-0.18091201782226562,-2.5,0.04282355308532715,-0.5,0.9899287223815918,-0.6875,-0.16524070501327515,0.0,0.04921722412109375,-0.126953125,0.03203630447387695,-0.107421875,-0.001530289649963379,-0.1677911877632141,0.0,0.0,0.0,0.0
2025-04-10 10:14:07.326254,0.2784101963043213,0.625,0.205407977104187,0.875,-0.006092071533203125,0.125,0.982978105545044,-0.5625,0.03505587577819824,0.0625,0.02645254135131836,-0.068359375,0.004364967346191406,-0.009765625,0.27016520500183105,1.1875,-0.18091201782226562,-2.5625,0.04283547401428223,-0.5,0.9899287223815918,-0.6875,-0.16525274515151978,-0.0625,0.0492095947265625,-0.126953125,0.03203630447387695,-0.078125,-0.0015437006950378418,-0.11186079680919647,0.0,0.0,0.0,0.0
2025-04-10 10:14:07.801283,0.2784101963043213,0.625,0.205407977104187,0.875,-0.006092071533203125,0.125,0.982990026473999,-0.5625,0.03505587577819824,0.0625,0.02645254135131836,-0.068359375,0.004364967346191406,-0.009765625,0.27016520500183105,1.1875,-0.18091201782226562,-2.5625,0.04283547401428223,-0.5,0.9899287223815918,-0.6875,-0.1652287244796753,-0.0625,0.04921722412109375,-0.126953125,0.0320439338684082,-0.09765625,-0.001530289649963379,-0.1677911877632141,0.0,0.0,0.0,0.0
2025-04-10 10:14:08.276145,0.2784101963043213,0.5625,0.2053840160369873,0.875,-0.006092071533203125,0.125,0.982978105545044,-0.5625,0.03509187698364258,0.0625,0.02645254135131836,-0.048828125,0.004364967346191406,-0.009765625,0.27017712593078613,1.1875,-0.18091201782226562,-2.5625,0.04283547401428223,-0.5,0.9899287223815918,-0.625,-0.1652287244796753,-0.0625,0.0492095947265625,-0.126953125,0.0320439338684082,-0.078125,-0.001530289649963379,-0.1677911877632141,0.0,0.0,0.0,0.0
2025-04-10 10:14:08.788488,0.2784101963043213,0.625,0.20543193817138672,0.875,-0.006092071533203125,0.1875,0.982978105545044,-0.5625,0.03505587577819824,0.0625,0.02645254135131836,-0.048828125,0.004364967346191406,-0.009765625,0.2701292037963867,1.1875,-0.18091201782226562,-2.5625,0.04283547401428223,-0.5,0.9899287223815918,-0.6875,-0.16525274515151978,-0.0625,0.0492095947265625,-0.107421875,0.03205156326293945,-0.078125,-0.0015035271644592285,-0.11186079680919647,0.0,0.0,0.0,0.0
2025-04-10 10:14:09.263433,0.2784101963043213,0.625,0.205407977104187,0.875,-0.006092071533203125,0.1875,0.9830019474029541,-0.5625,0.03505587577819824,0.0625,0.02644491195678711,-0.048828125,0.004372596740722656,-0.009765625,0.27017712593078613,1.1875,-0.18091201782226562,-2.5,0.04283547401428223,-0.5,0.9899287223815918,-0.6875,-0.1652287244796753,-0.0625,0.04921722412109375,-0.1171875,0.0320439338684082,-0.078125,-0.0016508102416992188,-0.1677911877632141,0.0,0.0,0.0,0.0
2025-04-10 10:14:09.738430,0.2784101963043213,0.625,0.20543193817138672,0.9375,-0.006115913391113281,0.1875,0.9830019474029541,-0.5625,0.03505587577819824,0.0625,0.02645254135131836,-0.068359375,0.004372596740722656,-0.009765625,0.27017712593078613,1.1875,-0.18091201782226562,-2.5625,0.042847394943237305,-0.5,0.9899287223815918,-0.6875,-0.16525274515151978,-0.0625,0.0492095947265625,-0.1171875,0.0320439338684082,-0.078125,-0.0017178058624267578,-0.1677911877632141,0.0,0.0,0.0,0.0
2025-04-10 10:14:10.213446,0.2784101963043213,0.625,0.2053840160369873,0.875,-0.006115913391113281,0.125,0.982978105545044,-0.5625,0.03509187698364258,0.0625,0.02644491195678711,-0.068359375,0.004372596740722656,-0.009765625,0.2701413631439209,1.1875,-0.18091201782226562,-2.5625,0.04282355308532715,-0.5,0.9899530410766602,-0.6875,-0.16525274515151978,-0.0625,0.0492095947265625,-0.126953125,0.0320439338684082,-0.068359375,-0.0016776323318481445,-0.1677911877632141,0.0,0.0,0.0,0.0
2025-04-10 10:14:10.688499,0.2784101963043213,0.625,0.205407977104187,0.875,-0.006115913391113281,0.125,0.982990026473999,-0.5625,0.03505587577819824,0.0625,0.02645254135131836,-0.048828125,0.004364967346191406,-0.01953125,0.27016520500183105,1.1875,-0.18091201782226562,-2.5625,0.04283547401428223,-0.5,0.9899530410766602,-0.6875,-0.16525274515151978,-0.0625,0.0492095947265625,-0.126953125,0.0320439338684082,-0.078125,-0.0015571117401123047,-0.1677911877632141,0.0,0.0,0.0,0.0
2025-04-10 10:14:11.163631,0.27842211723327637,0.625,0.205407977104187,0.875,-0.006115913391113281,0.1875,0.9829542636871338,-0.5625,0.0350799560546875,0.0625,0.02645254135131836,-0.068359375,0.004372596740722656,-0.009765625,0.27017712593078613,1.125,-0.18091201782226562,-2.5625,0.04283547401428223,-0.5,0.9899287223815918,-0.6875,-0.16525274515151978,-0.0625,0.04920196533203125,-0.126953125,0.0320439338684082,-0.09765625,-0.0015035271644592285,-0.1677911877632141,0.0,0.0,0.0,0.0
2025-04-10 10:14:11.638464,0.2784101963043213,0.625,0.205407977104187,0.875,-0.006092071533203125,0.1875,0.9829542636871338,-0.5625,0.03506803512573242,0.0625,0.02646017074584961,-0.068359375,0.004380226135253906,-0.009765625,0.27016520500183105,1.1875,-0.18091201782226562,-2.5625,0.042847394943237305,-0.4375,0.9899530410766602,-0.6875,-0.16525274515151978,-0.0625,0.04921722412109375,-0.126953125,0.03203630447387695,-0.09765625,-0.0014901161193847656,-0.11186079680919647,0.0,0.0,0.0,0.0
2025-04-10 10:14:12.149103,0.2784101963043213,0.625,0.205407977104187,0.875,-0.006115913391113281,0.125,0.982978105545044,-0.5625,0.0350799560546875,0.0625,0.02644491195678711,-0.068359375,0.004372596740722656,-0.009765625,0.27017712593078613,1.25,-0.18091201782226562,-2.5625,0.04283547401428223,-0.5,0.9899287223815918,-0.6875,-0.1652287244796753,-0.0625,0.04921722412109375,-0.1171875,0.0320439338684082,-0.09765625,-0.001423180103302002,-0.1677911877632141,0.0,0.0,0.0,0.0
2025-04-10 10:14:12.659664,0.27842211723327637,0.5625,0.205407977104187,0.875,-0.006092071533203125,0.125,0.982978105545044,-0.5625,0.0350799560546875,0.0625,0.02645254135131836,-0.068359375,0.004372596740722656,-0.009765625,0.2701292037963867,1.1875,-0.18097209930419922,-2.5625,0.04282355308532715,-0.5,0.9899530410766602,-0.6875,-0.16525274515151978,0.0,0.04920196533203125,-0.1171875,0.03203630447387695,-0.078125,-0.0010080337524414062,-0.1677911877632141,0.0,0.0,0.0,0.0
2025-04-10 10:14:13.134845,0.27842211723327637,0.625,0.205407977104187,0.9375,-0.006139993667602539,0.125,0.982990026473999,-0.5625,0.035032033920288086,0.0625,0.02645254135131836,-0.068359375,0.004364967346191406,0.0,0.27016520500183105,1.125,-0.18097209930419922,-2.5625,0.042847394943237305,-0.5,0.9899530410766602,-0.6875,-0.16525274515151978,-0.0625,0.0492095947265625,-0.126953125,0.03203630447387695,-0.09765625,-0.0012223124504089355,-0.22372159361839294,0.0,0.0,0.0,0.0
2025-04-10 10:14:13.609810,0.2784101963043213,0.625,0.20539593696594238,0.875,-0.006092071533203125,0.1875,0.982990026473999,-0.5625,0.0350799560546875,0.0625,0.02644491195678711,-0.068359375,0.004372596740722656,-0.009765625,0.27016520500183105,1.1875,-0.18097209930419922,-2.5625,0.04283547401428223,-0.5,0.9899287223815918,-0.6875,-0.1652287244796753,0.0,0.049224853515625,-0.126953125,0.03205156326293945,-0.09765625,-0.0013026595115661621,-0.22372159361839294,0.0,0.0,0.0,0.0
2025-04-10 10:14:14.084871,0.2784101963043213,0.625,0.205407977104187,0.9375,-0.006115913391113281,0.125,0.982978105545044,-0.5625,0.03505587577819824,0.0625,0.02645254135131836,-0.068359375,0.004372596740722656,-0.01953125,0.270153284072876,1.1875,-0.1809840202331543,-2.5625,0.04283547401428223,-0.5,0.9899287223815918,-0.6875,-0.16525274515151978,0.0,0.04920196533203125,-0.126953125,0.03205156326293945,-0.107421875,-0.0011954903602600098,-0.22372159361839294,0.0,0.0,0.0,0.0
2025-04-10 10:14:14.559910,0.2784101963043213,0.625,0.205407977104187,0.875,-0.006127834320068359,0.125,0.982990026473999,-0.5625,0.035103797912597656,0.0625,0.02644491195678711,-0.048828125,0.004364967346191406,-0.009765625,0.2701413631439209,1.1875,-0.18099594116210938,-2.5625,0.04282355308532715,-0.5,0.9899287223815918,-0.6875,-0.16524070501327515,-0.0625,0.0492095947265625,-0.1171875,0.03205156326293945,-0.09765625,-0.0012624859809875488,-0.22372159361839294,0.0,0.0,0.0,0.0
2025-04-10 10:14:15.034948,0.2783982753753662,0.625,0.205407977104187,0.9375,-0.006115913391113281,0.1875,0.982978105545044,-0.5625,0.03505587577819824,0.0625,0.02644491195678711,-0.068359375,0.004372596740722656,-0.01953125,0.2701292037963867,1.1875,-0.18102025985717773,-2.5625,0.042847394943237305,-0.5,0.9899287223815918,-0.6875,-0.16525274515151978,0.0,0.04921722412109375,-0.1171875,0.0320591926574707,-0.078125,-0.001249074935913086,-0.22372159361839294,0.0,0.0,0.0,0.0
2025-04-10 10:14:15.509738,0.2784101963043213,0.625,0.20539593696594238,0.875,-0.006139993667602539,0.125,0.982978105545044,-0.5625,0.03505587577819824,0.0625,0.02645254135131836,-0.048828125,0.004372596740722656,-0.009765625,0.2701413631439209,1.1875,-0.18106794357299805,-2.5625,0.042847394943237305,-0.5,0.9899287223815918,-0.6875,-0.16526472568511963,0.0,0.0492095947265625,-0.1171875,0.03205156326293945,-0.078125,-0.001316070556640625,-0.1677911877632141,0.0,0.0,0.0,0.0
2025-04-10 10:14:15.984863,0.2784101963043213,0.625,0.20539593696594238,0.875,-0.006115913391113281,0.125,0.982978105545044,-0.5625,0.03505587577819824,0.0625,0.02644491195678711,-0.068359375,0.004364967346191406,-0.009765625,0.2701413631439209,1.1875,-0.1810917854309082,-2.5625,0.04283547401428223,-0.5,0.9899287223815918,-0.6875,-0.1652287244796753,-0.0625,0.04920196533203125,-0.126953125,0.0320439338684082,-0.09765625,-0.001249074935913086,-0.1677911877632141,0.0,0.0,0.0,0.0
2025-04-10 10:14:16.459869,0.2784101963043213,0.625,0.205407977104187,0.9375,-0.006115913391113281,0.125,0.982978105545044,-0.5625,0.03505587577819824,0.0625,0.02645254135131836,-0.048828125,0.004372596740722656,-0.01953125,0.2701413631439209,1.1875,-0.18107986450195312,-2.5625,0.042847394943237305,-0.5,0.9899287223815918,-0.6875,-0.16526472568511963,0.0,0.0492095947265625,-0.1171875,0.0320439338684082,-0.09765625,-0.0012624859809875488,-0.22372159361839294,0.0,0.0,0.0,0.0
2025-04-10 10:14:16.935098,0.2784101963043213,0.625,0.205407977104187,0.875,-0.006127834320068359,0.125,0.982978105545044,-0.5625,0.035032033920288086,0.0625,0.02645254135131836,-0.068359375,0.004364967346191406,-0.01953125,0.2701413631439209,1.1875,-0.18110370635986328,-2.5625,0.04282355308532715,-0.5,0.9899287223815918,-0.6875,-0.16525274515151978,0.0,0.04921722412109375,-0.1171875,0.0320591926574707,-0.09765625,-0.001249074935913086,-0.1677911877632141,0.0,0.0,0.0,0.0
2025-04-10 10:14:17.409930,0.2784101963043213,0.625,0.20539593696594238,0.875,-0.006139993667602539,0.125,0.982978105545044,-0.5625,0.035127878189086914,0.0625,0.02645254135131836,-0.068359375,0.004364967346191406,-0.009765625,0.27016520500183105,1.1875,-0.18110370635986328,-2.5625,0.042847394943237305,-0.4375,0.9899287223815918,-0.6875,-0.16526472568511963,0.0,0.04920196533203125,-0.1171875,0.0320439338684082,-0.09765625,-0.0012223124504089355,-0.22372159361839294,0.0,0.0,0.0,0.0
2025-04-10 10:14:17.884841,0.2784101963043213,0.625,0.205407977104187,0.875,-0.006127834320068359,0.125,0.982978105545044,-0.5625,0.03505587577819824,0.0625,0.02645254135131836,-0.068359375,0.004380226135253906,-0.009765625,0.2700693607330322,1.125,-0.18111610412597656,-2.5625,0.04283547401428223,-0.5,0.9899287223815918,-0.6875,-0.1652287244796753,-0.0625,0.04921722412109375,-0.1171875,0.0320439338684082,-0.078125,-0.001128554344177246,-0.22372159361839294,0.0,0.0,0.0,0.0
2025-04-10 10:14:18.359925,0.2784101963043213,0.625,0.205407977104187,0.875,-0.006139993667602539,0.1875,0.982978105545044,-0.5625,0.03509187698364258,0.0625,0.02645254135131836,-0.068359375,0.004380226135253906,-0.009765625,0.2701892852783203,1.25,-0.1811518669128418,-2.5625,0.042847394943237305,-0.5,0.9899530410766602,-0.6875,-0.16525274515151978,-0.0625,0.0492095947265625,-0.1171875,0.03205156326293945,-0.09765625,-0.001409769058227539,-0.1677911877632141,0.0,0.0,0.0,0.0
2025-04-10 10:14:18.858619,0.27842211723327637,0.625,0.20543193817138672,0.875,-0.006092071533203125,0.125,0.982978105545044,-0.5625,0.0350799560546875,0.0625,0.02645254135131836,-0.068359375,0.004364967346191406,-0.01953125,0.27016520500183105,1.125,-0.18117570877075195,-2.5625,0.042847394943237305,-0.5,0.9899530410766602,-0.6875,-0.16525274515151978,-0.0625,0.0492095947265625,-0.1171875,0.0320439338684082,-0.09765625,-0.0014767646789550781,-0.1677911877632141,0.0,0.0,0.0,0.0
2025-04-10 10:14:19.333627,0.2784101963043213,0.625,0.205407977104187,0.875,-0.006127834320068359,0.125,0.982978105545044,-0.5625,0.03505587577819824,0.0625,0.02645254135131836,-0.048828125,0.004372596740722656,-0.01953125,0.27016520500183105,1.25,-0.18116378784179688,-2.5625,0.042847394943237305,-0.5,0.9899287223815918,-0.6875,-0.16525274515151978,-0.0625,0.0492095947265625,-0.1171875,0.0320439338684082,-0.09765625,-0.0019722580909729004,-0.1677911877632141,0.0,0.0,0.0,0.0
2025-04-10 10:14:19.808646,0.2784101963043213,0.625,0.205407977104187,0.875,-0.006115913391113281,0.125,0.982978105545044,-0.5625,0.03509187698364258,0.0625,0.02644491195678711,-0.068359375,0.004364967346191406,-0.009765625,0.2701892852783203,1.1875,-0.1811518669128418,-2.5625,0.04282355308532715,-0.5,0.9899287223815918,-0.6875,-0.16525274515151978,0.0,0.04921722412109375,-0.1171875,0.03205156326293945,-0.078125,-0.0019454360008239746,-0.1677911877632141,0.0,0.0,0.0,0.0
2025-04-10 10:14:20.283659,0.27842211723327637,0.625,0.20539593696594238,0.875,-0.006127834320068359,0.125,0.9829542636871338,-0.5625,0.03506803512573242,0.0625,0.02644491195678711,-0.068359375,0.004364967346191406,-0.009765625,0.27021312713623047,1.25,-0.18117570877075195,-2.5625,0.04282355308532715,-0.5,0.9899649620056152,-0.6875,-0.1652287244796753,-0.0625,0.0492095947265625,-0.126953125,0.03203630447387695,-0.09765625,-0.0016642212867736816,-0.1677911877632141,0.0,0.0,0.0,0.0
