UARobotics-Lab/beta_unitree_utilities/arm_movement/g1_pcColiVRi/Robotics4p0/100425/data_g1_20250410_105355.csv
timestamp,q_joint15,tau_joint15,q_joint16,tau_joint16,q_joint17,tau_joint17,q_joint18,tau_joint18,q_joint19,tau_joint19,q_joint20,tau_joint20,q_joint21,tau_joint21,q_joint22,tau_joint22,q_joint23,tau_joint23,q_joint24,tau_joint24,q_joint25,tau_joint25,q_joint26,tau_joint26,q_joint27,tau_joint27,q_joint28,tau_joint28,q_joint12,tau_joint12,q_joint13,tau_joint13,q_joint14,tau_joint14
2025-04-10 10:53:56.688643,0.2926952838897705,0.5,0.21891415119171143,1.625,-0.007865667343139648,0.3125,0.9736664295196533,-0.3125,0.06514835357666016,0.25,0.012861251831054688,-0.078125,-0.013053417205810547,0.078125,0.28826141357421875,1.125,-0.2221379280090332,-1.8125,0.04033088684082031,-0.6875,0.9753918647766113,-0.1875,-0.18659663200378418,0.0,0.0464634895324707,-0.15625,0.06768560409545898,-0.244140625,-0.0026418566703796387,0.3355823755264282,0.0,0.0,0.0,0.0
2025-04-10 10:53:57.164760,0.2926952838897705,0.5,0.21892619132995605,1.6875,-0.007865667343139648,0.3125,0.9736545085906982,-0.3125,0.06514835357666016,0.25,0.012861251831054688,-0.078125,-0.013053417205810547,0.078125,0.28826141357421875,1.125,-0.2221379280090332,-1.8125,0.04034280776977539,-0.625,0.9754157066345215,-0.125,-0.18659663200378418,0.0,0.04645586013793945,-0.15625,0.06768560409545898,-0.244140625,-0.002615034580230713,0.39151278138160706,0.0,0.0,0.0,0.0
2025-04-10 10:53:57.657631,0.25157761573791504,0.0,0.11978065967559814,0.0,-0.007062673568725586,0.125,0.9948785305023193,-0.1875,0.06119346618652344,-0.0625,0.013382911682128906,-0.0390625,-0.004217624664306641,0.0,0.19196820259094238,0.375,-0.12861299514770508,-0.1875,0.05104470252990723,0.125,1.050844669342041,-0.25,-0.18895751237869263,-0.125,0.06562280654907227,-0.263671875,0.07055425643920898,-0.068359375,-0.004530072212219238,-0.2796519994735718,0.0,0.0,0.0,0.0
2025-04-10 10:53:58.132670,0.2512059211730957,0.0625,0.1201401948928833,0.3125,-0.007158517837524414,0.0625,0.9953696727752686,-0.1875,0.06120562553405762,-0.125,0.013360023498535156,-0.029296875,-0.003673076629638672,-0.01953125,0.06853055953979492,1.5,-0.2654848098754883,0.25,0.018124103546142578,0.1875,1.035792350769043,-0.0625,-0.18719583749771118,-0.125,0.09180021286010742,-0.1953125,0.07865381240844727,-0.029296875,-0.001409769058227539,-0.2796519994735718,0.0,0.0,0.0,0.0
2025-04-10 10:53:58.607500,0.25124192237854004,0.25,0.12311220169067383,0.875,-0.007386207580566406,0.125,0.9951183795928955,-0.375,0.06125354766845703,-0.0625,0.013344287872314453,-0.0390625,-0.0038111209869384766,-0.05859375,0.0755772590637207,2.0625,-0.252230167388916,-0.1875,0.020700693130493164,0.3125,1.0326285362243652,-0.4375,-0.18692022562026978,-0.0625,0.09076499938964844,-0.400390625,0.08013391494750977,-0.107421875,0.0016167759895324707,-0.3355823755264282,0.0,0.0,0.0,0.0
2025-04-10 10:53:59.082904,0.252260684967041,0.5625,0.13255584239959717,1.375,-0.007865667343139648,0.125,0.9934403896331787,-0.5,0.06127738952636719,-0.0625,0.013336658477783203,-0.0390625,-0.006579875946044922,-0.048828125,0.14877700805664062,2.375,-0.22344398498535156,-0.125,0.029532909393310547,0.3125,0.997922420501709,-0.25,-0.18692022562026978,-0.0625,0.07733488082885742,-0.400390625,0.07981204986572266,-0.1953125,0.008071660995483398,-0.4474431872367859,0.0,0.0,0.0,0.0
2025-04-10 10:53:59.557661,0.2547173500061035,0.875,0.14723646640777588,1.75,-0.007937431335449219,0.1875,0.9909718036651611,-0.625,0.06127738952636719,0.0,0.013321399688720703,-0.048828125,-0.009785890579223633,-0.01953125,0.20456361770629883,2.3125,-0.21826696395874023,-0.3125,0.04230809211730957,0.0625,0.9968914985656738,-0.4375,-0.18695616722106934,-0.0625,0.0638127326965332,-0.44921875,0.07939004898071289,-0.2734375,0.00878143310546875,-0.4474431872367859,0.0,0.0,0.0,0.0
2025-04-10 10:54:00.052524,0.2596309185028076,1.0625,0.16893994808197021,1.625,-0.008021354675292969,0.125,0.9889223575592041,-0.6875,0.061301469802856445,0.0,0.013321399688720703,-0.0390625,-0.01228642463684082,0.0,0.23180365562438965,2.0625,-0.20147705078125,-0.9375,0.04271554946899414,0.0,0.9962925910949707,-0.5625,-0.18700408935546875,-0.0625,0.05756187438964844,-0.3125,0.07213449478149414,-0.1171875,0.007723510265350342,-0.5593039989471436,0.0,0.0,0.0,0.0
2025-04-10 10:54:00.527620,0.2631661891937256,1.125,0.17803597450256348,1.625,-0.008021354675292969,0.125,0.9883949756622314,-0.75,0.06156516075134277,0.0,0.013313770294189453,-0.068359375,-0.012853860855102539,0.01953125,0.24436330795288086,2.0625,-0.20071029663085938,-1.0625,0.04319500923156738,0.0,0.9948782920837402,-0.6875,-0.18705201148986816,-0.0625,0.05450153350830078,-0.322265625,0.07163572311401367,-0.146484375,0.0018310546875,-0.3355823755264282,0.0,0.0,0.0,0.0
2025-04-10 10:54:01.002618,0.2675285339355469,1.125,0.1805046796798706,1.8125,-0.008057355880737305,0.1875,0.9863579273223877,-0.75,0.06157708168029785,0.0625,0.013321399688720703,-0.048828125,-0.012938261032104492,0.029296875,0.25385475158691406,1.8125,-0.20065021514892578,-1.25,0.04518437385559082,-0.0625,0.9943032264709473,-0.8125,-0.18714791536331177,-0.125,0.05322074890136719,-0.3125,0.07140588760375977,-0.166015625,-0.0019320845603942871,-0.22372159361839294,0.0,0.0,0.0,0.0
2025-04-10 10:54:01.477613,0.2678999900817871,1.25,0.18261396884918213,1.875,-0.008081436157226562,0.125,0.9853031635284424,-0.75,0.06175684928894043,0.0,0.013298511505126953,-0.0390625,-0.012953758239746094,0.01953125,0.2618720531463623,1.625,-0.20049428939819336,-1.375,0.04575967788696289,-0.1875,0.9942312240600586,-0.875,-0.18717187643051147,-0.125,0.05295228958129883,-0.341796875,0.07122182846069336,-0.17578125,-0.0045836567878723145,-0.11186079680919647,0.0,0.0,0.0,0.0
2025-04-10 10:54:01.982032,0.26984143257141113,1.1875,0.18316519260406494,1.9375,-0.008129358291625977,0.125,0.9844043254852295,-0.75,0.06182861328125,0.0625,0.013306140899658203,-0.068359375,-0.012961387634277344,0.0390625,0.2682836055755615,1.3125,-0.20044660568237305,-1.4375,0.04579567909240723,-0.25,0.9942073822021484,-0.9375,-0.18717187643051147,-0.0625,0.05253028869628906,-0.322265625,0.07112979888916016,-0.166015625,-0.005065798759460449,0.0,0.0,0.0,0.0,0.0
2025-04-10 10:54:02.471341,0.2757256031036377,0.8125,0.18335700035095215,1.9375,-0.008141279220581055,0.125,0.9841763973236084,-0.75,0.061864614486694336,0.0625,0.013306140899658203,-0.048828125,-0.012976646423339844,0.01953125,0.2686192989349365,1.25,-0.20043468475341797,-1.4375,0.04579567909240723,-0.125,0.9941830635070801,-0.9375,-0.18719583749771118,-0.0625,0.0520014762878418,-0.29296875,0.07108354568481445,-0.15625,-0.0050389766693115234,-0.11186079680919647,0.0,0.0,0.0,0.0
2025-04-10 10:54:02.946573,0.2757256031036377,0.8125,0.18341684341430664,1.9375,-0.008153200149536133,0.125,0.984116792678833,-0.75,0.06185269355773926,0.0,0.013306140899658203,-0.048828125,-0.012976646423339844,0.01953125,0.2686192989349365,1.3125,-0.20043468475341797,-1.4375,0.04578351974487305,-0.25,0.994171142578125,-0.875,-0.18714791536331177,-0.0625,0.05182504653930664,-0.29296875,0.0710606575012207,-0.166015625,-0.005012214183807373,0.0,0.0,0.0,0.0,0.0
2025-04-10 10:54:03.421432,0.2757256031036377,0.8125,0.18342888355255127,1.9375,-0.00817728042602539,0.125,0.984116792678833,-0.75,0.06176877021789551,0.0625,0.013321399688720703,-0.048828125,-0.012984275817871094,0.01953125,0.2686192989349365,1.25,-0.20043468475341797,-1.4375,0.04579567909240723,-0.25,0.994171142578125,-0.9375,-0.18720781803131104,-0.125,0.051709651947021484,-0.29296875,0.0710606575012207,-0.166015625,-0.004985392093658447,0.0,0.0,0.0,0.0,0.0
2025-04-10 10:54:03.910774,0.2757256031036377,0.8125,0.18348872661590576,1.9375,-0.008189201354980469,0.125,0.984116792678833,-0.75,0.061888694763183594,0.0625,0.013298511505126953,-0.048828125,-0.012976646423339844,0.01953125,0.2686192989349365,1.25,-0.2004222869873047,-1.375,0.04578351974487305,-0.25,0.9941592216491699,-0.9375,-0.18715989589691162,-0.0625,0.051671504974365234,-0.2734375,0.0710606575012207,-0.166015625,-0.004985392093658447,0.0,0.0,0.0,0.0,0.0
2025-04-10 10:54:04.385578,0.2757256031036377,0.8125,0.1835007667541504,1.9375,-0.00817728042602539,0.125,0.984116792678833,-0.75,0.061864614486694336,0.0,0.013306140899658203,-0.048828125,-0.012984275817871094,0.01953125,0.2686192989349365,1.25,-0.20043468475341797,-1.4375,0.04578351974487305,-0.25,0.9941592216491699,-0.9375,-0.18718385696411133,-0.0625,0.051656246185302734,-0.2734375,0.07105302810668945,-0.166015625,-0.0050389766693115234,-0.11186079680919647,0.0,0.0,0.0,0.0
2025-04-10 10:54:04.860628,0.2757256031036377,0.8125,0.1835247278213501,1.9375,-0.008165359497070312,0.125,0.984116792678833,-0.75,0.06185269355773926,0.0,0.013298511505126953,-0.068359375,-0.012991905212402344,0.029296875,0.2686312198638916,1.25,-0.20043468475341797,-1.375,0.04579567909240723,-0.125,0.9941473007202148,-0.9375,-0.18720781803131104,-0.0625,0.05163288116455078,-0.29296875,0.0710606575012207,-0.166015625,-0.005065798759460449,-0.11186079680919647,0.0,0.0,0.0,0.0
2025-04-10 10:54:05.335683,0.2480182647705078,0.0625,0.12928414344787598,0.625,-0.0077936649322509766,0.0625,0.9916427135467529,-0.375,0.06086993217468262,-0.1875,0.013367652893066406,-0.029296875,-0.012071609497070312,-0.25390625,0.2327864170074463,0.375,-0.14682912826538086,-0.9375,0.048995256423950195,0.0625,1.0212793350219727,-0.0625,-0.18720781803131104,-0.0625,0.060791015625,-0.009765625,0.07177400588989258,0.0,-0.006029963493347168,-0.1677911877632141,0.0,0.0,0.0,0.0
2025-04-10 10:54:05.812460,0.23022150993347168,-0.5625,0.10780835151672363,-0.0625,-0.005564689636230469,0.125,0.9364912509918213,-1.625,0.05994725227355957,-0.25,0.015653133392333984,-0.126953125,0.006658315658569336,-0.009765625,0.1558835506439209,-0.125,-0.20994997024536133,0.4375,0.03212165832519531,0.1875,0.9259929656982422,-0.9375,-0.1810239553451538,0.25,0.07313203811645508,-0.1953125,0.07079219818115234,-0.15625,-0.005574643611907959,-0.1677911877632141,0.0,0.0,0.0,0.0
2025-04-10 10:54:06.287469,0.1559314727783203,-0.75,0.01615309715270996,0.25,-0.0013222694396972656,0.1875,0.5172712802886963,-1.4375,0.04465532302856445,-0.25,0.026866436004638672,-0.224609375,0.006267070770263672,0.0,0.15351080894470215,-1.0625,-0.15865755081176758,0.5,0.02771139144897461,0.0,0.5685634613037109,-1.9375,-0.11212664842605591,0.0625,0.08717536926269531,-0.595703125,0.06078290939331055,-0.3125,-0.0133017897605896,0.0,0.0,0.0,0.0,0.0
2025-04-10 10:54:06.762746,0.13179516792297363,-2.0,0.002443075180053711,-0.125,-0.00047135353088378906,0.125,0.21005558967590332,-2.125,0.015006303787231445,-0.3125,0.03027200698852539,-0.439453125,0.005776166915893555,-0.029296875,0.13620567321777344,-1.5,-0.07684135437011719,0.5,0.012898921966552734,0.1875,0.26722002029418945,-2.6875,-0.03630244731903076,0.0625,0.08683013916015625,-1.19140625,0.024818897247314453,-0.244140625,-0.013837456703186035,0.0,0.0,0.0,0.0,0.0
2025-04-10 10:54:07.237568,0.09137248992919922,-2.125,0.002359151840209961,-0.1875,-0.00015974044799804688,0.1875,0.12175583839416504,-2.75,0.012213945388793945,-0.375,0.02998828887939453,-0.68359375,0.004572153091430664,-0.068359375,0.11324381828308105,-2.3125,-0.02680683135986328,0.4375,0.004270315170288086,0.0,0.16676855087280273,-3.4375,-0.023107826709747314,0.25,0.07745790481567383,-1.591796875,0.008765697479248047,-0.146484375,-0.012605428695678711,0.055930398404598236,0.0,0.0,0.0,0.0
2025-04-10 10:54:07.727774,0.08354663848876953,-2.5625,0.002311229705810547,-0.1875,-0.00020766258239746094,0.125,0.08691763877868652,-2.75,0.004088640213012695,-0.25,0.028400421142578125,-0.908203125,0.004349708557128906,-0.107421875,0.0972447395324707,-2.875,-0.025297164916992188,0.5625,0.0034911632537841797,0.0,0.1286463737487793,-3.8125,-0.008511006832122803,0.0625,0.056611061096191406,-1.54296875,0.002990245819091797,-0.009765625,-0.012498259544372559,0.1677911877632141,0.0,0.0,0.0,0.0
2025-04-10 10:54:08.202982,0.05730128288269043,-2.4375,0.00228726863861084,-0.1875,-4.00543212890625e-05,0.125,0.06665229797363281,-2.75,0.003873109817504883,-0.25,0.020554065704345703,-0.830078125,0.0041348934173583984,-0.126953125,0.08182120323181152,-3.125,-0.004600048065185547,0.0,0.004509925842285156,-0.0625,0.10510969161987305,-3.9375,-0.005838572978973389,0.0625,0.04285860061645508,-1.66015625,0.0003209114074707031,0.01953125,-0.009444952011108398,0.11186079680919647,0.0,0.0,0.0,0.0
2025-04-10 10:54:08.677743,0.054868459701538086,-2.75,0.0022513866424560547,-0.25,-5.1975250244140625e-05,0.125,0.05299043655395508,-2.625,0.003369569778442383,-0.3125,0.018184185028076172,-0.869140625,0.003950834274291992,-0.15625,0.07455873489379883,-3.4375,-0.004120826721191406,0.0625,0.004282236099243164,-0.0625,0.09282588958740234,-4.25,-0.005023598670959473,0.0625,0.03424549102783203,-1.5625,0.00025177001953125,0.01953125,-0.008467316627502441,0.22372159361839294,0.0,0.0,0.0,0.0
2025-04-10 10:54:09.152809,0.04778575897216797,-2.6875,0.0021554231643676758,-0.3125,-4.00543212890625e-05,0.125,0.050126075744628906,-2.8125,0.0032498836517333984,-0.3125,0.013275623321533203,-0.72265625,0.0038051605224609375,-0.166015625,0.06209516525268555,-3.1875,-0.00392913818359375,0.0625,0.004150390625,-0.0625,0.07918787002563477,-4.0625,-0.00484389066696167,0.0625,0.029068470001220703,-1.54296875,0.000213623046875,0.01953125,-0.008427143096923828,0.22372159361839294,0.0,0.0,0.0,0.0
2025-04-10 10:54:09.627781,0.046491384506225586,-2.875,0.0021075010299682617,-0.25,-4.00543212890625e-05,0.125,0.04680657386779785,-2.8125,0.0031898021697998047,-0.3125,0.012715339660644531,-0.732421875,0.003697633743286133,-0.1953125,0.059242963790893555,-3.3125,-0.0038213729858398438,0.0625,0.004054546356201172,-0.0625,0.07428598403930664,-4.1875,-0.004700064659118652,0.125,0.027634143829345703,-1.572265625,0.00015211105346679688,0.01953125,-0.008386969566345215,0.3355823755264282,0.0,0.0,0.0,0.0
2025-04-10 10:54:10.104683,0.04578447341918945,-2.8125,0.0020716190338134766,-0.25,-4.00543212890625e-05,0.1875,0.04625511169433594,-2.8125,0.0031540393829345703,-0.3125,0.012477874755859375,-0.76171875,0.0036287307739257812,-0.17578125,0.054808616638183594,-3.125,-0.0038094520568847656,0.0625,0.003970623016357422,-0.0625,0.07005548477172852,-4.0,-0.004568219184875488,0.125,0.027250289916992188,-1.591796875,0.00013685226440429688,0.01953125,-0.007864654064178467,0.2796519994735718,0.0,0.0,0.0,0.0
2025-04-10 10:54:10.577807,0.04549670219421387,-2.8125,0.0020835399627685547,-0.25,-1.5974044799804688e-05,0.125,0.04614734649658203,-2.875,0.0031299591064453125,-0.3125,0.012401103973388672,-0.76171875,0.0035903453826904297,-0.166015625,0.054473161697387695,-3.125,-0.003773212432861328,0.0625,0.003970623016357422,-0.0625,0.06998395919799805,-4.0,-0.004520297050476074,0.0625,0.027196884155273438,-1.572265625,0.00011396408081054688,0.029296875,-0.00790482759475708,0.2796519994735718,0.0,0.0,0.0,0.0
2025-04-10 10:54:11.053655,0.04319572448730469,-2.625,0.0020716190338134766,-0.3125,-2.7894973754882812e-05,0.125,0.0460515022277832,-2.875,0.0031061172485351562,-0.3125,0.012362957000732422,-0.751953125,0.0035827159881591797,-0.17578125,0.05428147315979004,-3.0625,-0.00376129150390625,0.0625,0.00391077995300293,-0.0625,0.06993579864501953,-4.0,-0.004520297050476074,0.0625,0.027173995971679688,-1.58203125,9.107589721679688e-05,0.01953125,-0.0077173709869384766,0.2796519994735718,0.0,0.0,0.0,0.0
2025-04-10 10:54:11.527900,0.04023575782775879,-2.5625,0.0020595788955688477,-0.3125,-7.581710815429688e-05,0.125,0.045955657958984375,-2.875,0.0030820369720458984,-0.3125,0.012309074401855469,-0.76171875,0.0035827159881591797,-0.17578125,0.0542454719543457,-3.0625,-0.0037374496459960938,0.0625,0.003970623016357422,-0.0625,0.06993579864501953,-4.0,-0.004532277584075928,0.0625,0.027158260345458984,-1.58203125,9.870529174804688e-05,0.029296875,-0.007690608501434326,0.3355823755264282,0.0,0.0,0.0,0.0
2025-04-10 10:54:12.004713,0.04024767875671387,-2.5,0.0020595788955688477,-0.3125,-5.1975250244140625e-05,0.125,0.04585981369018555,-2.8125,0.0030460357666015625,-0.3125,0.012301445007324219,-0.732421875,0.0035827159881591797,-0.17578125,0.054233551025390625,-3.0625,-0.003749370574951172,0.0625,0.003958702087402344,-0.0625,0.06991195678710938,-4.0,-0.004520297050476074,0.0625,0.027150630950927734,-1.58203125,0.00010633468627929688,0.029296875,-0.00763702392578125,0.2796519994735718,0.0,0.0,0.0,0.0
2025-04-10 10:54:12.479837,0.04024767875671387,-2.5,0.0020236968994140625,-0.3125,-4.00543212890625e-05,0.125,0.04583573341369629,-2.875,0.0030221939086914062,-0.3125,0.012278556823730469,-0.751953125,0.0035750865936279297,-0.17578125,0.054221391677856445,-3.0625,-0.0037374496459960938,0.0625,0.003946781158447266,-0.0625,0.06991195678710938,-4.0,-0.004508316516876221,0.0625,0.027143001556396484,-1.591796875,8.344650268554688e-05,0.01953125,-0.00763702392578125,0.2796519994735718,0.0,0.0,0.0,0.0
2025-04-10 10:54:12.954987,0.04021167755126953,-2.5625,0.0020476579666137695,-0.3125,-7.581710815429688e-05,0.125,0.04582381248474121,-2.875,0.0030100345611572266,-0.3125,0.012278556823730469,-0.751953125,0.0035750865936279297,-0.17578125,0.054221391677856445,-3.0625,-0.0037374496459960938,0.0625,0.003946781158447266,-0.0625,0.06991195678710938,-4.0,-0.004496335983276367,0.125,0.027135372161865234,-1.591796875,9.107589721679688e-05,0.01953125,-0.00763702392578125,0.2796519994735718,0.0,0.0,0.0,0.0
2025-04-10 10:54:13.429822,0.04022359848022461,-2.5,0.0020356178283691406,-0.25,-1.5974044799804688e-05,0.125,0.04579973220825195,-2.8125,0.0030221939086914062,-0.3125,0.012262821197509766,-0.751953125,0.003567218780517578,-0.17578125,0.054233551025390625,-3.0625,-0.0037374496459960938,0.0625,0.003958702087402344,-0.0625,0.06991195678710938,-4.0,-0.004508316516876221,0.0625,0.027135372161865234,-1.58203125,7.581710815429688e-05,0.01953125,-0.007650434970855713,0.3355823755264282,0.0,0.0,0.0,0.0
2025-04-10 10:54:13.908431,0.04024767875671387,-2.5,0.0020476579666137695,-0.25,8.106231689453125e-06,0.125,0.045787811279296875,-2.8125,0.0029981136322021484,-0.3125,0.012262821197509766,-0.76171875,0.003559589385986328,-0.17578125,0.054221391677856445,-3.0625,-0.0037136077880859375,0.0625,0.003970623016357422,-0.0625,0.0699000358581543,-4.0,-0.004520297050476074,0.0625,0.027127742767333984,-1.591796875,7.581710815429688e-05,0.01953125,-0.00763702392578125,0.2796519994735718,0.0,0.0,0.0,0.0
2025-04-10 10:54:14.385330,0.04022359848022461,-2.5,0.0020476579666137695,-0.3125,-6.389617919921875e-05,0.125,0.04581189155578613,-2.8125,0.0029861927032470703,-0.3125,0.012247562408447266,-0.751953125,0.003567218780517578,-0.166015625,0.054221391677856445,-3.0625,-0.0037255287170410156,0.0625,0.003946781158447266,-0.0625,0.0699000358581543,-4.0,-0.004520297050476074,0.0625,0.027127742767333984,-1.58203125,7.581710815429688e-05,0.029296875,-0.0076637864112854,0.2796519994735718,0.0,0.0,0.0,0.0
2025-04-10 10:54:14.858631,0.04022359848022461,-2.5,0.0020356178283691406,-0.25,-5.1975250244140625e-05,0.125,0.045787811279296875,-2.8125,0.002974271774291992,-0.3125,0.012247562408447266,-0.76171875,0.0035750865936279297,-0.17578125,0.054233551025390625,-3.0625,-0.0037136077880859375,0.125,0.003946781158447266,-0.0625,0.0699000358581543,-4.0,-0.004508316516876221,0.0625,0.027135372161865234,-1.58203125,7.581710815429688e-05,0.01953125,-0.007690608501434326,0.3355823755264282,0.0,0.0,0.0,0.0
2025-04-10 10:54:15.333631,0.04022359848022461,-2.5,0.0020116567611694336,-0.3125,-2.7894973754882812e-05,0.125,0.04579973220825195,-2.8125,0.0029861927032470703,-0.3125,0.012247562408447266,-0.751953125,0.003567218780517578,-0.17578125,0.054221391677856445,-3.0625,-0.0037255287170410156,0.0625,0.003922700881958008,-0.0625,0.06987571716308594,-4.0,-0.004496335983276367,0.0625,0.027127742767333984,-1.58203125,8.344650268554688e-05,0.01953125,-0.007690608501434326,0.2796519994735718,0.0,0.0,0.0,0.0
2025-04-10 10:54:15.810320,0.04021167755126953,-2.5,0.0020236968994140625,-0.25,-4.00543212890625e-05,0.125,0.045787811279296875,-2.8125,0.0029981136322021484,-0.3125,0.012239933013916016,-0.751953125,0.003567218780517578,-0.17578125,0.054233551025390625,-3.0625,-0.0037255287170410156,0.0625,0.003958702087402344,-0.0625,0.06987571716308594,-4.0,-0.004484355449676514,0.125,0.027127742767333984,-1.58203125,7.581710815429688e-05,0.01953125,-0.007677197456359863,0.2796519994735718,0.0,0.0,0.0,0.0
2025-04-10 10:54:16.285797,0.04019975662231445,-2.5625,0.0020236968994140625,-0.3125,-4.00543212890625e-05,0.125,0.0457758903503418,-2.8125,0.0029981136322021484,-0.3125,0.012232303619384766,-0.751953125,0.003567218780517578,-0.17578125,0.054221391677856445,-3.0625,-0.0037255287170410156,0.0625,0.003934621810913086,-0.0625,0.06986379623413086,-4.0,-0.004496335983276367,0.125,0.027135372161865234,-1.58203125,7.581710815429688e-05,0.01953125,-0.007690608501434326,0.2796519994735718,0.0,0.0,0.0,0.0
2025-04-10 10:54:16.760482,0.04019975662231445,-2.5625,0.0020236968994140625,-0.25,-4.00543212890625e-05,0.125,0.04579973220825195,-2.8125,0.002974271774291992,-0.3125,0.012232303619384766,-0.751953125,0.003567218780517578,-0.17578125,0.0542454719543457,-3.0625,-0.0037136077880859375,0.0625,0.003922700881958008,-0.0625,0.06987571716308594,-4.0,-0.004508316516876221,0.125,0.027120113372802734,-1.58203125,7.581710815429688e-05,0.01953125,-0.007703959941864014,0.3355823755264282,0.0,0.0,0.0,0.0
2025-04-10 10:54:17.235367,0.04021167755126953,-2.5,0.0020595788955688477,-0.3125,-5.1975250244140625e-05,0.125,0.04579973220825195,-2.8125,0.002974271774291992,-0.3125,0.012224674224853516,-0.751953125,0.003567218780517578,-0.17578125,0.054221391677856445,-3.0625,-0.0037255287170410156,0.0625,0.003922700881958008,-0.0625,0.06986379623413086,-4.0,-0.004508316516876221,0.0625,0.027127742767333984,-1.572265625,6.771087646484375e-05,0.01953125,-0.007690608501434326,0.2796519994735718,0.0,0.0,0.0,0.0
2025-04-10 10:54:17.710533,0.04021167755126953,-2.5,0.0020116567611694336,-0.3125,-4.00543212890625e-05,0.125,0.045787811279296875,-2.8125,0.0029621124267578125,-0.3125,0.012232303619384766,-0.76171875,0.003567218780517578,-0.17578125,0.054221391677856445,-3.0625,-0.0037136077880859375,0.0625,0.003922700881958008,-0.0625,0.06986379623413086,-3.9375,-0.004484355449676514,0.0625,0.027127742767333984,-1.58203125,7.581710815429688e-05,0.01953125,-0.007677197456359863,0.3355823755264282,0.0,0.0,0.0,0.0
2025-04-10 10:54:18.206674,0.04021167755126953,-2.5,0.0020356178283691406,-0.25,-5.1975250244140625e-05,0.125,0.045787811279296875,-2.8125,0.0029861927032470703,-0.3125,0.012224674224853516,-0.751953125,0.0035750865936279297,-0.17578125,0.054221391677856445,-3.0625,-0.0037136077880859375,0.0625,0.003922700881958008,-0.0625,0.06986379623413086,-4.0,-0.004496335983276367,0.0625,0.027127742767333984,-1.58203125,7.581710815429688e-05,0.029296875,-0.007650434970855713,0.3355823755264282,0.0,0.0,0.0,0.0
2025-04-10 10:54:18.681554,0.04019975662231445,-2.5,0.0019997358322143555,-0.3125,-4.0531158447265625e-06,0.125,0.045787811279296875,-2.875,0.0029621124267578125,-0.3125,0.012217044830322266,-0.751953125,0.003567218780517578,-0.17578125,0.054221391677856445,-3.0625,-0.0037136077880859375,0.0625,0.003958702087402344,-0.0625,0.0698399543762207,-4.0,-0.004508316516876221,0.0625,0.027120113372802734,-1.58203125,7.581710815429688e-05,0.01953125,-0.007623612880706787,0.2796519994735718,0.0,0.0,0.0,0.0
2025-04-10 10:54:19.156483,0.04019975662231445,-2.5625,0.0020476579666137695,-0.25,-4.0531158447265625e-06,0.1875,0.045787811279296875,-2.875,0.0029621124267578125,-0.3125,0.012217044830322266,-0.751953125,0.003567218780517578,-0.17578125,0.054221391677856445,-3.0625,-0.0037012100219726562,0.0625,0.003922700881958008,-0.0625,0.0698399543762207,-4.0,-0.00447237491607666,0.0625,0.027127742767333984,-1.58203125,7.581710815429688e-05,0.029296875,-0.00763702392578125,0.3355823755264282,0.0,0.0,0.0,0.0
2025-04-10 10:54:19.637146,0.04021167755126953,-2.5,0.0020356178283691406,-0.25,-2.7894973754882812e-05,0.125,0.04579973220825195,-2.8125,0.0029501914978027344,-0.3125,0.012217044830322266,-0.751953125,0.003559589385986328,-0.17578125,0.054233551025390625,-3.0625,-0.0037136077880859375,0.0625,0.003922700881958008,-0.0625,0.06985187530517578,-4.0,-0.004484355449676514,0.0625,0.027127742767333984,-1.572265625,7.581710815429688e-05,0.01953125,-0.007623612880706787,0.3355823755264282,0.0,0.0,0.0,0.0
2025-04-10 10:54:20.119857,0.04021167755126953,-2.5,0.0020116567611694336,-0.3125,-4.00543212890625e-05,0.125,0.045787811279296875,-2.875,0.0029501914978027344,-0.3125,0.012217044830322266,-0.751953125,0.003567218780517578,-0.166015625,0.054233551025390625,-3.0625,-0.0037136077880859375,0.0625,0.003934621810913086,-0.0625,0.0698399543762207,-4.0,-0.00447237491607666,0.0625,0.027120113372802734,-1.572265625,7.581710815429688e-05,0.01953125,-0.007650434970855713,0.2796519994735718,0.0,0.0,0.0,0.0
2025-04-10 10:54:20.594901,0.04019975662231445,-2.5,0.0019997358322143555,-0.3125,-5.1975250244140625e-05,0.125,0.04579973220825195,-2.8125,0.0029382705688476562,-0.3125,0.012217044830322266,-0.751953125,0.003567218780517578,-0.17578125,0.054221391677856445,-3.0625,-0.0037136077880859375,0.0625,0.00391077995300293,-0.0625,0.0698399543762207,-4.0,-0.004424393177032471,0.0625,0.027127742767333984,-1.58203125,7.581710815429688e-05,0.01953125,-0.00763702392578125,0.3355823755264282,0.0,0.0,0.0,0.0
2025-04-10 10:54:21.069746,0.04022359848022461,-2.5,0.0020116567611694336,-0.3125,-2.7894973754882812e-05,0.125,0.04576373100280762,-2.875,0.0029382705688476562,-0.3125,0.012224674224853516,-0.751953125,0.003551959991455078,-0.17578125,0.054221391677856445,-3.0625,-0.0037136077880859375,0.0625,0.003934621810913086,-0.0625,0.0698399543762207,-4.0,-0.004412412643432617,0.125,0.027127742767333984,-1.58203125,7.581710815429688e-05,0.01953125,-0.0076637864112854,0.2796519994735718,0.0,0.0,0.0,0.0
2025-04-10 10:54:21.544755,0.04019975662231445,-2.5625,0.0020236968994140625,-0.25,2.002716064453125e-05,0.0625,0.045787811279296875,-2.8125,0.0029382705688476562,-0.3125,0.012217044830322266,-0.751953125,0.003567218780517578,-0.166015625,0.054233551025390625,-3.0625,-0.0037012100219726562,0.0625,0.003922700881958008,-0.0625,0.0698399543762207,-4.0625,-0.004412412643432617,0.0625,0.027127742767333984,-1.572265625,6.771087646484375e-05,0.01953125,-0.00763702392578125,0.2796519994735718,0.0,0.0,0.0,0.0
2025-04-10 10:54:22.042495,0.040187835693359375,-2.5,0.0019997358322143555,-0.25,-4.00543212890625e-05,0.125,0.04581189155578613,-2.8125,0.0029141902923583984,-0.3125,0.012209415435791016,-0.751953125,0.003567218780517578,-0.17578125,0.054221391677856445,-3.125,-0.0037136077880859375,0.0625,0.00391077995300293,-0.0625,0.0698399543762207,-4.0,-0.004412412643432617,0.0625,0.027127742767333984,-1.58203125,7.581710815429688e-05,0.029296875,-0.007650434970855713,0.3355823755264282,0.0,0.0,0.0,0.0
2025-04-10 10:54:22.517541,0.04019975662231445,-2.4375,0.0019997358322143555,-0.25,-5.1975250244140625e-05,0.125,0.04579973220825195,-2.8125,0.002926349639892578,-0.3125,0.012209415435791016,-0.751953125,0.003559589385986328,-0.17578125,0.054221391677856445,-3.0625,-0.0037012100219726562,0.125,0.00389862060546875,-0.0625,0.0698399543762207,-4.0,-0.004424393177032471,0.0625,0.027127742767333984,-1.58203125,6.771087646484375e-05,0.0,-0.00763702392578125,0.3355823755264282,0.0,0.0,0.0,0.0
2025-04-10 10:54:22.992485,0.04021167755126953,-2.5,0.0020116567611694336,-0.3125,-4.00543212890625e-05,0.125,0.04579973220825195,-2.8125,0.002926349639892578,-0.3125,0.012217044830322266,-0.751953125,0.003559589385986328,-0.166015625,0.054221391677856445,-3.0625,-0.003689289093017578,0.125,0.00389862060546875,-0.0625,0.0698399543762207,-4.0,-0.004400432109832764,0.0625,0.027120113372802734,-1.58203125,7.581710815429688e-05,0.029296875,-0.007650434970855713,0.2796519994735718,0.0,0.0,0.0,0.0
2025-04-10 10:54:23.467620,0.04021167755126953,-2.5,0.0020116567611694336,-0.25,-5.1975250244140625e-05,0.1875,0.04579973220825195,-2.8125,0.0029022693634033203,-0.3125,0.012217044830322266,-0.751953125,0.003551959991455078,-0.17578125,0.054221391677856445,-3.0625,-0.003689289093017578,0.0625,0.003922700881958008,-0.0625,0.0698399543762207,-4.0,-0.004412412643432617,0.0625,0.027120113372802734,-1.591796875,6.008148193359375e-05,0.029296875,-0.007650434970855713,0.2796519994735718,0.0,0.0,0.0,0.0
2025-04-10 10:54:23.957815,0.04019975662231445,-2.5,0.0019997358322143555,-0.25,-4.00543212890625e-05,0.125,0.045787811279296875,-2.8125,0.002926349639892578,-0.3125,0.012209415435791016,-0.751953125,0.003551959991455078,-0.17578125,0.054233551025390625,-3.125,-0.0037012100219726562,0.0625,0.003922700881958008,-0.0625,0.0698399543762207,-4.0,-0.004412412643432617,0.0625,0.027127742767333984,-1.58203125,6.771087646484375e-05,0.01953125,-0.00763702392578125,0.2796519994735718,0.0,0.0,0.0,0.0
2025-04-10 10:54:24.432790,0.04021167755126953,-2.5,0.0019637346267700195,-0.25,-5.1975250244140625e-05,0.125,0.04579973220825195,-2.8125,0.002926349639892578,-0.3125,0.012209415435791016,-0.751953125,0.003544330596923828,-0.166015625,0.054221391677856445,-3.0625,-0.003689289093017578,0.0625,0.00391077995300293,-0.0625,0.0698399543762207,-4.0,-0.004400432109832764,0.0625,0.027127742767333984,-1.58203125,6.771087646484375e-05,0.0390625,-0.007623612880706787,0.2796519994735718,0.0,0.0,0.0,0.0
2025-04-10 10:54:24.907871,0.04021167755126953,-2.5,0.0020116567611694336,-0.25,-4.00543212890625e-05,0.125,0.045787811279296875,-2.8125,0.0029022693634033203,-0.3125,0.012209415435791016,-0.751953125,0.003559589385986328,-0.17578125,0.054233551025390625,-3.0625,-0.0037136077880859375,0.0625,0.00391077995300293,-0.0625,0.0698399543762207,-4.0,-0.004424393177032471,0.0625,0.027135372161865234,-1.58203125,7.581710815429688e-05,0.01953125,-0.00763702392578125,0.2796519994735718,0.0,0.0,0.0,0.0
2025-04-10 10:54:25.383151,0.04019975662231445,-2.5,0.0020236968994140625,-0.25,-2.7894973754882812e-05,0.1875,0.0457758903503418,-2.8125,0.0029022693634033203,-0.3125,0.012201786041259766,-0.76171875,0.003544330596923828,-0.17578125,0.054221391677856445,-3.0625,-0.0037136077880859375,0.0625,0.00391077995300293,-0.0625,0.0698399543762207,-4.0,-0.004400432109832764,0.125,0.027120113372802734,-1.58203125,5.245208740234375e-05,0.01953125,-0.007650434970855713,0.3355823755264282,0.0,0.0,0.0,0.0
2025-04-10 10:54:25.863472,0.04019975662231445,-2.5,0.0019637346267700195,-0.25,-2.7894973754882812e-05,0.1875,0.045787811279296875,-2.8125,0.0029022693634033203,-0.3125,0.012209415435791016,-0.751953125,0.003551959991455078,-0.17578125,0.054221391677856445,-3.0625,-0.003689289093017578,0.0625,0.00391077995300293,-0.0625,0.0698399543762207,-4.0,-0.00438845157623291,0.125,0.027120113372802734,-1.58203125,7.581710815429688e-05,0.0,-0.007650434970855713,0.3355823755264282,0.0,0.0,0.0,0.0
2025-04-10 10:54:26.338620,0.04019975662231445,-2.5625,0.0020236968994140625,-0.3125,-4.00543212890625e-05,0.125,0.04579973220825195,-2.8125,0.0029022693634033203,-0.3125,0.012209415435791016,-0.751953125,0.003544330596923828,-0.17578125,0.05420947074890137,-3.0625,-0.003689289093017578,0.0625,0.003922700881958008,-0.0625,0.06982803344726562,-4.0,-0.004400432109832764,0.0625,0.027127742767333984,-1.591796875,7.581710815429688e-05,0.0,-0.0076637864112854,0.3355823755264282,0.0,0.0,0.0,0.0
2025-04-10 10:54:26.813608,0.04022359848022461,-2.5,0.0020236968994140625,-0.25,-2.7894973754882812e-05,0.1875,0.045787811279296875,-2.875,0.0029022693634033203,-0.3125,0.012194156646728516,-0.751953125,0.003536701202392578,-0.1953125,0.054233551025390625,-3.0625,-0.0037012100219726562,0.0625,0.003922700881958008,-0.0625,0.0698399543762207,-4.0,-0.00438845157623291,0.0625,0.027127742767333984,-1.58203125,6.771087646484375e-05,0.01953125,-0.007650434970855713,0.2796519994735718,0.0,0.0,0.0,0.0
2025-04-10 10:54:27.288444,0.040187835693359375,-2.5,0.0019997358322143555,-0.3125,-4.00543212890625e-05,0.1875,0.045787811279296875,-2.8125,0.0029022693634033203,-0.3125,0.012201786041259766,-0.751953125,0.003536701202392578,-0.17578125,0.054221391677856445,-3.125,-0.0037012100219726562,0.0625,0.003934621810913086,-0.0625,0.0698399543762207,-4.0,-0.004400432109832764,0.0625,0.027127742767333984,-1.572265625,6.771087646484375e-05,0.01953125,-0.00763702392578125,0.3355823755264282,0.0,0.0,0.0,0.0
2025-04-10 10:54:27.764790,0.04021167755126953,-2.5,0.0020236968994140625,-0.25,-4.00543212890625e-05,0.125,0.045787811279296875,-2.8125,0.002890348434448242,-0.3125,0.012201786041259766,-0.751953125,0.003544330596923828,-0.17578125,0.054221391677856445,-3.0625,-0.0036773681640625,0.0625,0.003934621810913086,-0.0625,0.0698399543762207,-4.0,-0.00438845157623291,0.0625,0.027127742767333984,-1.591796875,6.008148193359375e-05,0.01953125,-0.00763702392578125,0.2796519994735718,0.0,0.0,0.0,0.0
2025-04-10 10:54:28.250168,0.04019975662231445,-2.5,0.0020116567611694336,-0.3125,-1.5974044799804688e-05,0.125,0.045787811279296875,-2.8125,0.002890348434448242,-0.3125,0.012201786041259766,-0.751953125,0.003536701202392578,-0.17578125,0.05420947074890137,-3.0625,-0.0037012100219726562,0.0625,0.00391077995300293,-0.0625,0.0698399543762207,-3.9375,-0.00438845157623291,0.0625,0.027127742767333984,-1.58203125,6.771087646484375e-05,0.01953125,-0.007623612880706787,0.2796519994735718,0.0,0.0,0.0,0.0
2025-04-10 10:54:28.724896,0.04021167755126953,-2.5,0.0019997358322143555,-0.3125,-6.389617919921875e-05,0.125,0.04579973220825195,-2.8125,0.002890348434448242,-0.3125,0.012201786041259766,-0.751953125,0.003544330596923828,-0.17578125,0.054221391677856445,-3.0625,-0.0037012100219726562,0.0625,0.003922700881958008,-0.0625,0.0698399543762207,-4.0,-0.00438845157623291,0.0625,0.027127742767333984,-1.58203125,6.008148193359375e-05,0.01953125,-0.0076637864112854,0.3355823755264282,0.0,0.0,0.0,0.0
2025-04-10 10:54:29.199978,0.04019975662231445,-2.5,0.0019876956939697266,-0.25,-5.1975250244140625e-05,0.125,0.04579973220825195,-2.8125,0.002878427505493164,-0.3125,0.012201786041259766,-0.751953125,0.003536701202392578,-0.1953125,0.054221391677856445,-3.0625,-0.003689289093017578,0.0625,0.00391077995300293,-0.0625,0.0698399543762207,-4.0,-0.004400432109832764,0.0625,0.027127742767333984,-1.58203125,6.008148193359375e-05,0.029296875,-0.0076637864112854,0.2796519994735718,0.0,0.0,0.0,0.0
2025-04-10 10:54:29.675117,0.04019975662231445,-2.5,0.0019876956939697266,-0.3125,-5.1975250244140625e-05,0.1875,0.04579973220825195,-2.875,0.0028662681579589844,-0.3125,0.012194156646728516,-0.732421875,0.003536701202392578,-0.17578125,0.054233551025390625,-3.0625,-0.0037012100219726562,0.0625,0.00391077995300293,-0.0625,0.06982803344726562,-4.0,-0.00438845157623291,0.0625,0.027127742767333984,-1.58203125,6.008148193359375e-05,0.029296875,-0.007650434970855713,0.3355823755264282,0.0,0.0,0.0,0.0
2025-04-10 10:54:30.150025,0.04019975662231445,-2.5,0.0019876956939697266,-0.3125,-4.00543212890625e-05,0.125,0.045787811279296875,-2.8125,0.0028662681579589844,-0.3125,0.012194156646728516,-0.751953125,0.003544330596923828,-0.17578125,0.05419754981994629,-3.0625,-0.0037012100219726562,0.0625,0.003886699676513672,-0.0625,0.06982803344726562,-4.0,-0.00438845157623291,0.0625,0.027120113372802734,-1.58203125,6.008148193359375e-05,0.01953125,-0.0076637864112854,0.3355823755264282,0.0,0.0,0.0,0.0
2025-04-10 10:54:30.625121,0.04019975662231445,-2.5,0.0019997358322143555,-0.3125,-4.00543212890625e-05,0.1875,0.045787811279296875,-2.8125,0.0028543472290039062,-0.3125,0.012194156646728516,-0.751953125,0.003567218780517578,-0.166015625,0.054221391677856445,-3.0625,-0.0037012100219726562,0.0625,0.003922700881958008,-0.0625,0.06981611251831055,-4.0,-0.00438845157623291,0.0625,0.027120113372802734,-1.58203125,6.008148193359375e-05,0.0390625,-0.007650434970855713,0.2796519994735718,0.0,0.0,0.0,0.0
2025-04-10 10:54:31.100030,0.04019975662231445,-2.5,0.0020116567611694336,-0.25,-4.0531158447265625e-06,0.125,0.0457758903503418,-2.8125,0.0028543472290039062,-0.3125,0.012186527252197266,-0.751953125,0.003536701202392578,-0.17578125,0.05419754981994629,-3.125,-0.0037012100219726562,0.0625,0.003922700881958008,-0.0625,0.06982803344726562,-4.0,-0.00438845157623291,0.0625,0.027120113372802734,-1.58203125,7.581710815429688e-05,0.029296875,-0.007650434970855713,0.3355823755264282,0.0,0.0,0.0,0.0
2025-04-10 10:54:31.575213,0.04019975662231445,-2.5,0.0020236968994140625,-0.3125,-6.389617919921875e-05,0.1875,0.045787811279296875,-2.875,0.0028543472290039062,-0.3125,0.012209415435791016,-0.732421875,0.003536701202392578,-0.17578125,0.05420947074890137,-3.125,-0.003689289093017578,0.125,0.00391077995300293,-0.0625,0.0698399543762207,-4.0,-0.004412412643432617,0.0625,0.027127742767333984,-1.58203125,6.008148193359375e-05,0.01953125,-0.00763702392578125,0.3355823755264282,0.0,0.0,0.0,0.0
2025-04-10 10:54:32.050130,0.04019975662231445,-2.5,0.0020236968994140625,-0.25,-5.1975250244140625e-05,0.1875,0.045787811279296875,-2.8125,0.0028543472290039062,-0.3125,0.012194156646728516,-0.732421875,0.003536701202392578,-0.17578125,0.05420947074890137,-3.0625,-0.0037012100219726562,0.0625,0.00391077995300293,-0.0625,0.0698399543762207,-4.0,-0.00438845157623291,0.0625,0.027127742767333984,-1.58203125,6.771087646484375e-05,0.01953125,-0.0076637864112854,0.3355823755264282,0.0,0.0,0.0,0.0
2025-04-10 10:54:32.525043,0.04019975662231445,-2.5,0.0020236968994140625,-0.25,-2.7894973754882812e-05,0.125,0.04579973220825195,-2.8125,0.002842426300048828,-0.3125,0.012194156646728516,-0.732421875,0.003544330596923828,-0.17578125,0.05420947074890137,-3.0625,-0.0036773681640625,0.0625,0.00389862060546875,-0.0625,0.06981611251831055,-4.0,-0.004424393177032471,0.0625,0.027127742767333984,-1.58203125,7.581710815429688e-05,0.029296875,-0.007690608501434326,0.2796519994735718,0.0,0.0,0.0,0.0
2025-04-10 10:54:33.000048,0.040187835693359375,-2.4375,0.0019997358322143555,-0.3125,-5.1975250244140625e-05,0.125,0.04579973220825195,-2.8125,0.0028662681579589844,-0.3125,0.012194156646728516,-0.732421875,0.003551959991455078,-0.17578125,0.05420947074890137,-3.0625,-0.0036773681640625,0.125,0.00389862060546875,-0.0625,0.0698399543762207,-4.0,-0.004400432109832764,0.125,0.027127742767333984,-1.58203125,6.771087646484375e-05,0.029296875,-0.007650434970855713,0.3355823755264282,0.0,0.0,0.0,0.0
2025-04-10 10:54:33.475170,0.04019975662231445,-2.5,0.0019876956939697266,-0.25,-4.00543212890625e-05,0.125,0.045787811279296875,-2.8125,0.002842426300048828,-0.3125,0.012194156646728516,-0.751953125,0.003544330596923828,-0.17578125,0.05420947074890137,-3.0,-0.0036773681640625,0.0625,0.00389862060546875,-0.0625,0.06982803344726562,-4.0,-0.004412412643432617,0.0625,0.027127742767333984,-1.58203125,6.008148193359375e-05,0.01953125,-0.00763702392578125,0.2796519994735718,0.0,0.0,0.0,0.0
2025-04-10 10:54:33.972779,0.040187835693359375,-2.5,0.0019876956939697266,-0.3125,-4.00543212890625e-05,0.125,0.0457758903503418,-2.8125,0.0028543472290039062,-0.3125,0.012194156646728516,-0.751953125,0.003536701202392578,-0.166015625,0.05419754981994629,-3.0625,-0.0037012100219726562,0.0625,0.003886699676513672,-0.0625,0.06981611251831055,-4.0,-0.004400432109832764,0.0625,0.027127742767333984,-1.58203125,5.245208740234375e-05,0.01953125,-0.007677197456359863,0.2796519994735718,0.0,0.0,0.0,0.0
2025-04-10 10:54:34.447843,0.04019975662231445,-2.5,0.0020116567611694336,-0.25,-1.5974044799804688e-05,0.125,0.045787811279296875,-2.8125,0.002842426300048828,-0.3125,0.012194156646728516,-0.751953125,0.003544330596923828,-0.166015625,0.05419754981994629,-3.0625,-0.0037012100219726562,0.0625,0.00391077995300293,-0.0625,0.06981611251831055,-3.9375,-0.004412412643432617,0.0625,0.027127742767333984,-1.58203125,6.008148193359375e-05,0.0390625,-0.0076637864112854,0.3355823755264282,0.0,0.0,0.0,0.0
2025-04-10 10:54:34.922882,0.040187835693359375,-2.5,0.0019997358322143555,-0.25,-2.7894973754882812e-05,0.1875,0.045787811279296875,-2.8125,0.00283050537109375,-0.3125,0.012194156646728516,-0.751953125,0.003544330596923828,-0.17578125,0.05417346954345703,-3.0625,-0.003689289093017578,0.0625,0.00391077995300293,-0.0625,0.06982803344726562,-4.0,-0.004412412643432617,0.0625,0.027120113372802734,-1.58203125,5.245208740234375e-05,0.01953125,-0.007690608501434326,0.3355823755264282,0.0,0.0,0.0,0.0
2025-04-10 10:54:35.397872,0.040187835693359375,-2.5,0.0019876956939697266,-0.3125,-4.0531158447265625e-06,0.125,0.0457758903503418,-2.8125,0.002842426300048828,-0.3125,0.012186527252197266,-0.751953125,0.003544330596923828,-0.17578125,0.05418562889099121,-3.0625,-0.0037136077880859375,0.0625,0.003922700881958008,-0.0625,0.06981611251831055,-4.0,-0.004400432109832764,0.0625,0.027127742767333984,-1.572265625,6.008148193359375e-05,0.01953125,-0.007690608501434326,0.3355823755264282,0.0,0.0,0.0,0.0
2025-04-10 10:54:35.872991,0.040187835693359375,-2.5,0.0019637346267700195,-0.3125,-2.7894973754882812e-05,0.125,0.045787811279296875,-2.8125,0.002842426300048828,-0.3125,0.012178421020507812,-0.76171875,0.003536701202392578,-0.17578125,0.05419754981994629,-3.0625,-0.003689289093017578,0.0625,0.00391077995300293,-0.0625,0.06980419158935547,-4.0,-0.004400432109832764,0.0625,0.027127742767333984,-1.58203125,6.008148193359375e-05,0.01953125,-0.007690608501434326,0.2796519994735718,0.0,0.0,0.0,0.0
2025-04-10 10:54:36.347908,0.040175676345825195,-2.5,0.0020116567611694336,-0.25,-1.5974044799804688e-05,0.1875,0.0457758903503418,-2.8125,0.0028543472290039062,-0.3125,0.012186527252197266,-0.76171875,0.003544330596923828,-0.166015625,0.05417346954345703,-3.0625,-0.0037012100219726562,0.0625,0.003922700881958008,-0.0625,0.06982803344726562,-4.0,-0.004412412643432617,0.0625,0.027120113372802734,-1.58203125,5.245208740234375e-05,0.029296875,-0.0076637864112854,0.2796519994735718,0.0,0.0,0.0,0.0
2025-04-10 10:54:36.822882,0.040175676345825195,-2.5,0.0019997358322143555,-0.25,-2.7894973754882812e-05,0.1875,0.045787811279296875,-2.8125,0.00283050537109375,-0.3125,0.012201786041259766,-0.732421875,0.003536701202392578,-0.17578125,0.05416154861450195,-3.0625,-0.0037012100219726562,0.0625,0.00389862060546875,-0.0625,0.06982803344726562,-4.0,-0.00438845157623291,0.0625,0.027120113372802734,-1.572265625,4.482269287109375e-05,0.01953125,-0.00763702392578125,0.3355823755264282,0.0,0.0,0.0,0.0
2025-04-10 10:54:37.297908,0.040187835693359375,-2.5,0.0019997358322143555,-0.25,-5.1975250244140625e-05,0.1875,0.045787811279296875,-2.8125,0.002842426300048828,-0.3125,0.012178421020507812,-0.751953125,0.003536701202392578,-0.17578125,0.054149627685546875,-3.0625,-0.0037012100219726562,0.0625,0.003922700881958008,-0.0625,0.06981611251831055,-4.0,-0.004400432109832764,0.0625,0.027120113372802734,-1.58203125,4.482269287109375e-05,0.029296875,-0.007677197456359863,0.2796519994735718,0.0,0.0,0.0,0.0
2025-04-10 10:54:37.772974,0.04019975662231445,-2.5,0.0020236968994140625,-0.25,-5.1975250244140625e-05,0.125,0.045787811279296875,-2.8125,0.0028543472290039062,-0.3125,0.012201786041259766,-0.76171875,0.003551959991455078,-0.166015625,0.05416154861450195,-3.0625,-0.0037012100219726562,0.125,0.003934621810913086,-0.0625,0.06982803344726562,-4.0,-0.00438845157623291,0.0625,0.027127742767333984,-1.572265625,5.245208740234375e-05,0.01953125,-0.007677197456359863,0.3355823755264282,0.0,0.0,0.0,0.0
2025-04-10 10:54:38.247917,0.040187835693359375,-2.5,0.0019997358322143555,-0.3125,-1.5974044799804688e-05,0.125,0.045787811279296875,-2.8125,0.00283050537109375,-0.3125,0.012178421020507812,-0.751953125,0.003536701202392578,-0.17578125,0.05416154861450195,-3.0625,-0.0037012100219726562,0.0625,0.003922700881958008,-0.0625,0.06982803344726562,-4.0,-0.004412412643432617,0.0625,0.027127742767333984,-1.58203125,5.245208740234375e-05,0.029296875,-0.007650434970855713,0.3355823755264282,0.0,0.0,0.0,0.0
2025-04-10 10:54:38.722880,0.04013991355895996,-2.5,0.0020116567611694336,-0.3125,-4.00543212890625e-05,0.125,0.045787811279296875,-2.8125,0.00283050537109375,-0.3125,0.012170791625976562,-0.76171875,0.003536701202392578,-0.166015625,0.05416154861450195,-3.0625,-0.0036773681640625,0.0625,0.003922700881958008,-0.0625,0.06982803344726562,-4.0,-0.004400432109832764,0.125,0.027120113372802734,-1.58203125,5.245208740234375e-05,0.01953125,-0.007650434970855713,0.3355823755264282,0.0,0.0,0.0,0.0
2025-04-10 10:54:39.197957,0.040175676345825195,-2.5,0.0019876956939697266,-0.25,-4.0531158447265625e-06,0.125,0.0457758903503418,-2.8125,0.0028543472290039062,-0.3125,0.012186527252197266,-0.732421875,0.003536701202392578,-0.17578125,0.05416154861450195,-3.0625,-0.0037012100219726562,0.0625,0.003886699676513672,-0.0625,0.06981611251831055,-4.0,-0.00438845157623291,0.0625,0.027135372161865234,-1.58203125,5.245208740234375e-05,0.01953125,-0.007690608501434326,0.3355823755264282,0.0,0.0,0.0,0.0
2025-04-10 10:54:39.672958,0.040175676345825195,-2.5,0.0019876956939697266,-0.25,-4.00543212890625e-05,0.125,0.04579973220825195,-2.8125,0.00283050537109375,-0.3125,0.012170791625976562,-0.751953125,0.0035288333892822266,-0.17578125,0.0541377067565918,-3.0625,-0.0037012100219726562,0.0625,0.003922700881958008,-0.0625,0.06981611251831055,-4.0,-0.004376471042633057,0.0625,0.027120113372802734,-1.58203125,5.245208740234375e-05,0.01953125,-0.007744133472442627,0.3355823755264282,0.0,0.0,0.0,0.0
2025-04-10 10:54:40.165131,0.040103912353515625,-2.5,0.0020116567611694336,-0.25,-1.5974044799804688e-05,0.125,0.045787811279296875,-2.75,0.00283050537109375,-0.3125,0.012178421020507812,-0.76171875,0.003536701202392578,-0.17578125,0.0540776252746582,-3.0625,-0.003689289093017578,0.0625,0.00391077995300293,-0.0625,0.06982803344726562,-4.0,-0.004376471042633057,0.0625,0.027120113372802734,-1.58203125,4.482269287109375e-05,0.029296875,-0.007677197456359863,0.3355823755264282,0.0,0.0,0.0,0.0
2025-04-10 10:54:40.639094,0.04007983207702637,-2.5,0.0020236968994140625,-0.25,-4.00543212890625e-05,0.125,0.04579973220825195,-2.8125,0.00283050537109375,-0.3125,0.012170791625976562,-0.751953125,0.003536701202392578,-0.17578125,0.05405378341674805,-3.0625,-0.0037012100219726562,0.0625,0.003922700881958008,-0.0625,0.06981611251831055,-4.0,-0.004400432109832764,0.0625,0.027120113372802734,-1.58203125,4.482269287109375e-05,0.029296875,-0.00763702392578125,0.2796519994735718,0.0,0.0,0.0,0.0
2025-04-10 10:54:41.114073,0.040019989013671875,-2.5,0.0019637346267700195,-0.25,-4.00543212890625e-05,0.1875,0.045787811279296875,-2.8125,0.0028183460235595703,-0.3125,0.012170791625976562,-0.732421875,0.003544330596923828,-0.166015625,0.05405378341674805,-3.0625,-0.003689289093017578,0.0625,0.003922700881958008,-0.0625,0.06982803344726562,-4.0,-0.004400432109832764,0.0625,0.027135372161865234,-1.58203125,4.482269287109375e-05,0.01953125,-0.007650434970855713,0.2796519994735718,0.0,0.0,0.0,0.0
2025-04-10 10:54:41.589161,0.03999590873718262,-2.5,0.0019876956939697266,-0.25,-4.00543212890625e-05,0.125,0.04579973220825195,-2.8125,0.00283050537109375,-0.3125,0.012170791625976562,-0.732421875,0.003544330596923828,-0.17578125,0.05402970314025879,-3.0625,-0.003689289093017578,0.0625,0.003934621810913086,-0.0625,0.06980419158935547,-4.0,-0.00438845157623291,0.0625,0.027120113372802734,-1.58203125,6.008148193359375e-05,0.01953125,-0.007690608501434326,0.2796519994735718,0.0,0.0,0.0,0.0
2025-04-10 10:54:42.072564,0.03999590873718262,-2.5,0.0020236968994140625,-0.3125,-4.00543212890625e-05,0.125,0.045787811279296875,-2.8125,0.0028543472290039062,-0.3125,0.012170791625976562,-0.751953125,0.003536701202392578,-0.17578125,0.05401778221130371,-3.0625,-0.0037012100219726562,0.0625,0.00391077995300293,-0.0625,0.06980419158935547,-4.0,-0.00438845157623291,0.0625,0.027127742767333984,-1.58203125,4.482269287109375e-05,0.01953125,-0.00763702392578125,0.2796519994735718,0.0,0.0,0.0,0.0
2025-04-10 10:54:42.547823,0.03997206687927246,-2.5625,0.0020116567611694336,-0.3125,-4.00543212890625e-05,0.125,0.0457758903503418,-2.8125,0.00283050537109375,-0.3125,0.012178421020507812,-0.751953125,0.0035288333892822266,-0.17578125,0.05401778221130371,-3.0625,-0.0037012100219726562,0.0625,0.003922700881958008,-0.0625,0.06980419158935547,-4.0,-0.00438845157623291,0.0625,0.027127742767333984,-1.572265625,5.245208740234375e-05,0.01953125,-0.007623612880706787,0.2796519994735718,0.0,0.0,0.0,0.0
2025-04-10 10:54:43.031338,0.03992414474487305,-2.5,0.0020116567611694336,-0.25,-1.5974044799804688e-05,0.1875,0.045787811279296875,-2.8125,0.0028183460235595703,-0.3125,0.012163162231445312,-0.732421875,0.003536701202392578,-0.17578125,0.05401778221130371,-3.0625,-0.003689289093017578,0.0625,0.00391077995300293,-0.0625,0.06980419158935547,-4.0,-0.004412412643432617,0.125,0.027127742767333984,-1.591796875,4.482269287109375e-05,0.01953125,-0.00763702392578125,0.22372159361839294,0.0,0.0,0.0,0.0
2025-04-10 10:54:43.506172,0.03991222381591797,-2.5,0.0020116567611694336,-0.25,-5.1975250244140625e-05,0.125,0.04579973220825195,-2.8125,0.00283050537109375,-0.3125,0.012178421020507812,-0.751953125,0.003544330596923828,-0.166015625,0.05400586128234863,-3.0625,-0.0037012100219726562,0.0625,0.003934621810913086,-0.0625,0.06980419158935547,-4.0,-0.004400432109832764,0.0625,0.027120113372802734,-1.58203125,5.245208740234375e-05,0.029296875,-0.007623612880706787,0.22372159361839294,0.0,0.0,0.0,0.0
2025-04-10 10:54:43.981251,0.03991222381591797,-2.5,0.0020236968994140625,-0.25,8.106231689453125e-06,0.125,0.04579973220825195,-2.8125,0.00283050537109375,-0.3125,0.012163162231445312,-0.732421875,0.003544330596923828,-0.17578125,0.05401778221130371,-3.0625,-0.0037012100219726562,0.0625,0.00391077995300293,-0.0625,0.06981611251831055,-4.0,-0.00438845157623291,0.125,0.027112483978271484,-1.58203125,4.482269287109375e-05,0.029296875,-0.0076102614402771,0.2796519994735718,0.0,0.0,0.0,0.0
2025-04-10 10:54:44.481097,0.03991222381591797,-2.5,0.0020236968994140625,-0.25,-1.5974044799804688e-05,0.125,0.0457758903503418,-2.8125,0.00283050537109375,-0.3125,0.012163162231445312,-0.732421875,0.003536701202392578,-0.166015625,0.05399370193481445,-3.0625,-0.0037012100219726562,0.0625,0.003922700881958008,-0.0625,0.06980419158935547,-4.0,-0.004412412643432617,0.125,0.027127742767333984,-1.58203125,4.482269287109375e-05,0.01953125,-0.007623612880706787,0.22372159361839294,0.0,0.0,0.0,0.0
2025-04-10 10:54:44.955263,0.03990006446838379,-2.5,0.0020236968994140625,-0.25,-5.1975250244140625e-05,0.125,0.045787811279296875,-2.8125,0.00283050537109375,-0.3125,0.012170791625976562,-0.751953125,0.003536701202392578,-0.166015625,0.053981781005859375,-3.0625,-0.0036773681640625,0.0625,0.00391077995300293,-0.0625,0.06980419158935547,-4.0,-0.004412412643432617,0.0625,0.027120113372802734,-1.58203125,5.245208740234375e-05,0.029296875,-0.007529854774475098,0.22372159361839294,0.0,0.0,0.0,0.0
2025-04-10 10:54:45.430257,0.03992414474487305,-2.5,0.0020236968994140625,-0.3125,-4.00543212890625e-05,0.125,0.0457758903503418,-2.8125,0.00283050537109375,-0.3125,0.012163162231445312,-0.751953125,0.003544330596923828,-0.166015625,0.053981781005859375,-3.0625,-0.0037012100219726562,0.0625,0.0038747787475585938,-0.0625,0.06980419158935547,-4.0,-0.004400432109832764,0.0625,0.027120113372802734,-1.58203125,6.771087646484375e-05,0.029296875,-0.0071950554847717285,0.22372159361839294,0.0,0.0,0.0,0.0
2025-04-10 10:54:45.907811,0.03991222381591797,-2.5,0.0020236968994140625,-0.25,-1.5974044799804688e-05,0.1875,0.045787811279296875,-2.8125,0.0028183460235595703,-0.3125,0.012163162231445312,-0.732421875,0.003536701202392578,-0.17578125,0.05399370193481445,-3.0625,-0.0037012100219726562,0.0625,0.00391077995300293,-0.0625,0.06981611251831055,-4.0,-0.004424393177032471,0.0625,0.027127742767333984,-1.58203125,4.482269287109375e-05,0.029296875,-0.0073691606521606445,0.22372159361839294,0.0,0.0,0.0,0.0
2025-04-10 10:54:46.388617,0.03990006446838379,-2.5,0.0020236968994140625,-0.25,-4.0531158447265625e-06,0.1875,0.045787811279296875,-2.8125,0.00283050537109375,-0.3125,0.012170791625976562,-0.751953125,0.003536701202392578,-0.17578125,0.0539698600769043,-3.0625,-0.0037012100219726562,0.0625,0.00389862060546875,-0.0625,0.06980419158935547,-4.0,-0.00438845157623291,0.0625,0.027112483978271484,-1.572265625,4.482269287109375e-05,0.01953125,-0.0071950554847717285,0.2796519994735718,0.0,0.0,0.0,0.0
2025-04-10 10:54:46.864670,0.03991222381591797,-2.5,0.0019997358322143555,-0.3125,-1.5974044799804688e-05,0.1875,0.0457758903503418,-2.875,0.002806425094604492,-0.3125,0.012170791625976562,-0.751953125,0.003544330596923828,-0.17578125,0.05399370193481445,-3.0625,-0.0037012100219726562,0.0625,0.003922700881958008,-0.0625,0.06980419158935547,-4.0,-0.004400432109832764,0.0625,0.027127742767333984,-1.58203125,4.482269287109375e-05,0.01953125,-0.007047772407531738,0.22372159361839294,0.0,0.0,0.0,0.0
2025-04-10 10:54:47.338774,0.03991222381591797,-2.5,0.0020236968994140625,-0.25,-2.7894973754882812e-05,0.125,0.04579973220825195,-2.8125,0.00283050537109375,-0.3125,0.012170791625976562,-0.751953125,0.003544330596923828,-0.17578125,0.05399370193481445,-3.0,-0.003689289093017578,0.125,0.003922700881958008,-0.0625,0.06980419158935547,-4.0,-0.00438845157623291,0.0625,0.027120113372802734,-1.58203125,4.482269287109375e-05,0.029296875,-0.006525516510009766,0.22372159361839294,0.0,0.0,0.0,0.0
2025-04-10 10:54:47.813498,0.03990006446838379,-2.5,0.0020116567611694336,-0.3125,-5.1975250244140625e-05,0.125,0.04579973220825195,-2.8125,0.00283050537109375,-0.3125,0.012170791625976562,-0.732421875,0.003536701202392578,-0.17578125,0.053981781005859375,-3.0625,-0.0036773681640625,0.0625,0.00391077995300293,-0.0625,0.06980419158935547,-4.0,-0.00438845157623291,0.0625,0.027127742767333984,-1.58203125,2.956390380859375e-05,0.0390625,-0.006217479705810547,0.1677911877632141,0.0,0.0,0.0,0.0
2025-04-10 10:54:48.292533,0.03991222381591797,-2.4375,0.0020236968994140625,-0.25,-4.00543212890625e-05,0.1875,0.045787811279296875,-2.8125,0.00283050537109375,-0.3125,0.012163162231445312,-0.732421875,0.003536701202392578,-0.17578125,0.05399370193481445,-3.0625,-0.0036773681640625,0.0625,0.003922700881958008,-0.0625,0.06981611251831055,-4.0,-0.004400432109832764,0.125,0.027120113372802734,-1.58203125,3.719329833984375e-05,0.029296875,-0.00649869441986084,0.1677911877632141,0.0,0.0,0.0,0.0
2025-04-10 10:54:48.767489,0.03988814353942871,-2.5,0.0019876956939697266,-0.25,-5.1975250244140625e-05,0.125,0.0457758903503418,-2.8125,0.00283050537109375,-0.3125,0.012170791625976562,-0.751953125,0.003536701202392578,-0.17578125,0.0539698600769043,-3.0625,-0.0036773681640625,0.0625,0.00391077995300293,-0.0625,0.06980419158935547,-4.0,-0.00438845157623291,0.0625,0.027120113372802734,-1.572265625,3.719329833984375e-05,0.01953125,-0.006766557693481445,0.22372159361839294,0.0,0.0,0.0,0.0
2025-04-10 10:54:49.242457,0.03991222381591797,-2.5,0.0019997358322143555,-0.25,-5.1975250244140625e-05,0.1875,0.045787811279296875,-2.8125,0.0028183460235595703,-0.3125,0.012163162231445312,-0.751953125,0.003536701202392578,-0.166015625,0.053981781005859375,-3.0625,-0.003665447235107422,0.0625,0.00391077995300293,-0.0625,0.06980419158935547,-4.0,-0.00438845157623291,0.0625,0.027120113372802734,-1.58203125,3.719329833984375e-05,0.029296875,-0.006779909133911133,0.22372159361839294,0.0,0.0,0.0,0.0
2025-04-10 10:54:49.717521,0.03988814353942871,-2.5,0.0020116567611694336,-0.25,-4.0531158447265625e-06,0.125,0.045787811279296875,-2.8125,0.002806425094604492,-0.3125,0.012178421020507812,-0.751953125,0.003536701202392578,-0.166015625,0.0539698600769043,-3.0625,-0.003665447235107422,0.0625,0.00391077995300293,-0.0625,0.06980419158935547,-4.0,-0.00438845157623291,0.0625,0.027127742767333984,-1.58203125,3.719329833984375e-05,0.01953125,-0.006605863571166992,0.22372159361839294,0.0,0.0,0.0,0.0
2025-04-10 10:54:50.198151,0.03991222381591797,-2.5,0.0019756555557250977,-0.25,-5.1975250244140625e-05,0.125,0.045787811279296875,-2.8125,0.00283050537109375,-0.3125,0.012163162231445312,-0.732421875,0.003536701202392578,-0.166015625,0.05394577980041504,-3.0625,-0.003665447235107422,0.0625,0.00389862060546875,-0.0625,0.06980419158935547,-4.0,-0.004412412643432617,0.0625,0.027127742767333984,-1.58203125,2.956390380859375e-05,0.01953125,-0.006672799587249756,0.22372159361839294,0.0,0.0,0.0,0.0
2025-04-10 10:54:50.673085,0.03990006446838379,-2.5,0.0020116567611694336,-0.25,-1.5974044799804688e-05,0.125,0.045787811279296875,-2.8125,0.00283050537109375,-0.3125,0.012170791625976562,-0.732421875,0.003544330596923828,-0.166015625,0.05394577980041504,-3.0625,-0.003665447235107422,0.0625,0.003922700881958008,-0.0625,0.06981611251831055,-4.0,-0.004412412643432617,0.0625,0.027127742767333984,-1.58203125,2.956390380859375e-05,0.01953125,-0.006753146648406982,0.22372159361839294,0.0,0.0,0.0,0.0
2025-04-10 10:54:51.148067,0.03991222381591797,-2.5,0.0020116567611694336,-0.25,-2.7894973754882812e-05,0.1875,0.0457758903503418,-2.8125,0.00283050537109375,-0.3125,0.012155532836914062,-0.732421875,0.003544330596923828,-0.17578125,0.05394577980041504,-3.0625,-0.003689289093017578,0.125,0.003886699676513672,-0.0625,0.06981611251831055,-4.0,-0.004412412643432617,0.125,0.027120113372802734,-1.572265625,3.719329833984375e-05,0.0390625,-0.0067397356033325195,0.22372159361839294,0.0,0.0,0.0,0.0
2025-04-10 10:54:51.624454,0.03991222381591797,-2.5,0.0020236968994140625,-0.3125,-5.1975250244140625e-05,0.125,0.045787811279296875,-2.8125,0.0028183460235595703,-0.3125,0.012163162231445312,-0.751953125,0.003536701202392578,-0.166015625,0.05394577980041504,-3.0625,-0.0036773681640625,0.0625,0.003886699676513672,-0.0625,0.06980419158935547,-4.0,-0.004400432109832764,0.0625,0.027112483978271484,-1.58203125,2.956390380859375e-05,0.01953125,-0.006766557693481445,0.22372159361839294,0.0,0.0,0.0,0.0
2025-04-10 10:54:52.098453,0.03990006446838379,-2.5,0.0019997358322143555,-0.3125,-4.0531158447265625e-06,0.125,0.0457758903503418,-2.8125,0.00283050537109375,-0.3125,0.012186527252197266,-0.732421875,0.003536701202392578,-0.17578125,0.05392193794250488,-3.0625,-0.003689289093017578,0.0625,0.003886699676513672,-0.0625,0.06980419158935547,-4.0,-0.00438845157623291,0.125,0.027120113372802734,-1.572265625,2.956390380859375e-05,0.01953125,-0.006699562072753906,0.22372159361839294,0.0,0.0,0.0,0.0
2025-04-10 10:54:52.573181,0.03991222381591797,-2.5,0.0020116567611694336,-0.25,-4.00543212890625e-05,0.125,0.04579973220825195,-2.8125,0.002806425094604492,-0.3125,0.012163162231445312,-0.732421875,0.003544330596923828,-0.17578125,0.05393385887145996,-3.0625,-0.0036773681640625,0.0625,0.0038747787475585938,-0.0625,0.06980419158935547,-4.0,-0.004400432109832764,0.0625,0.027127742767333984,-1.572265625,2.956390380859375e-05,0.0390625,-0.006699562072753906,0.22372159361839294,0.0,0.0,0.0,0.0
2025-04-10 10:54:53.048178,0.03990006446838379,-2.4375,0.0019876956939697266,-0.25,-4.0531158447265625e-06,0.125,0.0457758903503418,-2.8125,0.00283050537109375,-0.3125,0.012163162231445312,-0.751953125,0.003544330596923828,-0.17578125,0.0539097785949707,-3.0625,-0.0036535263061523438,0.125,0.003886699676513672,-0.0625,0.06980419158935547,-4.0,-0.004412412643432617,0.0625,0.027120113372802734,-1.58203125,2.956390380859375e-05,0.01953125,-0.006672799587249756,0.22372159361839294,0.0,0.0,0.0,0.0
2025-04-10 10:54:53.523131,0.03991222381591797,-2.5,0.0020236968994140625,-0.25,-4.0531158447265625e-06,0.125,0.0457758903503418,-2.8125,0.0028183460235595703,-0.3125,0.012163162231445312,-0.732421875,0.003536701202392578,-0.17578125,0.0539097785949707,-3.0625,-0.003665447235107422,0.0625,0.00391077995300293,-0.0625,0.06981611251831055,-4.0,-0.004412412643432617,0.0625,0.027120113372802734,-1.58203125,2.193450927734375e-05,0.01953125,-0.006686210632324219,0.22372159361839294,0.0,0.0,0.0,0.0
2025-04-10 10:54:53.998602,0.03991222381591797,-2.5,0.0020116567611694336,-0.3125,-4.0531158447265625e-06,0.125,0.045787811279296875,-2.8125,0.0028183460235595703,-0.3125,0.012170791625976562,-0.732421875,0.003536701202392578,-0.17578125,0.05392193794250488,-3.0625,-0.0036535263061523438,0.125,0.003886699676513672,-0.0625,0.06980419158935547,-4.0,-0.00438845157623291,0.125,0.027127742767333984,-1.58203125,2.956390380859375e-05,0.01953125,-0.006672799587249756,0.22372159361839294,0.0,0.0,0.0,0.0
2025-04-10 10:54:54.511218,0.03990006446838379,-2.5,0.0019997358322143555,-0.25,-4.00543212890625e-05,0.125,0.045787811279296875,-2.8125,0.0028183460235595703,-0.3125,0.012170791625976562,-0.732421875,0.003536701202392578,-0.17578125,0.0539097785949707,-3.0625,-0.0036773681640625,0.0625,0.00389862060546875,-0.0625,0.06980419158935547,-4.0,-0.004400432109832764,0.0625,0.027112483978271484,-1.58203125,3.719329833984375e-05,0.01953125,-0.006686210632324219,0.22372159361839294,0.0,0.0,0.0,0.0
2025-04-10 10:54:54.986252,0.03990006446838379,-2.5,0.0020116567611694336,-0.25,-1.5974044799804688e-05,0.125,0.045787811279296875,-2.8125,0.002806425094604492,-0.3125,0.012163162231445312,-0.732421875,0.003544330596923828,-0.17578125,0.0539097785949707,-3.0625,-0.003665447235107422,0.0625,0.003886699676513672,-0.0625,0.06980419158935547,-4.0,-0.004400432109832764,0.0625,0.027120113372802734,-1.58203125,4.482269287109375e-05,0.029296875,-0.006712973117828369,0.22372159361839294,0.0,0.0,0.0,0.0
2025-04-10 10:54:55.461334,0.03990006446838379,-2.5,0.0019997358322143555,-0.25,-2.7894973754882812e-05,0.125,0.04579973220825195,-2.8125,0.0028183460235595703,-0.3125,0.012163162231445312,-0.732421875,0.003536701202392578,-0.17578125,0.0539097785949707,-3.0625,-0.0036535263061523438,0.125,0.003886699676513672,-0.0625,0.06980419158935547,-4.0,-0.00438845157623291,0.0625,0.027127742767333984,-1.591796875,2.956390380859375e-05,0.01953125,-0.006699562072753906,0.22372159361839294,0.0,0.0,0.0,0.0
2025-04-10 10:54:55.936181,0.03991222381591797,-2.5,0.0020236968994140625,-0.25,-1.5974044799804688e-05,0.1875,0.0457758903503418,-2.8125,0.002806425094604492,-0.3125,0.012170791625976562,-0.751953125,0.003536701202392578,-0.17578125,0.0539097785949707,-3.0625,-0.003665447235107422,0.0625,0.00391077995300293,-0.0625,0.06980419158935547,-4.0,-0.00438845157623291,0.125,0.027120113372802734,-1.58203125,2.956390380859375e-05,0.01953125,-0.006712973117828369,0.1677911877632141,0.0,0.0,0.0,0.0
2025-04-10 10:54:56.411197,0.03991222381591797,-2.5,0.0019997358322143555,-0.25,-4.00543212890625e-05,0.125,0.04576373100280762,-2.8125,0.002806425094604492,-0.3125,0.012170791625976562,-0.732421875,0.003544330596923828,-0.17578125,0.0539097785949707,-3.0625,-0.0036773681640625,0.0625,0.00389862060546875,-0.0625,0.06980419158935547,-4.0,-0.004400432109832764,0.0625,0.027120113372802734,-1.58203125,6.67572021484375e-06,0.029296875,-0.006766557693481445,0.22372159361839294,0.0,0.0,0.0,0.0
2025-04-10 10:54:56.886425,0.03991222381591797,-2.5,0.0019997358322143555,-0.25,-1.5974044799804688e-05,0.125,0.045787811279296875,-2.8125,0.002806425094604492,-0.3125,0.012163162231445312,-0.732421875,0.0035288333892822266,-0.17578125,0.0539097785949707,-3.0625,-0.0036535263061523438,0.0625,0.00389862060546875,-0.0625,0.06980419158935547,-4.0,-0.00438845157623291,0.0625,0.027127742767333984,-1.58203125,2.193450927734375e-05,0.01953125,-0.006766557693481445,0.22372159361839294,0.0,0.0,0.0,0.0
2025-04-10 10:54:57.361512,0.03992414474487305,-2.4375,0.0020116567611694336,-0.25,-4.00543212890625e-05,0.125,0.045787811279296875,-2.8125,0.002794504165649414,-0.3125,0.012155532836914062,-0.732421875,0.003536701202392578,-0.17578125,0.0539097785949707,-3.0625,-0.003665447235107422,0.0625,0.003922700881958008,-0.0625,0.06980419158935547,-4.0,-0.004400432109832764,0.0625,0.027112483978271484,-1.572265625,2.193450927734375e-05,0.029296875,-0.006766557693481445,0.22372159361839294,0.0,0.0,0.0,0.0
2025-04-10 10:54:57.836231,0.03990006446838379,-2.5,0.0019876956939697266,-0.25,-1.5974044799804688e-05,0.125,0.045787811279296875,-2.8125,0.002806425094604492,-0.3125,0.012170791625976562,-0.732421875,0.003536701202392578,-0.17578125,0.0539097785949707,-3.0625,-0.003665447235107422,0.0625,0.003886699676513672,-0.0625,0.06980419158935547,-4.0,-0.004412412643432617,0.125,0.027112483978271484,-1.58203125,3.719329833984375e-05,0.029296875,-0.006779909133911133,0.22372159361839294,0.0,0.0,0.0,0.0
2025-04-10 10:54:58.338025,0.03990006446838379,-2.5,0.0019876956939697266,-0.25,8.106231689453125e-06,0.1875,0.0457758903503418,-2.8125,0.002806425094604492,-0.3125,0.012155532836914062,-0.751953125,0.003536701202392578,-0.17578125,0.0539097785949707,-3.0625,-0.003665447235107422,0.0625,0.00391077995300293,-0.0625,0.06980419158935547,-3.9375,-0.004400432109832764,0.0625,0.027120113372802734,-1.572265625,2.956390380859375e-05,0.0390625,-0.006779909133911133,0.22372159361839294,0.0,0.0,0.0,0.0
2025-04-10 10:54:58.812958,0.03990006446838379,-2.5,0.0020116567611694336,-0.3125,-2.7894973754882812e-05,0.125,0.04579973220825195,-2.8125,0.002794504165649414,-0.3125,0.012163162231445312,-0.732421875,0.003544330596923828,-0.17578125,0.0539097785949707,-3.0625,-0.0036535263061523438,0.0625,0.00391077995300293,-0.0625,0.06980419158935547,-4.0,-0.004412412643432617,0.0625,0.027120113372802734,-1.58203125,2.956390380859375e-05,0.01953125,-0.006753146648406982,0.22372159361839294,0.0,0.0,0.0,0.0
2025-04-10 10:54:59.287969,0.03988814353942871,-2.5,0.0019876956939697266,-0.25,-4.0531158447265625e-06,0.1875,0.04579973220825195,-2.8125,0.0028183460235595703,-0.3125,0.012170791625976562,-0.732421875,0.003536701202392578,-0.17578125,0.0539097785949707,-3.0625,-0.0036535263061523438,0.0625,0.00389862060546875,-0.0625,0.06980419158935547,-4.0,-0.00438845157623291,0.0625,0.027120113372802734,-1.58203125,2.956390380859375e-05,0.0390625,-0.006726384162902832,0.1677911877632141,0.0,0.0,0.0,0.0
2025-04-10 10:54:59.762810,0.03990006446838379,-2.5,0.0019876956939697266,-0.25,-2.7894973754882812e-05,0.125,0.045787811279296875,-2.875,0.0028183460235595703,-0.3125,0.012163162231445312,-0.732421875,0.003536701202392578,-0.166015625,0.0539097785949707,-3.0625,-0.0036535263061523438,0.0625,0.003922700881958008,-0.0625,0.06980419158935547,-4.0,-0.004400432109832764,0.125,0.027112483978271484,-1.58203125,2.956390380859375e-05,0.029296875,-0.006686210632324219,0.22372159361839294,0.0,0.0,0.0,0.0
2025-04-10 10:55:00.237868,0.03991222381591797,-2.4375,0.0019997358322143555,-0.25,-4.00543212890625e-05,0.125,0.04576373100280762,-2.8125,0.0028183460235595703,-0.3125,0.012178421020507812,-0.751953125,0.003536701202392578,-0.166015625,0.0539097785949707,-3.0625,-0.003665447235107422,0.125,0.003922700881958008,-0.0625,0.06980419158935547,-4.0,-0.00438845157623291,0.125,0.027127742767333984,-1.58203125,2.193450927734375e-05,0.01953125,-0.006659388542175293,0.22372159361839294,0.0,0.0,0.0,0.0
2025-04-10 10:55:00.712696,0.03990006446838379,-2.5,0.0019876956939697266,-0.25,-6.389617919921875e-05,0.125,0.045787811279296875,-2.8125,0.002806425094604492,-0.3125,0.012163162231445312,-0.751953125,0.003544330596923828,-0.17578125,0.0539097785949707,-3.0,-0.0036535263061523438,0.125,0.00391077995300293,-0.0625,0.06980419158935547,-4.0,-0.00438845157623291,0.0625,0.027120113372802734,-1.58203125,2.193450927734375e-05,0.01953125,-0.00661921501159668,0.22372159361839294,0.0,0.0,0.0,0.0
2025-04-10 10:55:01.187864,0.03990006446838379,-2.4375,0.0019997358322143555,-0.25,-2.7894973754882812e-05,0.125,0.0457758903503418,-2.75,0.0027823448181152344,-0.3125,0.012155532836914062,-0.732421875,0.003536701202392578,-0.166015625,0.0539097785949707,-3.0625,-0.0036535263061523438,0.0625,0.003922700881958008,-0.0625,0.06980419158935547,-4.0,-0.00438845157623291,0.0625,0.027112483978271484,-1.572265625,2.193450927734375e-05,0.029296875,-0.006659388542175293,0.22372159361839294,0.0,0.0,0.0,0.0
2025-04-10 10:55:01.662903,0.03991222381591797,-2.5,0.0020116567611694336,-0.3125,-2.7894973754882812e-05,0.125,0.045787811279296875,-2.8125,0.0027823448181152344,-0.3125,0.012163162231445312,-0.751953125,0.003544330596923828,-0.166015625,0.0539097785949707,-3.0625,-0.0036773681640625,0.0625,0.003934621810913086,-0.0625,0.06980419158935547,-4.0,-0.004412412643432617,0.0625,0.027127742767333984,-1.572265625,1.430511474609375e-05,0.01953125,-0.006699562072753906,0.22372159361839294,0.0,0.0,0.0,0.0
2025-04-10 10:55:02.154408,0.03991222381591797,-2.4375,0.0020356178283691406,-0.3125,-4.00543212890625e-05,0.1875,0.045787811279296875,-2.8125,0.0027704238891601562,-0.3125,0.012163162231445312,-0.732421875,0.003536701202392578,-0.1953125,0.0539097785949707,-3.0625,-0.0036535263061523438,0.0625,0.00389862060546875,-0.0625,0.06980419158935547,-4.0,-0.004400432109832764,0.0625,0.027120113372802734,-1.58203125,1.430511474609375e-05,0.029296875,-0.006672799587249756,0.22372159361839294,0.0,0.0,0.0,0.0
2025-04-10 10:55:02.629069,0.03990006446838379,-2.5,0.0020236968994140625,-0.25,-4.00543212890625e-05,0.125,0.0457758903503418,-2.8125,0.0027704238891601562,-0.3125,0.012163162231445312,-0.732421875,0.003536701202392578,-0.1953125,0.0539097785949707,-3.0625,-0.0036773681640625,0.0625,0.00391077995300293,-0.0625,0.06980419158935547,-4.0,-0.004400432109832764,0.0625,0.027120113372802734,-1.58203125,2.193450927734375e-05,0.01953125,-0.006659388542175293,0.22372159361839294,0.0,0.0,0.0,0.0
2025-04-10 10:55:03.104426,0.03990006446838379,-2.5,0.0019876956939697266,-0.25,-1.5974044799804688e-05,0.1875,0.045787811279296875,-2.8125,0.0027704238891601562,-0.3125,0.012170791625976562,-0.732421875,0.003544330596923828,-0.17578125,0.0539097785949707,-3.0625,-0.003665447235107422,0.0625,0.0038628578186035156,-0.0625,0.06980419158935547,-4.0,-0.00438845157623291,0.0625,0.027127742767333984,-1.58203125,1.430511474609375e-05,0.01953125,-0.006672799587249756,0.22372159361839294,0.0,0.0,0.0,0.0
2025-04-10 10:55:03.579087,0.03990006446838379,-2.5,0.0020116567611694336,-0.3125,-2.7894973754882812e-05,0.125,0.0457758903503418,-2.8125,0.0027704238891601562,-0.3125,0.012163162231445312,-0.732421875,0.0035288333892822266,-0.17578125,0.0539097785949707,-3.0625,-0.0036535263061523438,0.0625,0.00391077995300293,-0.0625,0.06979179382324219,-4.0625,-0.00438845157623291,0.0625,0.027120113372802734,-1.58203125,2.193450927734375e-05,0.029296875,-0.0066460371017456055,0.22372159361839294,0.0,0.0,0.0,0.0
2025-04-10 10:55:04.054266,0.03988814353942871,-2.5,0.0019876956939697266,-0.3125,-4.00543212890625e-05,0.1875,0.04576373100280762,-2.875,0.0027704238891601562,-0.3125,0.012170791625976562,-0.732421875,0.003536701202392578,-0.17578125,0.05388593673706055,-3.0625,-0.0036535263061523438,0.0625,0.00389862060546875,-0.0625,0.06980419158935547,-4.0,-0.004376471042633057,0.0625,0.027120113372802734,-1.591796875,1.430511474609375e-05,0.029296875,-0.006699562072753906,0.1677911877632141,0.0,0.0,0.0,0.0
2025-04-10 10:55:04.529294,0.03990006446838379,-2.5,0.0020116567611694336,-0.25,-4.00543212890625e-05,0.125,0.0457758903503418,-2.8125,0.0027704238891601562,-0.3125,0.012170791625976562,-0.732421875,0.0035288333892822266,-0.166015625,0.05388593673706055,-3.0625,-0.0036535263061523438,0.0625,0.00389862060546875,-0.0625,0.06980419158935547,-4.0,-0.004376471042633057,0.0625,0.027120113372802734,-1.572265625,2.193450927734375e-05,0.029296875,-0.006806731224060059,0.22372159361839294,0.0,0.0,0.0,0.0
2025-04-10 10:55:05.005070,0.03991222381591797,-2.5,0.0020116567611694336,-0.25,-2.7894973754882812e-05,0.125,0.045787811279296875,-2.8125,0.002794504165649414,-0.3125,0.012163162231445312,-0.751953125,0.003544330596923828,-0.1953125,0.05388593673706055,-3.0625,-0.0036535263061523438,0.0625,0.00391077995300293,-0.0625,0.06977987289428711,-4.0,-0.00438845157623291,0.0625,0.027120113372802734,-1.572265625,2.193450927734375e-05,0.029296875,-0.006779909133911133,0.22372159361839294,0.0,0.0,0.0,0.0
2025-04-10 10:55:05.479355,0.03988814353942871,-2.5,0.0019997358322143555,-0.25,-2.7894973754882812e-05,0.125,0.04576373100280762,-2.8125,0.002758502960205078,-0.3125,0.012170791625976562,-0.732421875,0.003536701202392578,-0.17578125,0.05388593673706055,-3.0625,-0.0036773681640625,0.0625,0.00391077995300293,-0.0625,0.06980419158935547,-4.0,-0.00438845157623291,0.0625,0.027127742767333984,-1.591796875,6.67572021484375e-06,0.01953125,-0.006779909133911133,0.22372159361839294,0.0,0.0,0.0,0.0
2025-04-10 10:55:05.954166,0.03991222381591797,-2.5,0.0019876956939697266,-0.25,-5.1975250244140625e-05,0.1875,0.0457758903503418,-2.8125,0.0027704238891601562,-0.3125,0.012163162231445312,-0.732421875,0.003536701202392578,-0.17578125,0.0539097785949707,-3.0625,-0.003665447235107422,0.0625,0.003934621810913086,-0.0625,0.06980419158935547,-4.0,-0.004376471042633057,0.0625,0.027127742767333984,-1.58203125,1.430511474609375e-05,0.029296875,-0.006779909133911133,0.22372159361839294,0.0,0.0,0.0,0.0
2025-04-10 10:55:06.456656,0.03988814353942871,-2.5,0.0019997358322143555,-0.25,2.002716064453125e-05,0.125,0.0457758903503418,-2.8125,0.0027704238891601562,-0.3125,0.012163162231445312,-0.732421875,0.003536701202392578,-0.17578125,0.05388593673706055,-3.0625,-0.003665447235107422,0.0625,0.00389862060546875,-0.0625,0.06980419158935547,-4.0,-0.004376471042633057,0.125,0.027120113372802734,-1.58203125,1.430511474609375e-05,0.01953125,-0.006766557693481445,0.22372159361839294,0.0,0.0,0.0,0.0
2025-04-10 10:55:06.931725,0.03988814353942871,-2.5,0.0020116567611694336,-0.3125,-5.1975250244140625e-05,0.125,0.045787811279296875,-2.8125,0.0027704238891601562,-0.3125,0.012163162231445312,-0.732421875,0.003536701202392578,-0.166015625,0.0539097785949707,-3.0625,-0.0036535263061523438,0.0625,0.00389862060546875,-0.0625,0.06980419158935547,-4.0,-0.00438845157623291,0.0625,0.027120113372802734,-1.58203125,1.430511474609375e-05,0.0390625,-0.006779909133911133,0.22372159361839294,0.0,0.0,0.0,0.0
2025-04-10 10:55:07.406724,0.03988814353942871,-2.5,0.0019876956939697266,-0.3125,-5.1975250244140625e-05,0.125,0.0457758903503418,-2.8125,0.0027704238891601562,-0.3125,0.012163162231445312,-0.732421875,0.0035288333892822266,-0.17578125,0.05388593673706055,-3.0625,-0.0036535263061523438,0.125,0.00391077995300293,-0.0625,0.06980419158935547,-4.0,-0.00438845157623291,0.0625,0.027120113372802734,-1.572265625,1.430511474609375e-05,0.0390625,-0.006766557693481445,0.22372159361839294,0.0,0.0,0.0,0.0
2025-04-10 10:55:07.881716,0.03990006446838379,-2.5,0.0019997358322143555,-0.25,-4.00543212890625e-05,0.125,0.045787811279296875,-2.8125,0.0027704238891601562,-0.3125,0.012170791625976562,-0.732421875,0.003544330596923828,-0.17578125,0.05388593673706055,-3.0625,-0.003665447235107422,0.125,0.00391077995300293,-0.0625,0.06980419158935547,-4.0,-0.00438845157623291,0.0625,0.027120113372802734,-1.572265625,2.193450927734375e-05,0.01953125,-0.006779909133911133,0.22372159361839294,0.0,0.0,0.0,0.0
2025-04-10 10:55:08.356747,0.03990006446838379,-2.5,0.0020236968994140625,-0.25,-2.7894973754882812e-05,0.1875,0.045787811279296875,-2.8125,0.0027704238891601562,-0.3125,0.012170791625976562,-0.751953125,0.0035288333892822266,-0.17578125,0.05388593673706055,-3.0625,-0.0036535263061523438,0.0625,0.003922700881958008,-0.0625,0.06980419158935547,-4.0,-0.00438845157623291,0.0625,0.027120113372802734,-1.572265625,6.67572021484375e-06,0.01953125,-0.006766557693481445,0.22372159361839294,0.0,0.0,0.0,0.0
2025-04-10 10:55:08.831879,0.03990006446838379,-2.4375,0.0019756555557250977,-0.3125,-6.389617919921875e-05,0.1875,0.045787811279296875,-2.8125,0.0027704238891601562,-0.3125,0.012163162231445312,-0.751953125,0.0035288333892822266,-0.17578125,0.0539097785949707,-3.0625,-0.003665447235107422,0.0625,0.0038747787475585938,-0.0625,0.06980419158935547,-4.0,-0.00438845157623291,0.0625,0.027120113372802734,-1.58203125,2.193450927734375e-05,0.01953125,-0.006793320178985596,0.22372159361839294,0.0,0.0,0.0,0.0
2025-04-10 10:55:09.306777,0.12171649932861328,-1.4375,0.0021674633026123047,-0.125,-0.00011181831359863281,0.0625,0.17727875709533691,-1.6875,0.0004215240478515625,-0.375,0.024036407470703125,-0.3125,0.003927707672119141,0.01953125,0.14972376823425293,-1.5,-0.0038213729858398438,-0.125,0.007230281829833984,0.125,0.2892589569091797,-3.0625,-0.01366424560546875,-0.375,0.08396196365356445,-0.927734375,-3.9577484130859375e-05,0.0390625,-0.007596850395202637,0.0,0.0,0.0,0.0,0.0
2025-04-10 10:55:09.781686,0.18663501739501953,-0.6875,0.0020236968994140625,-0.1875,-0.00029158592224121094,0.125,0.3615601062774658,-1.4375,-0.3456587791442871,0.0625,0.03640031814575195,-0.126953125,0.004280567169189453,0.01953125,0.25830078125,0.3125,-0.003581523895263672,-0.1875,0.006667137145996094,-0.0625,0.5613970756530762,-1.4375,-0.35260212421417236,-0.0625,0.15490055084228516,-0.439453125,0.0007200241088867188,0.01953125,-0.012685775756835938,-0.1677911877632141,0.0,0.0,0.0,0.0
2025-04-10 10:55:10.256782,0.17487835884094238,-1.4375,0.0019277334213256836,-0.1875,-0.000255584716796875,0.125,0.3460047245025635,-2.1875,-1.0913413763046265,0.0,0.03620100021362305,-0.29296875,0.005293130874633789,-0.01953125,0.12227988243103027,-0.875,-0.06515645980834961,0.375,-0.024276256561279297,0.6875,0.411653995513916,-2.1875,-1.0848143100738525,-0.125,0.12962818145751953,-0.5078125,0.02210378646850586,-0.390625,-0.011909008026123047,-0.1677911877632141,0.0,0.0,0.0,0.0
2025-04-10 10:55:10.731831,0.12337017059326172,-1.6875,0.0020236968994140625,-0.1875,-7.581710815429688e-05,0.125,0.19473981857299805,-2.5625,-1.4339823722839355,-0.375,0.027019977569580078,-0.380859375,0.005937337875366211,-0.068359375,0.12027859687805176,-1.5625,-0.025440692901611328,0.25,-0.022658348083496094,0.4375,0.25232362747192383,-3.0,-1.4248666763305664,-0.5625,0.04268980026245117,-0.29296875,0.03659963607788086,-0.498046875,-0.010810911655426025,-0.11186079680919647,0.0,0.0,0.0,0.0
2025-04-10 10:55:11.206790,0.0908210277557373,-2.1875,0.0019876956939697266,-0.1875,-6.389617919921875e-05,0.125,0.12152814865112305,-2.875,-1.4693357944488525,-0.3125,0.011020660400390625,-0.2734375,0.005952596664428711,-0.1171875,0.11600017547607422,-2.3125,-0.024650096893310547,0.4375,-0.011165380477905273,0.375,0.16747522354125977,-3.4375,-1.468501329421997,-0.375,0.015691757202148438,-0.263671875,0.03629302978515625,-0.78125,-0.0107840895652771,0.11186079680919647,0.0,0.0,0.0,0.0
2025-04-10 10:55:11.681676,0.07779431343078613,-2.4375,0.0019876956939697266,-0.1875,-4.00543212890625e-05,0.125,0.08523988723754883,-2.6875,-1.472583532333374,-0.375,0.01002359390258789,-0.33203125,0.005952596664428711,-0.15625,0.09922218322753906,-2.8125,-0.01707601547241211,0.3125,-0.0073664188385009766,0.3125,0.1285386085510254,-3.9375,-1.4784481525421143,-0.1875,0.010399818420410156,-0.29296875,0.03403806686401367,-1.03515625,-0.010864436626434326,0.1677911877632141,0.0,0.0,0.0,0.0
2025-04-10 10:55:12.156796,0.0570375919342041,-2.4375,0.0019637346267700195,-0.1875,-2.7894973754882812e-05,0.1875,0.06568169593811035,-2.75,-1.474237322807312,-0.3125,0.008543014526367188,-0.361328125,0.005952596664428711,-0.205078125,0.08173727989196777,-3.125,-0.007668018341064453,0.125,-0.002368927001953125,0.1875,0.10187387466430664,-3.9375,-1.478759765625,-0.1875,0.008911609649658203,-0.3125,0.027863502502441406,-1.083984375,-0.01063680648803711,0.22372159361839294,0.0,0.0,0.0,0.0
2025-04-10 10:55:12.631803,0.05442500114440918,-2.75,0.0019516944885253906,-0.25,-2.7894973754882812e-05,0.125,0.052918434143066406,-2.6875,-1.4759750366210938,-0.3125,0.004792690277099609,-0.244140625,0.005914211273193359,-0.25390625,0.07485842704772949,-3.4375,-0.005654811859130859,0.0625,-0.0017697811126708984,0.25,0.09191465377807617,-4.1875,-1.4787957668304443,-0.1875,0.007822513580322266,-0.3515625,0.022862911224365234,-1.025390625,-0.010248422622680664,0.3355823755264282,0.0,0.0,0.0,0.0
2025-04-10 10:55:13.107087,0.046347618103027344,-2.625,0.0019637346267700195,-0.1875,-6.389617919921875e-05,0.125,0.04879593849182129,-2.75,-1.4773892164230347,-0.3125,0.0042171478271484375,-0.244140625,0.005837678909301758,-0.29296875,0.06483960151672363,-3.3125,-0.005031585693359375,0.125,-0.0014221668243408203,0.1875,0.07766580581665039,-4.0,-1.4788196086883545,-0.1875,0.007132530212402344,-0.361328125,0.019165992736816406,-0.99609375,-0.009900271892547607,0.3355823755264282,0.0,0.0,0.0,0.0
2025-04-10 10:55:13.604722,0.04582023620605469,-2.8125,0.0019637346267700195,-0.1875,8.106231689453125e-06,0.125,0.046518802642822266,-2.875,-1.4780004024505615,-0.25,0.003856658935546875,-0.244140625,0.005806922912597656,-0.302734375,0.05721759796142578,-3.1875,-0.003605365753173828,0.0625,-0.0006673336029052734,0.1875,0.07345914840698242,-4.125,-1.4788196086883545,-0.1875,0.006564617156982422,-0.341796875,0.018007755279541016,-1.005859375,-0.008105754852294922,0.3355823755264282,0.0,0.0,0.0,0.0
2025-04-10 10:55:14.079605,0.04295611381530762,-2.625,0.0019516944885253906,-0.25,-4.00543212890625e-05,0.125,0.046027421951293945,-2.875,-1.4780603647232056,-0.25,0.0036802291870117188,-0.234375,0.005791664123535156,-0.302734375,0.0541377067565918,-3.0625,-0.003413677215576172,0.0625,-0.0006551742553710938,0.1875,0.06995964050292969,-4.0,-1.4788196086883545,-0.1875,0.006135463714599609,-0.322265625,0.017609119415283203,-1.025390625,-0.007985234260559082,0.3355823755264282,0.0,0.0,0.0,0.0
2025-04-10 10:55:14.579628,0.04019975662231445,-2.5,0.0019516944885253906,-0.1875,-2.7894973754882812e-05,0.1875,0.0457758903503418,-2.8125,-1.4780603647232056,-0.1875,0.0035271644592285156,-0.234375,0.005783796310424805,-0.3125,0.05400586128234863,-3.0625,-0.0033659934997558594,0.0625,-0.0006313323974609375,0.1875,0.06980419158935547,-4.0,-1.4788556098937988,-0.1875,0.006058692932128906,-0.322265625,0.017547607421875,-1.005859375,-0.008078932762145996,0.2796519994735718,0.0,0.0,0.0,0.0
2025-04-10 10:55:15.054690,0.040187835693359375,-2.5,0.0019516944885253906,-0.1875,-4.00543212890625e-05,0.125,0.045787811279296875,-2.8125,-1.4780603647232056,-0.1875,0.0034656524658203125,-0.234375,0.005768537521362305,-0.3125,0.05393385887145996,-3.0625,-0.0033416748046875,0.0625,-0.0006313323974609375,0.1875,0.06975603103637695,-3.9375,-1.4788436889648438,-0.1875,0.006027698516845703,-0.322265625,0.01752471923828125,-1.005859375,-0.00799858570098877,0.2796519994735718,0.0,0.0,0.0,0.0
2025-04-10 10:55:15.529497,0.04013991355895996,-2.5,0.0019516944885253906,-0.25,8.106231689453125e-06,0.125,0.04576373100280762,-2.8125,-1.4780603647232056,-0.1875,0.0034351348876953125,-0.224609375,0.005783796310424805,-0.302734375,0.05386185646057129,-3.0625,-0.0033178329467773438,0.0625,-0.0006432533264160156,0.125,0.06970834732055664,-4.0,-1.4788196086883545,-0.1875,0.005989551544189453,-0.322265625,0.017493724822998047,-0.99609375,-0.007945001125335693,0.2796519994735718,0.0,0.0,0.0,0.0
2025-04-10 10:55:16.004465,0.040103912353515625,-2.5,0.0019277334213256836,-0.1875,-2.7894973754882812e-05,0.125,0.0457758903503418,-2.8125,-1.4780722856521606,-0.1875,0.0033965110778808594,-0.224609375,0.005760908126831055,-0.302734375,0.052747488021850586,-3.0,-0.0031981468200683594,0.0625,0.002700328826904297,-0.0625,0.06914472579956055,-3.9375,-1.4788196086883545,-0.1875,0.0033512115478515625,-0.166015625,0.016811370849609375,-0.95703125,-0.0076637864112854,0.2796519994735718,0.0,0.0,0.0,0.0
2025-04-10 10:55:16.490974,0.040103912353515625,-2.5,0.0019516944885253906,-0.1875,-4.00543212890625e-05,0.125,0.0457758903503418,-2.8125,-1.4780722856521606,-0.25,0.0033812522888183594,-0.234375,0.005768537521362305,-0.302734375,0.052579641342163086,-3.0,-0.003174304962158203,0.0,0.0026404857635498047,-0.0625,0.06787443161010742,-3.875,-1.4788196086883545,-0.1875,0.0034122467041015625,-0.17578125,0.016320228576660156,-0.9375,-0.00775754451751709,0.2796519994735718,0.0,0.0,0.0,0.0
2025-04-10 10:55:16.965745,0.04006791114807129,-2.5,0.0019516944885253906,-0.1875,-2.7894973754882812e-05,0.125,0.0457758903503418,-2.8125,-1.4780722856521606,-0.1875,0.0033736228942871094,-0.224609375,0.005768537521362305,-0.3125,0.05255556106567383,-3.0,-0.003174304962158203,0.0625,0.0025925636291503906,0.0,0.0677785873413086,-3.875,-1.4788196086883545,-0.1875,0.0034432411193847656,-0.166015625,0.016297340393066406,-0.947265625,-0.00775754451751709,0.3355823755264282,0.0,0.0,0.0,0.0
2025-04-10 10:55:17.440810,0.04005599021911621,-2.5,0.0019516944885253906,-0.1875,-2.7894973754882812e-05,0.125,0.0457758903503418,-2.8125,-1.4780962467193604,-0.1875,0.0033583641052246094,-0.21484375,0.005760908126831055,-0.3125,0.05256772041320801,-3.0,-0.003174304962158203,0.0,0.002616405487060547,0.0,0.06780242919921875,-3.875,-1.4788436889648438,-0.1875,0.0033893585205078125,-0.17578125,0.016312599182128906,-0.9375,-0.00763702392578125,0.2796519994735718,0.0,0.0,0.0,0.0
2025-04-10 10:55:17.915830,0.04005599021911621,-2.5,0.0019516944885253906,-0.1875,-2.7894973754882812e-05,0.125,0.04576373100280762,-2.8125,-1.4780722856521606,-0.1875,0.0033659934997558594,-0.224609375,0.005768537521362305,-0.302734375,0.05248379707336426,-3.0,-0.003161907196044922,0.0625,0.002676248550415039,-0.0625,0.0674428939819336,-3.875,-1.4788196086883545,-0.1875,0.0033969879150390625,-0.166015625,0.016304969787597656,-0.9375,-0.007650434970855713,0.2796519994735718,0.0,0.0,0.0,0.0
2025-04-10 10:55:18.390824,0.0400080680847168,-2.5,0.0019277334213256836,-0.1875,-6.389617919921875e-05,0.125,0.0457758903503418,-2.8125,-1.4780722856521606,-0.25,0.0033507347106933594,-0.234375,0.005760908126831055,-0.3125,0.04673123359680176,-2.625,-0.003161907196044922,0.0625,0.0026404857635498047,-0.0625,0.0614628791809082,-3.5,-1.4788316488265991,-0.1875,0.0033512115478515625,-0.166015625,0.015315532684326172,-0.87890625,-0.007650434970855713,0.3355823755264282,0.0,0.0,0.0,0.0
2025-04-10 10:55:18.865916,0.0400080680847168,-2.5,0.0019397735595703125,-0.25,-2.7894973754882812e-05,0.125,0.04575181007385254,-2.8125,-1.4780722856521606,-0.1875,0.0033583641052246094,-0.224609375,0.005760908126831055,-0.3125,0.046755313873291016,-2.625,-0.003161907196044922,0.0,0.002616405487060547,0.0,0.06147480010986328,-3.5,-1.4789035320281982,-0.1875,0.0034122467041015625,-0.166015625,0.015223503112792969,-0.87890625,-0.0077173709869384766,0.2796519994735718,0.0,0.0,0.0,0.0
2025-04-10 10:55:19.340817,0.03997206687927246,-2.5,0.0019397735595703125,-0.1875,-4.00543212890625e-05,0.125,0.0457758903503418,-2.8125,-1.4780722856521606,-0.1875,0.0033431053161621094,-0.224609375,0.005753278732299805,-0.302734375,0.0468752384185791,-2.625,-0.003161907196044922,0.0625,0.002724170684814453,-0.0625,0.06148672103881836,-3.5,-1.4789035320281982,-0.1875,0.0033817291259765625,-0.166015625,0.015246868133544922,-0.87890625,-0.0077173709869384766,0.3355823755264282,0.0,0.0,0.0,0.0
2025-04-10 10:55:19.815963,0.03991222381591797,-2.5,0.0019516944885253906,-0.1875,-4.0531158447265625e-06,0.125,0.04576373100280762,-2.8125,-1.4780722856521606,-0.25,0.0033431053161621094,-0.224609375,0.005768537521362305,-0.3125,0.04686307907104492,-2.625,-0.0031261444091796875,0.0625,0.002652406692504883,0.0,0.06148672103881836,-3.5,-1.4789276123046875,-0.1875,0.0033817291259765625,-0.15625,0.015254497528076172,-0.87890625,-0.007703959941864014,0.2796519994735718,0.0,0.0,0.0,0.0
2025-04-10 10:55:20.313622,0.03990006446838379,-2.5,0.0019397735595703125,-0.1875,-4.00543212890625e-05,0.125,0.04575181007385254,-2.8125,-1.4780962467193604,-0.1875,0.0033431053161621094,-0.224609375,0.005760908126831055,-0.302734375,0.046851158142089844,-2.625,-0.0031380653381347656,0.0625,0.0026404857635498047,-0.0625,0.06148672103881836,-3.5,-1.4789155721664429,-0.1875,0.0033740997314453125,-0.166015625,0.015246868133544922,-0.888671875,-0.007703959941864014,0.2796519994735718,0.0,0.0,0.0,0.0
2025-04-10 10:55:20.788670,0.03991222381591797,-2.5,0.0019516944885253906,-0.1875,-1.5974044799804688e-05,0.1875,0.0457758903503418,-2.8125,-1.4780722856521606,-0.1875,0.0033354759216308594,-0.224609375,0.005760908126831055,-0.3125,0.046851158142089844,-2.5625,-0.0031380653381347656,0.0625,0.0026404857635498047,-0.0625,0.06148672103881836,-3.5,-1.4789155721664429,-0.1875,0.0033817291259765625,-0.166015625,0.015254497528076172,-0.87890625,-0.0077173709869384766,0.2796519994735718,0.0,0.0,0.0,0.0
2025-04-10 10:55:21.264767,0.03990006446838379,-2.5,0.0019637346267700195,-0.25,-4.0531158447265625e-06,0.125,0.04575181007385254,-2.8125,-1.4780962467193604,-0.1875,0.0033197402954101562,-0.224609375,0.005760908126831055,-0.302734375,0.046851158142089844,-2.625,-0.0031261444091796875,0.0625,0.0026404857635498047,-0.0625,0.06151103973388672,-3.5,-1.4789155721664429,-0.1875,0.0033740997314453125,-0.166015625,0.015254497528076172,-0.87890625,-0.007623612880706787,0.2796519994735718,0.0,0.0,0.0,0.0
2025-04-10 10:55:21.738664,0.03991222381591797,-2.5,0.0019397735595703125,-0.1875,-4.00543212890625e-05,0.125,0.04576373100280762,-2.8125,-1.4780962467193604,-0.25,0.0033354759216308594,-0.224609375,0.005760908126831055,-0.3125,0.04686307907104492,-2.625,-0.0031380653381347656,0.0,0.002652406692504883,-0.0625,0.06148672103881836,-3.5,-1.4789395332336426,-0.1875,0.0033817291259765625,-0.15625,0.015246868133544922,-0.859375,-0.007650434970855713,0.2796519994735718,0.0,0.0,0.0,0.0
2025-04-10 10:55:22.213739,0.03990006446838379,-2.5,0.0019516944885253906,-0.1875,-4.00543212890625e-05,0.125,0.04575181007385254,-2.8125,-1.4780962467193604,-0.1875,0.0033273696899414062,-0.224609375,0.005753278732299805,-0.3125,0.046851158142089844,-2.625,-0.0031380653381347656,0.0625,0.002676248550415039,0.0,0.06151103973388672,-3.5,-1.4789276123046875,-0.1875,0.0033664703369140625,-0.166015625,0.015246868133544922,-0.87890625,-0.007703959941864014,0.2796519994735718,0.0,0.0,0.0,0.0
2025-04-10 10:55:22.730757,0.03990006446838379,-2.5,0.0019397735595703125,-0.1875,-2.7894973754882812e-05,0.1875,0.04576373100280762,-2.8125,-1.4780962467193604,-0.1875,0.0033197402954101562,-0.224609375,0.005745649337768555,-0.3125,0.04686307907104492,-2.625,-0.0031380653381347656,0.0,0.002676248550415039,-0.0625,0.06148672103881836,-3.5,-1.4789276123046875,-0.1875,0.0033817291259765625,-0.166015625,0.015262126922607422,-0.87890625,-0.007690608501434326,0.2796519994735718,0.0,0.0,0.0,0.0
2025-04-10 10:55:23.205657,0.03991222381591797,-2.4375,0.0019397735595703125,-0.1875,-4.00543212890625e-05,0.125,0.04576373100280762,-2.8125,-1.4780962467193604,-0.1875,0.0033197402954101562,-0.224609375,0.005745649337768555,-0.322265625,0.046851158142089844,-2.625,-0.0031380653381347656,0.0,0.0026404857635498047,-0.0625,0.06148672103881836,-3.5,-1.4789276123046875,-0.1875,0.0033817291259765625,-0.15625,0.015246868133544922,-0.87890625,-0.007703959941864014,0.2796519994735718,0.0,0.0,0.0,0.0
2025-04-10 10:55:23.680546,0.03991222381591797,-2.5,0.0019516944885253906,-0.25,-2.7894973754882812e-05,0.125,0.04575181007385254,-2.8125,-1.478108286857605,-0.1875,0.0033197402954101562,-0.224609375,0.005745649337768555,-0.302734375,0.046851158142089844,-2.625,-0.0031499862670898438,0.0,0.002676248550415039,-0.0625,0.06148672103881836,-3.5,-1.4789276123046875,-0.1875,0.0033817291259765625,-0.166015625,0.015246868133544922,-0.859375,-0.007690608501434326,0.2796519994735718,0.0,0.0,0.0,0.0
2025-04-10 10:55:24.155606,0.03990006446838379,-2.5,0.0019637346267700195,-0.1875,8.106231689453125e-06,0.125,0.04575181007385254,-2.8125,-1.478108286857605,-0.1875,0.0033197402954101562,-0.224609375,0.005753278732299805,-0.302734375,0.04686307907104492,-2.625,-0.0031380653381347656,0.0,0.002676248550415039,0.0,0.06148672103881836,-3.4375,-1.4789035320281982,-0.1875,0.0033817291259765625,-0.166015625,0.015254497528076172,-0.87890625,-0.007489681243896484,0.2796519994735718,0.0,0.0,0.0,0.0
2025-04-10 10:55:24.630557,0.03990006446838379,-2.5,0.0019397735595703125,-0.1875,-1.5974044799804688e-05,0.125,0.04575181007385254,-2.8125,-1.478108286857605,-0.1875,0.0033121109008789062,-0.21484375,0.005737781524658203,-0.3125,0.046851158142089844,-2.6875,-0.0031261444091796875,0.0625,0.002664327621459961,-0.0625,0.06151103973388672,-3.5,-1.4789395332336426,-0.1875,0.0033817291259765625,-0.166015625,0.015254497528076172,-0.859375,-0.007650434970855713,0.3355823755264282,0.0,0.0,0.0,0.0
2025-04-10 10:55:25.105649,0.03988814353942871,-2.4375,0.0019516944885253906,-0.1875,-4.0531158447265625e-06,0.1875,0.04576373100280762,-2.8125,-1.478108286857605,-0.1875,0.0033197402954101562,-0.224609375,0.005753278732299805,-0.3125,0.046851158142089844,-2.625,-0.0031261444091796875,0.0,0.002796173095703125,-0.0625,0.06148672103881836,-3.5,-1.4789276123046875,-0.1875,0.0033664703369140625,-0.166015625,0.015246868133544922,-0.859375,-0.0072754621505737305,0.22372159361839294,0.0,0.0,0.0,0.0
2025-04-10 10:55:25.580619,0.03990006446838379,-2.5,0.0019516944885253906,-0.1875,-5.1975250244140625e-05,0.125,0.04576373100280762,-2.8125,-1.478108286857605,-0.1875,0.0033197402954101562,-0.224609375,0.005745649337768555,-0.3125,0.04686307907104492,-2.625,-0.0031380653381347656,0.0625,0.0026404857635498047,0.0,0.06151103973388672,-3.5,-1.4789155721664429,-0.1875,0.0033817291259765625,-0.166015625,0.015254497528076172,-0.859375,-0.007328987121582031,0.22372159361839294,0.0,0.0,0.0,0.0
2025-04-10 10:55:26.055612,0.03992414474487305,-2.4375,0.0019516944885253906,-0.1875,-1.5974044799804688e-05,0.125,0.04575181007385254,-2.8125,-1.4780962467193604,-0.1875,0.0033197402954101562,-0.224609375,0.005753278732299805,-0.322265625,0.046851158142089844,-2.625,-0.0031499862670898438,0.0,0.002664327621459961,0.0,0.06148672103881836,-3.5,-1.4789395332336426,-0.1875,0.0033740997314453125,-0.15625,0.015246868133544922,-0.87890625,-0.007154881954193115,0.22372159361839294,0.0,0.0,0.0,0.0
2025-04-10 10:55:26.530596,0.03990006446838379,-2.5,0.0019277334213256836,-0.1875,-2.7894973754882812e-05,0.125,0.04575181007385254,-2.8125,-1.47812020778656,-0.1875,0.0033197402954101562,-0.224609375,0.005737781524658203,-0.302734375,0.04686307907104492,-2.625,-0.0031261444091796875,0.0625,0.0026404857635498047,-0.0625,0.06148672103881836,-3.5,-1.4789276123046875,-0.1875,0.0033817291259765625,-0.166015625,0.015246868133544922,-0.87890625,-0.007302224636077881,0.22372159361839294,0.0,0.0,0.0,0.0
2025-04-10 10:55:27.005729,0.03990006446838379,-2.5,0.0019397735595703125,-0.1875,-4.0531158447265625e-06,0.1875,0.04575181007385254,-2.8125,-1.4781322479248047,-0.1875,0.0033121109008789062,-0.224609375,0.005745649337768555,-0.302734375,0.0468752384185791,-2.625,-0.0031499862670898438,0.0,0.002664327621459961,-0.0625,0.06148672103881836,-3.5,-1.4789035320281982,-0.1875,0.0033817291259765625,-0.166015625,0.015254497528076172,-0.859375,-0.007328987121582031,0.22372159361839294,0.0,0.0,0.0,0.0
2025-04-10 10:55:27.480769,0.03990006446838379,-2.5,0.0019516944885253906,-0.25,-1.5974044799804688e-05,0.1875,0.04575181007385254,-2.8125,-1.4781322479248047,-0.1875,0.0033197402954101562,-0.234375,0.005753278732299805,-0.3125,0.046851158142089844,-2.625,-0.0031261444091796875,0.0,0.002652406692504883,0.0,0.06148672103881836,-3.5,-1.4789276123046875,-0.1875,0.0033740997314453125,-0.166015625,0.015254497528076172,-0.87890625,-0.007328987121582031,0.22372159361839294,0.0,0.0,0.0,0.0
2025-04-10 10:55:27.955768,0.03991222381591797,-2.5,0.0019637346267700195,-0.1875,-4.00543212890625e-05,0.125,0.04576373100280762,-2.8125,-1.4781322479248047,-0.1875,0.0033197402954101562,-0.224609375,0.005745649337768555,-0.302734375,0.04686307907104492,-2.5625,-0.0031380653381347656,0.0625,0.0026404857635498047,-0.0625,0.06148672103881836,-3.5,-1.4789395332336426,-0.1875,0.0033817291259765625,-0.166015625,0.015254497528076172,-0.87890625,-0.00739598274230957,0.22372159361839294,0.0,0.0,0.0,0.0
2025-04-10 10:55:28.430857,0.03988814353942871,-2.5,0.0019516944885253906,-0.1875,-2.7894973754882812e-05,0.1875,0.04575181007385254,-2.8125,-1.4781322479248047,-0.1875,0.0033044815063476562,-0.234375,0.005753278732299805,-0.302734375,0.04686307907104492,-2.625,-0.0031261444091796875,0.0625,0.002652406692504883,-0.0625,0.06148672103881836,-3.5,-1.4789395332336426,-0.1875,0.0033664703369140625,-0.166015625,0.015254497528076172,-0.87890625,-0.007436156272888184,0.22372159361839294,0.0,0.0,0.0,0.0
2025-04-10 10:55:28.905696,0.03991222381591797,-2.5,0.0019397735595703125,-0.25,-2.7894973754882812e-05,0.125,0.04575181007385254,-2.8125,-1.4781322479248047,-0.1875,0.0033197402954101562,-0.21484375,0.005745649337768555,-0.3125,0.046851158142089844,-2.625,-0.0031261444091796875,0.0625,0.002652406692504883,-0.0625,0.06148672103881836,-3.5,-1.4789155721664429,-0.1875,0.0033817291259765625,-0.17578125,0.015231132507324219,-0.87890625,-0.007422745227813721,0.22372159361839294,0.0,0.0,0.0,0.0
2025-04-10 10:55:29.380712,0.03991222381591797,-2.5,0.0019516944885253906,-0.1875,-1.5974044799804688e-05,0.125,0.04576373100280762,-2.8125,-1.4781322479248047,-0.1875,0.0033044815063476562,-0.224609375,0.005745649337768555,-0.3125,0.04686307907104492,-2.625,-0.0031380653381347656,0.0625,0.0026404857635498047,-0.0625,0.06148672103881836,-3.5,-1.4789395332336426,-0.1875,0.0033664703369140625,-0.166015625,0.015254497528076172,-0.859375,-0.00739598274230957,0.2796519994735718,0.0,0.0,0.0,0.0
2025-04-10 10:55:29.855707,0.03991222381591797,-2.5,0.0019516944885253906,-0.1875,-1.5974044799804688e-05,0.125,0.04576373100280762,-2.8125,-1.4781322479248047,-0.1875,0.0033044815063476562,-0.224609375,0.005753278732299805,-0.302734375,0.04686307907104492,-2.625,-0.0031261444091796875,0.0625,0.0026404857635498047,-0.0625,0.06151103973388672,-3.5,-1.4789276123046875,-0.1875,0.0033893585205078125,-0.166015625,0.015254497528076172,-0.888671875,-0.007449507713317871,0.22372159361839294,0.0,0.0,0.0,0.0
2025-04-10 10:55:30.330939,0.03992414474487305,-2.4375,0.0019516944885253906,-0.1875,-2.7894973754882812e-05,0.125,0.04575181007385254,-2.8125,-1.4781562089920044,-0.1875,0.0033044815063476562,-0.234375,0.005745649337768555,-0.302734375,0.046851158142089844,-2.625,-0.0031261444091796875,0.0625,0.0026404857635498047,-0.0625,0.06148672103881836,-3.5,-1.4789155721664429,-0.1875,0.0033740997314453125,-0.166015625,0.015246868133544922,-0.859375,-0.007436156272888184,0.22372159361839294,0.0,0.0,0.0,0.0
2025-04-10 10:55:30.807584,0.03991222381591797,-2.5,0.0019397735595703125,-0.1875,2.002716064453125e-05,0.125,0.04576373100280762,-2.8125,-1.4781562089920044,-0.1875,0.0033044815063476562,-0.21484375,0.005745649337768555,-0.3125,0.046851158142089844,-2.625,-0.0031380653381347656,0.0,0.002676248550415039,-0.0625,0.06147480010986328,-3.5,-1.4789514541625977,-0.1875,0.0033740997314453125,-0.15625,0.015246868133544922,-0.87890625,-0.007315635681152344,0.2796519994735718,0.0,0.0,0.0,0.0
2025-04-10 10:55:31.282588,0.03988814353942871,-2.5,0.0019397735595703125,-0.1875,-2.7894973754882812e-05,0.125,0.04575181007385254,-2.8125,-1.4781562089920044,-0.25,0.0033044815063476562,-0.21484375,0.005737781524658203,-0.302734375,0.046851158142089844,-2.625,-0.0031261444091796875,0.0625,0.0026404857635498047,-0.0625,0.06148672103881836,-3.5,-1.4789276123046875,-0.1875,0.0033817291259765625,-0.166015625,0.015246868133544922,-0.87890625,-0.007302224636077881,0.2796519994735718,0.0,0.0,0.0,0.0
2025-04-10 10:55:31.757608,0.03988814353942871,-2.5,0.0019516944885253906,-0.25,-2.7894973754882812e-05,0.125,0.04575181007385254,-2.8125,-1.4781322479248047,-0.1875,0.0032892227172851562,-0.224609375,0.005745649337768555,-0.302734375,0.046851158142089844,-2.625,-0.0031499862670898438,0.0625,0.0026404857635498047,-0.0625,0.06148672103881836,-3.5,-1.4789395332336426,-0.1875,0.0033740997314453125,-0.166015625,0.015246868133544922,-0.87890625,-0.0072754621505737305,0.22372159361839294,0.0,0.0,0.0,0.0
