UARobotics-Lab/beta_unitree_utilities/arm_movement/g1_pcNico/Robotics4p0/100425/data_g1_20250410_091129.csv
timestamp,q_joint15,tau_joint15,q_joint16,tau_joint16,q_joint17,tau_joint17,q_joint18,tau_joint18,q_joint19,tau_joint19,q_joint20,tau_joint20,q_joint21,tau_joint21,q_joint22,tau_joint22,q_joint23,tau_joint23,q_joint24,tau_joint24,q_joint25,tau_joint25,q_joint26,tau_joint26,q_joint27,tau_joint27,q_joint28,tau_joint28,q_joint12,tau_joint12,q_joint13,tau_joint13,q_joint14,tau_joint14
2025-04-10 09:11:29.823483,0.2919642925262451,0.5625,0.22391152381896973,1.375,-0.009962797164916992,0.375,0.9738223552703857,-0.3125,0.03772854804992676,0.25,0.029290199279785156,-0.13671875,0.003874063491821289,0.01953125,0.2896995544433594,1.0625,-0.2127060890197754,-2.375,0.036208152770996094,-0.5625,0.9761829376220703,-0.25,-0.19136637449264526,0.0,0.07199668884277344,-0.244140625,0.02618408203125,-0.068359375,-0.0005258917808532715,-0.11186079680919647,0.0,0.0,0.0,0.0
2025-04-10 09:11:30.295796,0.2919642925262451,0.5625,0.22391152381896973,1.375,-0.009974956512451172,0.3125,0.9738223552703857,-0.3125,0.03776431083679199,0.3125,0.029290199279785156,-0.13671875,0.003874063491821289,0.01953125,0.28971147537231445,1.0625,-0.21268224716186523,-2.375,0.036208152770996094,-0.5625,0.9761829376220703,-0.25,-0.19131839275360107,0.0,0.07199668884277344,-0.244140625,0.02617645263671875,-0.068359375,-0.0005258917808532715,-0.11186079680919647,0.0,0.0,0.0,0.0
2025-04-10 09:11:30.770494,0.24879717826843262,0.0,0.12689924240112305,0.0,-0.01015472412109375,0.125,0.9963886737823486,-0.375,0.03345012664794922,-0.0625,0.030072689056396484,-0.01953125,0.008460760116577148,0.0,0.2290952205657959,0.375,-0.15469074249267578,-0.1875,0.047437429428100586,0.0625,1.0477886199951172,-0.0625,-0.1936313509941101,-0.0625,0.09077262878417969,-0.078125,0.02096080780029297,0.0390625,-0.0019588470458984375,-0.1677911877632141,0.0,0.0,0.0,0.0
2025-04-10 09:11:31.247806,0.2481379508972168,0.0625,0.1269592046737671,0.25,-0.010130643844604492,0.1875,0.9984257221221924,-0.1875,0.03287482261657715,-0.125,0.030065059661865234,-0.029296875,0.010408878326416016,0.0,0.2106156349182129,0.5,-0.15470266342163086,-0.4375,0.047281742095947266,0.0625,1.0743217468261719,-0.25,-0.1936313509941101,-0.0625,0.09255218505859375,-0.05859375,0.020093917846679688,0.048828125,-0.0020793676376342773,-0.1677911877632141,0.0,0.0,0.0,0.0
2025-04-10 09:11:31.727469,0.2482459545135498,0.25,0.12917625904083252,0.8125,-0.010118722915649414,0.1875,0.9983060359954834,-0.375,0.03277897834777832,-0.0625,0.030057430267333984,-0.029296875,0.010378122329711914,-0.029296875,0.21204185485839844,0.9375,-0.1552901268005371,-0.75,0.04713773727416992,0.0,1.0720925331115723,-0.8125,-0.1936313509941101,-0.0625,0.0924215316772461,-0.17578125,0.020109176635742188,0.087890625,-0.002052605152130127,-0.1677911877632141,0.0,0.0,0.0,0.0
2025-04-10 09:11:32.203130,0.2488570213317871,0.5625,0.13653457164764404,1.3125,-0.01055002212524414,0.125,0.9979584217071533,-0.5625,0.032814979553222656,0.0,0.03004169464111328,-0.0390625,0.007594108581542969,0.01953125,0.23446416854858398,1.0625,-0.15653610229492188,-1.125,0.04742550849914551,-0.0625,1.0364155769348145,-0.8125,-0.19366729259490967,-0.0625,0.09155511856079102,-0.322265625,0.020799636840820312,0.126953125,-0.0021329522132873535,-0.1677911877632141,0.0,0.0,0.0,0.0
2025-04-10 09:11:32.678147,0.2575817108154297,0.6875,0.15109539031982422,1.75,-0.010694026947021484,0.125,0.9959690570831299,-0.75,0.03283882141113281,0.0,0.03001880645751953,-0.048828125,0.0052852630615234375,-0.009765625,0.2496962547302246,1.125,-0.15779447555541992,-1.5625,0.04734158515930176,-0.125,1.013106346130371,-0.6875,-0.19367927312850952,-0.0625,0.09035062789916992,-0.44921875,0.023445606231689453,0.087890625,-0.0020793676376342773,-0.1677911877632141,0.0,0.0,0.0,0.0
2025-04-10 09:11:33.153334,0.2584564685821533,1.0625,0.17591476440429688,1.5625,-0.010909557342529297,0.125,0.9948427677154541,-0.875,0.03309059143066406,0.0625,0.03004932403564453,-0.068359375,0.0049479007720947266,-0.009765625,0.2572343349456787,1.25,-0.16203689575195312,-1.9375,0.04725766181945801,-0.25,1.0039024353027344,-0.8125,-0.1936073899269104,0.0,0.08533477783203125,-0.41015625,0.025547504425048828,0.048828125,-0.0019588470458984375,-0.11186079680919647,0.0,0.0,0.0,0.0
2025-04-10 09:11:33.676603,0.2609372138977051,1.1875,0.1839921474456787,1.625,-0.010909557342529297,0.1875,0.9908878803253174,-0.875,0.033318281173706055,0.0625,0.03001880645751953,-0.068359375,0.0048406124114990234,-0.01953125,0.2601583003997803,1.375,-0.1661238670349121,-2.1875,0.047113895416259766,-0.3125,0.9953575134277344,-0.6875,-0.1934875249862671,0.0,0.08154582977294922,-0.390625,0.0261993408203125,0.01953125,-0.0019052624702453613,-0.1677911877632141,0.0,0.0,0.0,0.0
2025-04-10 09:11:34.161124,0.2674446105957031,1.0625,0.1860654354095459,1.8125,-0.010921716690063477,0.1875,0.9866931438446045,-0.8125,0.033881425857543945,0.0625,0.03001880645751953,-0.078125,0.00476384162902832,-0.01953125,0.26593470573425293,1.375,-0.16885614395141602,-2.375,0.04602336883544922,-0.375,0.9942913055419922,-0.75,-0.19353550672531128,0.0,0.08098602294921875,-0.419921875,0.0262298583984375,0.01953125,-0.0019186735153198242,-0.11186079680919647,0.0,0.0,0.0,0.0
2025-04-10 09:11:34.657015,0.26888275146484375,1.125,0.1884622573852539,1.875,-0.010921716690063477,0.1875,0.9834215641021729,-0.625,0.03401327133178711,0.0625,0.03001880645751953,-0.078125,0.004725456237792969,-0.01953125,0.26827168464660645,1.375,-0.17034196853637695,-2.5,0.04512453079223633,-0.375,0.992805004119873,-0.75,-0.1934875249862671,0.0,0.07965898513793945,-0.400390625,0.02625274658203125,0.01953125,-0.001878499984741211,-0.11186079680919647,0.0,0.0,0.0,0.0
2025-04-10 09:11:35.173606,0.27094411849975586,1.125,0.18900156021118164,1.9375,-0.010909557342529297,0.1875,0.9829185009002686,-0.625,0.034049272537231445,0.0625,0.03001117706298828,-0.068359375,0.004710197448730469,-0.01953125,0.26883506774902344,1.375,-0.1713728904724121,-2.5625,0.044740915298461914,-0.375,0.9926013946533203,-0.8125,-0.1934875249862671,0.0,0.07925224304199219,-0.390625,0.026268482208251953,0.01953125,-0.0018919110298156738,-0.11186079680919647,0.0,0.0,0.0,0.0
2025-04-10 09:11:35.655230,0.270967960357666,1.125,0.189217209815979,1.9375,-0.010921716690063477,0.1875,0.982750654220581,-0.625,0.03398942947387695,0.0625,0.03001117706298828,-0.068359375,0.004710197448730469,-0.01953125,0.2690865993499756,1.375,-0.17179203033447266,-2.5625,0.04470491409301758,-0.3125,0.9925651550292969,-0.8125,-0.1934875249862671,0.0,0.07913732528686523,-0.390625,0.02625274658203125,0.01953125,-0.0019052624702453613,-0.11186079680919647,0.0,0.0,0.0,0.0
2025-04-10 09:11:36.168372,0.270967960357666,1.125,0.1892411708831787,1.9375,-0.010921716690063477,0.1875,0.9826304912567139,-0.625,0.03401327133178711,0.0625,0.03001117706298828,-0.068359375,0.004687070846557617,-0.01953125,0.26911067962646484,1.375,-0.17186403274536133,-2.5625,0.04471707344055176,-0.375,0.9925651550292969,-0.8125,-0.1934875249862671,0.0,0.07903003692626953,-0.37109375,0.026268482208251953,0.01953125,-0.001878499984741211,-0.11186079680919647,0.0,0.0,0.0,0.0
2025-04-10 09:11:36.665276,0.270967960357666,1.125,0.18922924995422363,1.875,-0.010921716690063477,0.1875,0.98252272605896,-0.625,0.034049272537231445,0.0625,0.03001880645751953,-0.068359375,0.004694700241088867,-0.01953125,0.2690865993499756,1.375,-0.1718759536743164,-2.5625,0.04470491409301758,-0.375,0.9925293922424316,-0.8125,-0.1934875249862671,0.0,0.07899951934814453,-0.37109375,0.026276111602783203,0.01953125,-0.0019052624702453613,-0.11186079680919647,0.0,0.0,0.0,0.0
2025-04-10 09:11:37.167853,0.270967960357666,1.125,0.18925321102142334,1.875,-0.010921716690063477,0.1875,0.9824507236480713,-0.6875,0.03401327133178711,0.0625,0.03001880645751953,-0.068359375,0.004694700241088867,-0.01953125,0.2690865993499756,1.375,-0.17192411422729492,-2.5625,0.04470491409301758,-0.4375,0.9925174713134766,-0.8125,-0.19345158338546753,0.0,0.07896089553833008,-0.37109375,0.026283740997314453,0.029296875,-0.0019052624702453613,-0.11186079680919647,0.0,0.0,0.0,0.0
2025-04-10 09:11:37.659934,0.2709920406341553,1.125,0.18926513195037842,1.875,-0.010909557342529297,0.1875,0.9824388027191162,-0.625,0.03401327133178711,0.0625,0.03001880645751953,-0.068359375,0.004687070846557617,-0.01953125,0.26909875869750977,1.375,-0.17193603515625,-2.5625,0.0446929931640625,-0.375,0.9925174713134766,-0.8125,-0.1934875249862671,0.0,0.07893800735473633,-0.390625,0.026298999786376953,0.029296875,-0.0019052624702453613,-0.11186079680919647,0.0,0.0,0.0,0.0
2025-04-10 09:11:38.138795,0.270967960357666,1.125,0.18925321102142334,1.875,-0.010909557342529297,0.1875,0.982414960861206,-0.625,0.03402543067932129,0.0625,0.03002643585205078,-0.068359375,0.004694700241088867,-0.01953125,0.26911067962646484,1.375,-0.17197179794311523,-2.5625,0.04470491409301758,-0.3125,0.9925174713134766,-0.8125,-0.19347554445266724,0.0,0.07891511917114258,-0.37109375,0.026276111602783203,0.01953125,-0.0019052624702453613,-0.11186079680919647,0.0,0.0,0.0,0.0
2025-04-10 09:11:38.644347,0.270967960357666,1.125,0.18926513195037842,1.875,-0.010921716690063477,0.1875,0.9823911190032959,-0.625,0.03403735160827637,0.0625,0.03001880645751953,-0.068359375,0.004694700241088867,-0.01953125,0.2691226005554199,1.375,-0.17197179794311523,-2.5625,0.04470491409301758,-0.375,0.9925055503845215,-0.8125,-0.19343960285186768,0.0,0.07890748977661133,-0.37109375,0.026291370391845703,0.01953125,-0.0018919110298156738,-0.11186079680919647,0.0,0.0,0.0,0.0
2025-04-10 09:11:39.156333,0.2709920406341553,1.125,0.18927717208862305,1.875,-0.010909557342529297,0.1875,0.9823548793792725,-0.6875,0.03398942947387695,0.0625,0.03001117706298828,-0.078125,0.004687070846557617,-0.01953125,0.26911067962646484,1.375,-0.17200803756713867,-2.5625,0.04470491409301758,-0.4375,0.9924936294555664,-0.8125,-0.19347554445266724,0.0,0.07887649536132812,-0.37109375,0.026283740997314453,0.029296875,-0.0018919110298156738,-0.11186079680919647,0.0,0.0,0.0,0.0
2025-04-10 09:11:39.631151,0.270967960357666,1.125,0.18927717208862305,1.875,-0.010921716690063477,0.1875,0.9823310375213623,-0.6875,0.03398942947387695,0.0625,0.03001880645751953,-0.068359375,0.004687070846557617,-0.009765625,0.2691226005554199,1.3125,-0.17200803756713867,-2.5625,0.0446929931640625,-0.375,0.9925174713134766,-0.8125,-0.19347554445266724,0.0,0.07886123657226562,-0.390625,0.026283740997314453,0.01953125,-0.0019052624702453613,-0.11186079680919647,0.0,0.0,0.0,0.0
2025-04-10 09:11:40.109985,0.270967960357666,1.125,0.18928909301757812,1.9375,-0.010921716690063477,0.1875,0.9823191165924072,-0.625,0.03402543067932129,0.0625,0.03001880645751953,-0.068359375,0.004687070846557617,-0.01953125,0.2691226005554199,1.375,-0.17201995849609375,-2.5625,0.0446929931640625,-0.3125,0.9925055503845215,-0.8125,-0.19347554445266724,0.0,0.07885360717773438,-0.37109375,0.026283740997314453,0.01953125,-0.0019052624702453613,-0.11186079680919647,0.0,0.0,0.0,0.0
2025-04-10 09:11:40.680277,0.2709798812866211,1.125,0.18927717208862305,1.875,-0.010921716690063477,0.1875,0.9823191165924072,-0.6875,0.03402543067932129,0.0625,0.03001117706298828,-0.068359375,0.004694700241088867,-0.01953125,0.269134521484375,1.375,-0.17201995849609375,-2.5625,0.0446929931640625,-0.3125,0.9925055503845215,-0.8125,-0.19347554445266724,0.0,0.07883834838867188,-0.37109375,0.026298999786376953,0.029296875,-0.0019052624702453613,-0.11186079680919647,0.0,0.0,0.0,0.0
2025-04-10 09:11:41.152277,0.2709920406341553,1.125,0.18928909301757812,1.875,-0.010921716690063477,0.1875,0.9823310375213623,-0.625,0.03398942947387695,0.0625,0.03001117706298828,-0.078125,0.004687070846557617,-0.01953125,0.2691226005554199,1.375,-0.17201995849609375,-2.5625,0.0446929931640625,-0.3125,0.9925055503845215,-0.8125,-0.19346356391906738,0.0,0.07883071899414062,-0.37109375,0.026298999786376953,0.01953125,-0.0019052624702453613,-0.11186079680919647,0.0,0.0,0.0,0.0
2025-04-10 09:11:41.640509,0.2709920406341553,1.125,0.18928909301757812,1.9375,-0.010921716690063477,0.1875,0.9823191165924072,-0.625,0.03402543067932129,0.0625,0.03001880645751953,-0.078125,0.004679441452026367,-0.01953125,0.26909875869750977,1.375,-0.17201995849609375,-2.5625,0.04471707344055176,-0.375,0.9925055503845215,-0.8125,-0.19343960285186768,0.0,0.07882308959960938,-0.37109375,0.026291370391845703,0.029296875,-0.0019052624702453613,-0.11186079680919647,0.0,0.0,0.0,0.0
2025-04-10 09:11:42.147829,0.2709920406341553,1.125,0.18928909301757812,1.875,-0.010921716690063477,0.1875,0.9823071956634521,-0.625,0.03402543067932129,0.0625,0.03001117706298828,-0.078125,0.004679441452026367,-0.01953125,0.269134521484375,1.3125,-0.17201995849609375,-2.5625,0.04470491409301758,-0.375,0.9924936294555664,-0.8125,-0.19346356391906738,0.0,0.07881546020507812,-0.361328125,0.026283740997314453,0.01953125,-0.0019052624702453613,-0.11186079680919647,0.0,0.0,0.0,0.0
2025-04-10 09:11:42.622909,0.2709920406341553,1.125,0.18928909301757812,1.875,-0.010909557342529297,0.1875,0.9823071956634521,-0.625,0.03406119346618652,0.0625,0.03001880645751953,-0.068359375,0.004687070846557617,-0.009765625,0.2691226005554199,1.375,-0.17201995849609375,-2.5625,0.0446929931640625,-0.4375,0.9925055503845215,-0.8125,-0.19346356391906738,0.0,0.07880735397338867,-0.361328125,0.026291370391845703,0.01953125,-0.0019052624702453613,-0.11186079680919647,0.0,0.0,0.0,0.0
2025-04-10 09:11:43.152868,0.270967960357666,1.0625,0.18928909301757812,1.875,-0.010909557342529297,0.1875,0.9823191165924072,-0.625,0.03403735160827637,0.0625,0.03001880645751953,-0.078125,0.004694700241088867,-0.01953125,0.26911067962646484,1.375,-0.1720438003540039,-2.5625,0.04470491409301758,-0.375,0.9924817085266113,-0.8125,-0.19346356391906738,0.0,0.07880735397338867,-0.37109375,0.026291370391845703,0.0,-0.001878499984741211,-0.11186079680919647,0.0,0.0,0.0,0.0
2025-04-10 09:11:43.666732,0.2709920406341553,1.125,0.18928909301757812,1.875,-0.010921716690063477,0.1875,0.9823191165924072,-0.625,0.03406119346618652,0.0625,0.03001117706298828,-0.078125,0.004687070846557617,-0.01953125,0.2691226005554199,1.375,-0.1720438003540039,-2.5625,0.0446929931640625,-0.375,0.9924936294555664,-0.8125,-0.19346356391906738,0.0,0.07880735397338867,-0.37109375,0.026298999786376953,0.01953125,-0.0019052624702453613,-0.11186079680919647,0.0,0.0,0.0,0.0
2025-04-10 09:11:44.154175,0.2709920406341553,1.125,0.18926513195037842,1.875,-0.010921716690063477,0.1875,0.9823191165924072,-0.5625,0.03406119346618652,0.0625,0.03001117706298828,-0.068359375,0.004687070846557617,-0.01953125,0.26911067962646484,1.375,-0.1720438003540039,-2.5625,0.04470491409301758,-0.3125,0.9925055503845215,-0.75,-0.19345158338546753,0.0,0.07879972457885742,-0.37109375,0.026298999786376953,0.01953125,-0.0019052624702453613,-0.11186079680919647,0.0,0.0,0.0,0.0
2025-04-10 09:11:44.629404,0.270967960357666,1.125,0.18928909301757812,1.875,-0.010921716690063477,0.1875,0.9823191165924072,-0.625,0.0340733528137207,0.0625,0.03001117706298828,-0.078125,0.004671812057495117,-0.01953125,0.2691226005554199,1.375,-0.1720438003540039,-2.5625,0.0446929931640625,-0.375,0.9924817085266113,-0.8125,-0.19343960285186768,0.0,0.07879209518432617,-0.37109375,0.026291370391845703,0.01953125,-0.0019052624702453613,-0.11186079680919647,0.0,0.0,0.0,0.0
2025-04-10 09:11:45.193189,0.2709798812866211,1.0625,0.18928909301757812,1.875,-0.010921716690063477,0.1875,0.9823310375213623,-0.625,0.03409719467163086,0.0625,0.03001880645751953,-0.068359375,0.004679441452026367,-0.01953125,0.2691226005554199,1.375,-0.17205572128295898,-2.5625,0.0446929931640625,-0.375,0.9924936294555664,-0.8125,-0.19346356391906738,0.0,0.07878446578979492,-0.37109375,0.026291370391845703,0.01953125,-0.0018919110298156738,-0.11186079680919647,0.0,0.0,0.0,0.0
2025-04-10 09:11:45.673482,0.270967960357666,1.125,0.18928909301757812,1.875,-0.010921716690063477,0.1875,0.9823191165924072,-0.625,0.03408527374267578,0.0625,0.03001880645751953,-0.068359375,0.004687070846557617,-0.029296875,0.2691226005554199,1.375,-0.17205572128295898,-2.5625,0.0446929931640625,-0.3125,0.9924936294555664,-0.75,-0.19346356391906738,0.0,0.07877683639526367,-0.361328125,0.026298999786376953,0.01953125,-0.0019052624702453613,-0.11186079680919647,0.0,0.0,0.0,0.0
2025-04-10 09:11:46.148046,0.270967960357666,1.125,0.18928909301757812,1.875,-0.010921716690063477,0.1875,0.9823191165924072,-0.625,0.0340733528137207,0.0625,0.03001117706298828,-0.078125,0.004679441452026367,-0.01953125,0.2691226005554199,1.3125,-0.1720438003540039,-2.5625,0.04471707344055176,-0.3125,0.9924817085266113,-0.875,-0.19346356391906738,0.0,0.07876157760620117,-0.361328125,0.026291370391845703,0.01953125,-0.0018919110298156738,-0.11186079680919647,0.0,0.0,0.0,0.0
2025-04-10 09:11:46.623151,0.2709920406341553,1.125,0.18928909301757812,1.875,-0.010921716690063477,0.1875,0.9823191165924072,-0.625,0.03408527374267578,0.0625,0.03001117706298828,-0.068359375,0.004679441452026367,0.0,0.269134521484375,1.375,-0.17205572128295898,-2.5625,0.0446929931640625,-0.4375,0.9924936294555664,-0.8125,-0.19343960285186768,0.0,0.07876157760620117,-0.361328125,0.026306629180908203,0.01953125,-0.0019052624702453613,-0.11186079680919647,0.0,0.0,0.0,0.0
2025-04-10 09:11:47.099145,0.270967960357666,1.125,0.18928909301757812,1.875,-0.010909557342529297,0.1875,0.9823310375213623,-0.625,0.034049272537231445,0.0625,0.03001880645751953,-0.068359375,0.004679441452026367,-0.009765625,0.26911067962646484,1.375,-0.17205572128295898,-2.5625,0.04470491409301758,-0.4375,0.9924817085266113,-0.8125,-0.19346356391906738,0.0,0.07876157760620117,-0.361328125,0.026283740997314453,0.029296875,-0.0019052624702453613,-0.11186079680919647,0.0,0.0,0.0,0.0
2025-04-10 09:11:47.577885,0.2709920406341553,1.125,0.18930113315582275,1.9375,-0.010921716690063477,0.1875,0.9823071956634521,-0.625,0.03410911560058594,0.0625,0.03001117706298828,-0.078125,0.004679441452026367,-0.01953125,0.2691226005554199,1.3125,-0.17205572128295898,-2.5625,0.04470491409301758,-0.375,0.9924817085266113,-0.8125,-0.19346356391906738,0.0,0.07875394821166992,-0.37109375,0.026306629180908203,0.0390625,-0.0019052624702453613,-0.11186079680919647,0.0,0.0,0.0,0.0
2025-04-10 09:11:48.052766,0.2709920406341553,1.125,0.18930113315582275,1.875,-0.010921716690063477,0.1875,0.9823191165924072,-0.625,0.0340733528137207,0.0625,0.03001117706298828,-0.068359375,0.004679441452026367,-0.01953125,0.2691226005554199,1.375,-0.17205572128295898,-2.5625,0.0446929931640625,-0.375,0.9924817085266113,-0.8125,-0.19343960285186768,0.0,0.07874631881713867,-0.361328125,0.026306629180908203,0.029296875,-0.0019052624702453613,-0.11186079680919647,0.0,0.0,0.0,0.0
2025-04-10 09:11:48.539595,0.270967960357666,1.125,0.18930113315582275,1.875,-0.010909557342529297,0.1875,0.9823191165924072,-0.625,0.03410911560058594,0.0625,0.03001880645751953,-0.068359375,0.004679441452026367,-0.01953125,0.26911067962646484,1.375,-0.17205572128295898,-2.625,0.0446929931640625,-0.375,0.9924817085266113,-0.8125,-0.19343960285186768,0.0,0.07874631881713867,-0.37109375,0.026306629180908203,0.01953125,-0.0019052624702453613,-0.11186079680919647,0.0,0.0,0.0,0.0
2025-04-10 09:11:49.030101,0.2709920406341553,1.125,0.18928909301757812,1.875,-0.010921716690063477,0.1875,0.9823071956634521,-0.625,0.03408527374267578,0.0625,0.03001880645751953,-0.078125,0.004679441452026367,-0.01953125,0.26911067962646484,1.3125,-0.17206764221191406,-2.5625,0.04471707344055176,-0.375,0.992469310760498,-0.8125,-0.19343960285186768,0.0,0.07874631881713867,-0.37109375,0.026298999786376953,0.01953125,-0.0018919110298156738,-0.11186079680919647,0.0,0.0,0.0,0.0
2025-04-10 09:11:49.532205,0.2709920406341553,1.1875,0.18931317329406738,1.875,-0.010945558547973633,0.1875,0.9823191165924072,-0.625,0.0340733528137207,0.0625,0.03001117706298828,-0.078125,0.004664182662963867,-0.01953125,0.269134521484375,1.375,-0.17205572128295898,-2.5625,0.0446929931640625,-0.3125,0.9925055503845215,-0.8125,-0.19346356391906738,0.0,0.07873868942260742,-0.361328125,0.026314258575439453,0.01953125,-0.0019052624702453613,-0.11186079680919647,0.0,0.0,0.0,0.0
2025-04-10 09:11:50.058714,0.2709920406341553,1.125,0.18930113315582275,1.875,-0.010909557342529297,0.1875,0.9823071956634521,-0.625,0.03408527374267578,0.0625,0.03001880645751953,-0.078125,0.004679441452026367,-0.01953125,0.2691226005554199,1.3125,-0.17205572128295898,-2.5625,0.04470491409301758,-0.375,0.992469310760498,-0.8125,-0.19346356391906738,0.0,0.07874631881713867,-0.361328125,0.026291370391845703,0.01953125,-0.0019052624702453613,-0.11186079680919647,0.0,0.0,0.0,0.0
2025-04-10 09:11:50.602204,0.2709920406341553,1.125,0.18930113315582275,1.875,-0.010921716690063477,0.1875,0.9823310375213623,-0.625,0.0340733528137207,0.0625,0.03001880645751953,-0.068359375,0.004679441452026367,-0.01953125,0.269134521484375,1.375,-0.17205572128295898,-2.5,0.04470491409301758,-0.3125,0.9924817085266113,-0.8125,-0.19343960285186768,0.0,0.07874631881713867,-0.361328125,0.026298999786376953,0.0,-0.0019052624702453613,-0.11186079680919647,0.0,0.0,0.0,0.0
2025-04-10 09:11:51.073945,0.2709798812866211,1.125,0.18930113315582275,1.875,-0.010909557342529297,0.1875,0.9823310375213623,-0.625,0.03410911560058594,0.125,0.03001117706298828,-0.068359375,0.004671812057495117,-0.01953125,0.26911067962646484,1.375,-0.17206764221191406,-2.5625,0.0446929931640625,-0.375,0.9924817085266113,-0.8125,-0.19345158338546753,0.0,0.07875394821166992,-0.361328125,0.026306629180908203,0.01953125,-0.0019052624702453613,-0.11186079680919647,0.0,0.0,0.0,0.0
2025-04-10 09:11:51.584910,0.270967960357666,1.125,0.18930113315582275,1.875,-0.010909557342529297,0.1875,0.9823191165924072,-0.625,0.03406119346618652,0.0625,0.03001117706298828,-0.068359375,0.004671812057495117,-0.01953125,0.2691226005554199,1.375,-0.17206764221191406,-2.5625,0.0446929931640625,-0.375,0.9924817085266113,-0.8125,-0.19346356391906738,0.0,0.07874631881713867,-0.361328125,0.026298999786376953,0.01953125,-0.0019052624702453613,-0.11186079680919647,0.0,0.0,0.0,0.0
2025-04-10 09:11:52.060596,0.2709920406341553,1.125,0.18928909301757812,1.9375,-0.010921716690063477,0.1875,0.9823071956634521,-0.625,0.03410911560058594,0.0625,0.03001880645751953,-0.078125,0.004679441452026367,-0.01953125,0.2691466808319092,1.375,-0.17206764221191406,-2.5625,0.0446929931640625,-0.375,0.9924817085266113,-0.8125,-0.19346356391906738,0.0,0.07874631881713867,-0.361328125,0.026306629180908203,0.01953125,-0.0019052624702453613,-0.11186079680919647,0.0,0.0,0.0,0.0
2025-04-10 09:11:52.534936,0.2709920406341553,1.125,0.18930113315582275,1.875,-0.010921716690063477,0.1875,0.9823191165924072,-0.625,0.034133195877075195,0.0625,0.03001117706298828,-0.078125,0.004679441452026367,-0.01953125,0.2691226005554199,1.375,-0.17206764221191406,-2.5625,0.0446929931640625,-0.3125,0.9924817085266113,-0.8125,-0.1934875249862671,0.0,0.07874631881713867,-0.361328125,0.026298999786376953,0.01953125,-0.0019186735153198242,-0.11186079680919647,0.0,0.0,0.0,0.0
2025-04-10 09:11:53.015686,0.270967960357666,1.125,0.18930113315582275,1.875,-0.010921716690063477,0.1875,0.9823191165924072,-0.625,0.034133195877075195,0.0625,0.03001880645751953,-0.068359375,0.004671812057495117,-0.01953125,0.2691226005554199,1.3125,-0.17206764221191406,-2.5625,0.04470491409301758,-0.375,0.9924817085266113,-0.8125,-0.19349956512451172,0.0,0.07874631881713867,-0.361328125,0.026283740997314453,0.0390625,-0.0019052624702453613,-0.1677911877632141,0.0,0.0,0.0,0.0
2025-04-10 09:11:53.490750,0.2709920406341553,1.125,0.18931317329406738,1.875,-0.010921716690063477,0.1875,0.9823310375213623,-0.625,0.034049272537231445,0.0625,0.03001880645751953,-0.068359375,0.004671812057495117,-0.01953125,0.2691226005554199,1.375,-0.17206764221191406,-2.5625,0.0446929931640625,-0.375,0.9924817085266113,-0.8125,-0.19347554445266724,0.0,0.07875394821166992,-0.361328125,0.026298999786376953,0.029296875,-0.0019052624702453613,-0.11186079680919647,0.0,0.0,0.0,0.0
2025-04-10 09:11:53.971589,0.270967960357666,1.0625,0.18928909301757812,1.875,-0.010921716690063477,0.1875,0.9823071956634521,-0.625,0.03409719467163086,0.0625,0.03001880645751953,-0.068359375,0.004671812057495117,-0.01953125,0.2691226005554199,1.375,-0.17209196090698242,-2.5625,0.0446929931640625,-0.375,0.992469310760498,-0.8125,-0.19343960285186768,0.0,0.07874631881713867,-0.361328125,0.026306629180908203,0.01953125,-0.0019052624702453613,-0.11186079680919647,0.0,0.0,0.0,0.0
2025-04-10 09:11:54.446372,0.2709920406341553,1.125,0.18930113315582275,1.875,-0.010921716690063477,0.1875,0.9823071956634521,-0.625,0.03408527374267578,0.0625,0.03001117706298828,-0.068359375,0.004679441452026367,-0.01953125,0.2691226005554199,1.375,-0.17206764221191406,-2.5625,0.0446929931640625,-0.3125,0.9924817085266113,-0.8125,-0.19346356391906738,0.0,0.07873868942260742,-0.37109375,0.026298999786376953,0.01953125,-0.0019052624702453613,-0.11186079680919647,0.0,0.0,0.0,0.0
2025-04-10 09:11:54.921465,0.2709920406341553,1.125,0.18930113315582275,1.875,-0.010921716690063477,0.1875,0.9823191165924072,-0.625,0.03408527374267578,0.0625,0.03001117706298828,-0.068359375,0.004671812057495117,-0.01953125,0.2691226005554199,1.375,-0.17206764221191406,-2.5625,0.0446929931640625,-0.3125,0.9924817085266113,-0.8125,-0.19345158338546753,0.0,0.07874631881713867,-0.361328125,0.026298999786376953,0.01953125,-0.0019052624702453613,-0.11186079680919647,0.0,0.0,0.0,0.0
2025-04-10 09:11:55.438276,0.2709920406341553,1.125,0.18931317329406738,1.9375,-0.010921716690063477,0.1875,0.9823071956634521,-0.625,0.03410911560058594,0.0625,0.03001880645751953,-0.078125,0.004679441452026367,-0.01953125,0.269134521484375,1.375,-0.17207956314086914,-2.5625,0.0446929931640625,-0.375,0.992469310760498,-0.8125,-0.19343960285186768,0.0,0.07873868942260742,-0.361328125,0.026298999786376953,0.01953125,-0.0019052624702453613,-0.11186079680919647,0.0,0.0,0.0,0.0
2025-04-10 09:11:55.923771,0.2709920406341553,1.125,0.18930113315582275,1.875,-0.010909557342529297,0.1875,0.9823191165924072,-0.625,0.03409719467163086,0.0625,0.03001117706298828,-0.068359375,0.004679441452026367,-0.01953125,0.2691226005554199,1.375,-0.17207956314086914,-2.625,0.04470491409301758,-0.3125,0.9924817085266113,-0.75,-0.19343960285186768,0.0,0.07873868942260742,-0.361328125,0.026306629180908203,0.01953125,-0.0019052624702453613,-0.11186079680919647,0.0,0.0,0.0,0.0
2025-04-10 09:11:56.426111,0.2709920406341553,1.125,0.18931317329406738,1.875,-0.010921716690063477,0.1875,0.9823191165924072,-0.625,0.03408527374267578,0.0625,0.03001880645751953,-0.068359375,0.004679441452026367,-0.01953125,0.2691226005554199,1.375,-0.17206764221191406,-2.5625,0.04470491409301758,-0.3125,0.9924817085266113,-0.8125,-0.19347554445266724,0.0,0.07873868942260742,-0.37109375,0.026306629180908203,0.01953125,-0.0019052624702453613,-0.11186079680919647,0.0,0.0,0.0,0.0
2025-04-10 09:11:56.912949,0.2709920406341553,1.125,0.18931317329406738,1.875,-0.010921716690063477,0.1875,0.9823191165924072,-0.625,0.03409719467163086,0.0625,0.03001880645751953,-0.078125,0.004679441452026367,-0.01953125,0.269134521484375,1.375,-0.17209196090698242,-2.5625,0.04470491409301758,-0.4375,0.9924817085266113,-0.8125,-0.19343960285186768,0.0,0.07874631881713867,-0.3515625,0.026298999786376953,0.01953125,-0.0019052624702453613,-0.11186079680919647,0.0,0.0,0.0,0.0
2025-04-10 09:11:57.389650,0.270967960357666,1.125,0.18931317329406738,1.875,-0.010909557342529297,0.1875,0.9823071956634521,-0.625,0.03412127494812012,0.0625,0.03001880645751953,-0.078125,0.004671812057495117,-0.01953125,0.2691226005554199,1.375,-0.17207956314086914,-2.5625,0.0446929931640625,-0.375,0.9924817085266113,-0.75,-0.19346356391906738,0.0,0.07874631881713867,-0.37109375,0.026306629180908203,0.01953125,-0.0019052624702453613,-0.11186079680919647,0.0,0.0,0.0,0.0
2025-04-10 09:11:57.862607,0.2709920406341553,1.125,0.18931317329406738,1.875,-0.010921716690063477,0.1875,0.9823071956634521,-0.625,0.03408527374267578,0.0625,0.03001880645751953,-0.068359375,0.004671812057495117,-0.01953125,0.2691226005554199,1.375,-0.17207956314086914,-2.625,0.0446929931640625,-0.375,0.9924817085266113,-0.8125,-0.19343960285186768,0.0,0.07872343063354492,-0.361328125,0.026306629180908203,0.01953125,-0.0019052624702453613,-0.11186079680919647,0.0,0.0,0.0,0.0
2025-04-10 09:11:58.339478,0.2709920406341553,1.1875,0.18930113315582275,1.9375,-0.010909557342529297,0.1875,0.9823071956634521,-0.625,0.03408527374267578,0.0625,0.03001880645751953,-0.078125,0.004679441452026367,-0.01953125,0.2691226005554199,1.375,-0.17207956314086914,-2.5625,0.0446929931640625,-0.375,0.992469310760498,-0.8125,-0.19345158338546753,0.0,0.07874631881713867,-0.37109375,0.026306629180908203,0.01953125,-0.0018919110298156738,-0.11186079680919647,0.0,0.0,0.0,0.0
2025-04-10 09:11:58.816359,0.270967960357666,1.125,0.18931317329406738,1.875,-0.010921716690063477,0.1875,0.9823071956634521,-0.625,0.0340733528137207,0.0625,0.03001117706298828,-0.068359375,0.004679441452026367,-0.009765625,0.269134521484375,1.375,-0.17209196090698242,-2.5625,0.04470491409301758,-0.375,0.9924817085266113,-0.75,-0.19345158338546753,0.0,0.07873868942260742,-0.361328125,0.026306629180908203,0.01953125,-0.001878499984741211,-0.11186079680919647,0.0,0.0,0.0,0.0
2025-04-10 09:11:59.296219,0.270967960357666,1.125,0.18931317329406738,1.875,-0.010909557342529297,0.1875,0.9823071956634521,-0.625,0.034133195877075195,0.0625,0.03001880645751953,-0.068359375,0.004671812057495117,-0.01953125,0.2691226005554199,1.3125,-0.17207956314086914,-2.5625,0.04470491409301758,-0.375,0.9924817085266113,-0.8125,-0.19343960285186768,0.0,0.07873868942260742,-0.3515625,0.026306629180908203,0.0,-0.0018919110298156738,-0.11186079680919647,0.0,0.0,0.0,0.0
2025-04-10 09:11:59.782722,0.2709920406341553,1.125,0.18931317329406738,1.875,-0.010921716690063477,0.1875,0.9823071956634521,-0.625,0.03410911560058594,0.0625,0.03001880645751953,-0.078125,0.004679441452026367,-0.01953125,0.269134521484375,1.375,-0.17207956314086914,-2.5625,0.0446929931640625,-0.375,0.9924817085266113,-0.8125,-0.19345158338546753,0.0,0.07873868942260742,-0.361328125,0.026306629180908203,0.01953125,-0.0018919110298156738,-0.11186079680919647,0.0,0.0,0.0,0.0
2025-04-10 09:12:00.275707,0.270967960357666,1.125,0.18931317329406738,1.875,-0.010921716690063477,0.1875,0.9823071956634521,-0.625,0.03408527374267578,0.0625,0.03001117706298828,-0.078125,0.004679441452026367,-0.01953125,0.2691226005554199,1.375,-0.17207956314086914,-2.5625,0.0446929931640625,-0.375,0.992457389831543,-0.8125,-0.19346356391906738,0.0,0.07873868942260742,-0.361328125,0.026298999786376953,0.01953125,-0.0019052624702453613,-0.11186079680919647,0.0,0.0,0.0,0.0
2025-04-10 09:12:00.780989,0.2709920406341553,1.125,0.18930113315582275,1.9375,-0.010921716690063477,0.1875,0.9823071956634521,-0.625,0.03408527374267578,0.0625,0.03001880645751953,-0.087890625,0.004671812057495117,-0.009765625,0.269134521484375,1.3125,-0.17209196090698242,-2.5625,0.0446929931640625,-0.375,0.9924817085266113,-0.8125,-0.19347554445266724,0.0,0.07873868942260742,-0.37109375,0.026306629180908203,0.029296875,-0.0019052624702453613,-0.11186079680919647,0.0,0.0,0.0,0.0
2025-04-10 09:12:01.255970,0.2709920406341553,1.125,0.18930113315582275,1.875,-0.010921716690063477,0.1875,0.9823071956634521,-0.625,0.03410911560058594,0.0625,0.03001117706298828,-0.078125,0.004679441452026367,-0.01953125,0.2691226005554199,1.375,-0.17207956314086914,-2.5625,0.04470491409301758,-0.375,0.9925055503845215,-0.75,-0.19342762231826782,0.0,0.07873868942260742,-0.361328125,0.026306629180908203,0.01953125,-0.0019052624702453613,-0.11186079680919647,0.0,0.0,0.0,0.0
2025-04-10 09:12:01.734848,0.270967960357666,1.125,0.18931317329406738,1.9375,-0.010921716690063477,0.1875,0.9823191165924072,-0.625,0.03408527374267578,0.0625,0.03001117706298828,-0.078125,0.004679441452026367,-0.01953125,0.2691226005554199,1.3125,-0.17207956314086914,-2.5625,0.04470491409301758,-0.4375,0.9924817085266113,-0.75,-0.19346356391906738,0.0,0.07873868942260742,-0.37109375,0.026306629180908203,0.01953125,-0.0019052624702453613,-0.11186079680919647,0.0,0.0,0.0,0.0
2025-04-10 09:12:02.209924,0.270967960357666,1.125,0.18931317329406738,1.875,-0.010897636413574219,0.1875,0.9823191165924072,-0.625,0.03406119346618652,0.0625,0.03000354766845703,-0.078125,0.004671812057495117,-0.01953125,0.269134521484375,1.375,-0.17209196090698242,-2.5625,0.04470491409301758,-0.4375,0.992469310760498,-0.8125,-0.19345158338546753,0.0,0.07873868942260742,-0.37109375,0.026306629180908203,0.01953125,-0.0019052624702453613,-0.11186079680919647,0.0,0.0,0.0,0.0
2025-04-10 09:12:02.728546,0.270967960357666,1.125,0.18930113315582275,1.875,-0.010921716690063477,0.1875,0.9823191165924072,-0.625,0.03408527374267578,0.0625,0.03001117706298828,-0.068359375,0.004679441452026367,-0.01953125,0.2691226005554199,1.375,-0.17209196090698242,-2.5625,0.04470491409301758,-0.375,0.9924817085266113,-0.75,-0.19345158338546753,0.0,0.07873868942260742,-0.361328125,0.026298999786376953,0.029296875,-0.0019052624702453613,-0.11186079680919647,0.0,0.0,0.0,0.0
2025-04-10 09:12:03.231114,0.270967960357666,1.0625,0.18931317329406738,1.875,-0.010909557342529297,0.1875,0.9823191165924072,-0.625,0.03408527374267578,0.0625,0.03001880645751953,-0.078125,0.004679441452026367,-0.01953125,0.2691226005554199,1.3125,-0.17209196090698242,-2.5625,0.04470491409301758,-0.375,0.992469310760498,-0.8125,-0.19343960285186768,0.0,0.07873868942260742,-0.37109375,0.026306629180908203,0.0,-0.001878499984741211,-0.11186079680919647,0.0,0.0,0.0,0.0
2025-04-10 09:12:03.734693,0.2709920406341553,1.125,0.18931317329406738,1.875,-0.010909557342529297,0.1875,0.9823191165924072,-0.625,0.03409719467163086,0.0625,0.03001117706298828,-0.078125,0.004671812057495117,-0.01953125,0.269134521484375,1.3125,-0.17207956314086914,-2.5625,0.044669151306152344,-0.375,0.9924817085266113,-0.8125,-0.19343960285186768,0.0,0.07873868942260742,-0.3515625,0.026306629180908203,0.01953125,-0.0019052624702453613,-0.11186079680919647,0.0,0.0,0.0,0.0
2025-04-10 09:12:04.209808,0.270967960357666,1.125,0.18931317329406738,1.9375,-0.010933637619018555,0.1875,0.9823071956634521,-0.625,0.034133195877075195,0.0625,0.03001880645751953,-0.068359375,0.004671812057495117,-0.01953125,0.2691226005554199,1.375,-0.17209196090698242,-2.5625,0.0446929931640625,-0.3125,0.9924817085266113,-0.8125,-0.19343960285186768,0.0,0.07873868942260742,-0.361328125,0.026306629180908203,0.01953125,-0.0019052624702453613,-0.11186079680919647,0.0,0.0,0.0,0.0
2025-04-10 09:12:04.807600,0.2709920406341553,1.125,0.18928909301757812,1.875,-0.010921716690063477,0.1875,0.9823191165924072,-0.625,0.034133195877075195,0.0625,0.03001880645751953,-0.068359375,0.004671812057495117,0.0,0.269134521484375,1.375,-0.17207956314086914,-2.5625,0.04470491409301758,-0.3125,0.9924817085266113,-0.8125,-0.19343960285186768,0.0,0.07873868942260742,-0.361328125,0.026306629180908203,0.01953125,-0.0018919110298156738,-0.11186079680919647,0.0,0.0,0.0,0.0
2025-04-10 09:12:05.316299,0.2709920406341553,1.125,0.18931317329406738,1.875,-0.010909557342529297,0.1875,0.9823071956634521,-0.625,0.034133195877075195,0.0625,0.03001117706298828,-0.078125,0.004671812057495117,-0.009765625,0.269134521484375,1.375,-0.17209196090698242,-2.625,0.0446929931640625,-0.3125,0.9924817085266113,-0.8125,-0.19345158338546753,0.0,0.07873106002807617,-0.37109375,0.026306629180908203,0.01953125,-0.0019052624702453613,-0.11186079680919647,0.0,0.0,0.0,0.0
2025-04-10 09:12:05.803645,0.2709920406341553,1.125,0.18932509422302246,1.9375,-0.010909557342529297,0.1875,0.9823191165924072,-0.625,0.03415703773498535,0.125,0.03001117706298828,-0.068359375,0.004671812057495117,-0.009765625,0.2691226005554199,1.375,-0.17207956314086914,-2.5625,0.04470491409301758,-0.375,0.9924817085266113,-0.8125,-0.19343960285186768,0.0,0.07873106002807617,-0.361328125,0.026314258575439453,0.01953125,-0.0019052624702453613,-0.11186079680919647,0.0,0.0,0.0,0.0
2025-04-10 09:12:06.338473,0.2709920406341553,1.125,0.18931317329406738,1.875,-0.010921716690063477,0.1875,0.9823071956634521,-0.625,0.03414511680603027,0.0625,0.03001117706298828,-0.078125,0.004671812057495117,-0.009765625,0.2691226005554199,1.375,-0.17209196090698242,-2.5625,0.0446929931640625,-0.375,0.992469310760498,-0.8125,-0.19346356391906738,0.0,0.07873868942260742,-0.361328125,0.026306629180908203,0.01953125,-0.0019052624702453613,-0.11186079680919647,0.0,0.0,0.0,0.0
2025-04-10 09:12:06.862247,0.2709920406341553,1.125,0.18931317329406738,1.9375,-0.010909557342529297,0.1875,0.9823310375213623,-0.625,0.03414511680603027,0.0625,0.03001880645751953,-0.068359375,0.004679441452026367,-0.009765625,0.269134521484375,1.375,-0.17209196090698242,-2.5625,0.04470491409301758,-0.375,0.9924817085266113,-0.8125,-0.19346356391906738,0.0,0.07873106002807617,-0.361328125,0.026291370391845703,0.01953125,-0.0019186735153198242,-0.11186079680919647,0.0,0.0,0.0,0.0
2025-04-10 09:12:07.367461,0.2709920406341553,1.125,0.18931317329406738,1.875,-0.010909557342529297,0.1875,0.9823071956634521,-0.625,0.03408527374267578,0.0625,0.03001880645751953,-0.078125,0.004671812057495117,-0.01953125,0.269134521484375,1.375,-0.17209196090698242,-2.5625,0.04470491409301758,-0.3125,0.9924817085266113,-0.8125,-0.19345158338546753,0.0,0.07873106002807617,-0.361328125,0.026306629180908203,0.01953125,-0.0019052624702453613,-0.11186079680919647,0.0,0.0,0.0,0.0
2025-04-10 09:12:07.854763,0.270967960357666,1.125,0.18932509422302246,1.875,-0.010921716690063477,0.1875,0.9823071956634521,-0.625,0.034133195877075195,0.0625,0.03001880645751953,-0.068359375,0.004671812057495117,-0.009765625,0.269134521484375,1.375,-0.17209196090698242,-2.5625,0.0446929931640625,-0.375,0.9924817085266113,-0.75,-0.19343960285186768,0.0,0.07873106002807617,-0.361328125,0.026298999786376953,0.01953125,-0.0019052624702453613,-0.11186079680919647,0.0,0.0,0.0,0.0
2025-04-10 09:12:08.339388,0.2709920406341553,1.125,0.18931317329406738,1.875,-0.010909557342529297,0.1875,0.9823191165924072,-0.625,0.03409719467163086,0.0625,0.03001880645751953,-0.068359375,0.004664182662963867,-0.01953125,0.2691226005554199,1.375,-0.17209196090698242,-2.625,0.0446929931640625,-0.3125,0.9924817085266113,-0.8125,-0.19346356391906738,0.0,0.07870769500732422,-0.361328125,0.026314258575439453,0.01953125,-0.001878499984741211,-0.11186079680919647,0.0,0.0,0.0,0.0
2025-04-10 09:12:08.814221,0.270967960357666,1.125,0.18931317329406738,1.875,-0.010921716690063477,0.1875,0.9823071956634521,-0.5625,0.03414511680603027,0.0625,0.03001117706298828,-0.068359375,0.004671812057495117,-0.01953125,0.2691226005554199,1.375,-0.17209196090698242,-2.5625,0.04470491409301758,-0.3125,0.992457389831543,-0.8125,-0.19343960285186768,0.0,0.07870769500732422,-0.37109375,0.026306629180908203,0.01953125,-0.0019186735153198242,-0.11186079680919647,0.0,0.0,0.0,0.0
2025-04-10 09:12:09.310258,0.2709920406341553,1.125,0.18931317329406738,1.875,-0.010921716690063477,0.1875,0.9823071956634521,-0.625,0.03414511680603027,0.0625,0.03001880645751953,-0.068359375,0.004671812057495117,-0.01953125,0.269134521484375,1.3125,-0.17209196090698242,-2.5625,0.0446929931640625,-0.375,0.992469310760498,-0.8125,-0.19343960285186768,0.0,0.07872343063354492,-0.37109375,0.026298999786376953,0.01953125,-0.0019052624702453613,-0.11186079680919647,0.0,0.0,0.0,0.0
2025-04-10 09:12:09.785206,0.2709920406341553,1.125,0.18931317329406738,1.875,-0.010921716690063477,0.1875,0.9823071956634521,-0.625,0.03414511680603027,0.0625,0.03001880645751953,-0.078125,0.004671812057495117,-0.01953125,0.2691226005554199,1.375,-0.17209196090698242,-2.5625,0.04470491409301758,-0.375,0.992469310760498,-0.8125,-0.19343960285186768,0.0,0.07871532440185547,-0.37109375,0.026314258575439453,0.0,-0.0019052624702453613,-0.11186079680919647,0.0,0.0,0.0,0.0
2025-04-10 09:12:10.288675,0.2709920406341553,1.1875,0.18930113315582275,1.875,-0.010921716690063477,0.1875,0.9823071956634521,-0.625,0.03412127494812012,0.0625,0.03001117706298828,-0.078125,0.004671812057495117,-0.01953125,0.269134521484375,1.375,-0.17209196090698242,-2.5625,0.04471707344055176,-0.3125,0.992469310760498,-0.8125,-0.19343960285186768,0.0,0.07872343063354492,-0.361328125,0.026298999786376953,0.01953125,-0.0018919110298156738,-0.11186079680919647,0.0,0.0,0.0,0.0
2025-04-10 09:12:10.763706,0.2709920406341553,1.125,0.18931317329406738,1.9375,-0.010921716690063477,0.1875,0.9823191165924072,-0.625,0.03412127494812012,0.0625,0.03001880645751953,-0.068359375,0.004679441452026367,-0.01953125,0.269134521484375,1.375,-0.17207956314086914,-2.5625,0.0446929931640625,-0.375,0.992469310760498,-0.8125,-0.19346356391906738,0.0,0.07871532440185547,-0.361328125,0.026306629180908203,0.01953125,-0.0019052624702453613,-0.11186079680919647,0.0,0.0,0.0,0.0
2025-04-10 09:12:11.238591,0.2709920406341553,1.125,0.18931317329406738,1.875,-0.010909557342529297,0.1875,0.9823071956634521,-0.625,0.03409719467163086,0.0625,0.03001880645751953,-0.078125,0.004679441452026367,-0.01953125,0.2691226005554199,1.375,-0.17209196090698242,-2.5625,0.04470491409301758,-0.3125,0.992469310760498,-0.8125,-0.19343960285186768,0.0,0.07870769500732422,-0.37109375,0.026306629180908203,0.01953125,-0.0019052624702453613,-0.11186079680919647,0.0,0.0,0.0,0.0
2025-04-10 09:12:11.733204,0.2709920406341553,1.125,0.18931317329406738,1.875,-0.010921716690063477,0.1875,0.9823071956634521,-0.625,0.03416919708251953,0.0625,0.03001117706298828,-0.078125,0.004671812057495117,-0.009765625,0.2691226005554199,1.375,-0.17209196090698242,-2.5625,0.0446929931640625,-0.375,0.992469310760498,-0.8125,-0.19342762231826782,0.0,0.07871532440185547,-0.3515625,0.026306629180908203,0.01953125,-0.0019052624702453613,-0.11186079680919647,0.0,0.0,0.0,0.0
2025-04-10 09:12:12.201877,0.2709920406341553,1.125,0.18930113315582275,1.875,-0.010921716690063477,0.1875,0.9823071956634521,-0.625,0.03416919708251953,0.0625,0.03000354766845703,-0.068359375,0.004679441452026367,-0.029296875,0.2691226005554199,1.375,-0.17209196090698242,-2.5625,0.0446929931640625,-0.3125,0.992469310760498,-0.8125,-0.19347554445266724,0.0,0.07872343063354492,-0.37109375,0.026306629180908203,0.01953125,-0.0019052624702453613,-0.11186079680919647,0.0,0.0,0.0,0.0
2025-04-10 09:12:12.677209,0.2709920406341553,1.125,0.18931317329406738,1.9375,-0.010909557342529297,0.1875,0.9823191165924072,-0.625,0.03416919708251953,0.0625,0.03001880645751953,-0.078125,0.004671812057495117,-0.01953125,0.269134521484375,1.375,-0.17209196090698242,-2.5625,0.04470491409301758,-0.3125,0.9924817085266113,-0.8125,-0.19346356391906738,0.0,0.07871532440185547,-0.361328125,0.026306629180908203,0.0,-0.0019052624702453613,-0.11186079680919647,0.0,0.0,0.0,0.0
2025-04-10 09:12:13.151926,0.2709920406341553,1.1875,0.18931317329406738,1.875,-0.010921716690063477,0.1875,0.9823071956634521,-0.625,0.03415703773498535,0.0625,0.03001880645751953,-0.068359375,0.004671812057495117,-0.01953125,0.2691226005554199,1.3125,-0.17209196090698242,-2.5625,0.0446929931640625,-0.3125,0.992469310760498,-0.8125,-0.19345158338546753,0.0,0.07871532440185547,-0.361328125,0.026298999786376953,0.01953125,-0.0019052624702453613,-0.11186079680919647,0.0,0.0,0.0,0.0
2025-04-10 09:12:13.627372,0.2709920406341553,1.125,0.18931317329406738,1.9375,-0.010921716690063477,0.1875,0.9823071956634521,-0.625,0.03414511680603027,0.0625,0.03001117706298828,-0.078125,0.004671812057495117,-0.01953125,0.269134521484375,1.375,-0.17211580276489258,-2.625,0.04470491409301758,-0.375,0.9924817085266113,-0.8125,-0.19343960285186768,0.0,0.07871532440185547,-0.37109375,0.026306629180908203,0.01953125,-0.0019052624702453613,-0.11186079680919647,0.0,0.0,0.0,0.0
2025-04-10 09:12:14.109705,0.2709920406341553,1.125,0.18930113315582275,1.875,-0.010921716690063477,0.1875,0.9823071956634521,-0.625,0.03408527374267578,0.0625,0.03001880645751953,-0.078125,0.004679441452026367,-0.01953125,0.269134521484375,1.375,-0.17209196090698242,-2.5625,0.0446929931640625,-0.375,0.992469310760498,-0.8125,-0.19346356391906738,0.0,0.07871532440185547,-0.37109375,0.026306629180908203,0.01953125,-0.0018919110298156738,-0.11186079680919647,0.0,0.0,0.0,0.0
2025-04-10 09:12:14.584651,0.2709920406341553,1.125,0.18931317329406738,1.875,-0.010921716690063477,0.1875,0.9823191165924072,-0.625,0.03410911560058594,0.0625,0.03001880645751953,-0.068359375,0.004679441452026367,-0.01953125,0.2691226005554199,1.375,-0.17209196090698242,-2.5625,0.0446929931640625,-0.3125,0.992469310760498,-0.8125,-0.19346356391906738,0.0,0.07870006561279297,-0.37109375,0.026298999786376953,0.01953125,-0.0019052624702453613,-0.11186079680919647,0.0,0.0,0.0,0.0
2025-04-10 09:12:15.065549,0.2709920406341553,1.125,0.18931317329406738,1.875,-0.010909557342529297,0.1875,0.9823071956634521,-0.625,0.03410911560058594,0.0625,0.03001880645751953,-0.078125,0.004671812057495117,-0.01953125,0.2691226005554199,1.375,-0.17209196090698242,-2.5625,0.0446929931640625,-0.3125,0.9924817085266113,-0.8125,-0.19343960285186768,0.0,0.07871532440185547,-0.37109375,0.026306629180908203,0.01953125,-0.0019052624702453613,-0.11186079680919647,0.0,0.0,0.0,0.0
2025-04-10 09:12:15.559742,0.270967960357666,1.125,0.18931317329406738,1.875,-0.010909557342529297,0.1875,0.9823071956634521,-0.625,0.034133195877075195,0.0625,0.03001880645751953,-0.068359375,0.004679441452026367,-0.01953125,0.2691226005554199,1.375,-0.17207956314086914,-2.5625,0.0446929931640625,-0.375,0.9924335479736328,-0.8125,-0.19343960285186768,0.0,0.07871532440185547,-0.361328125,0.026298999786376953,0.0,-0.0019052624702453613,-0.11186079680919647,0.0,0.0,0.0,0.0
2025-04-10 09:12:16.057107,0.2709920406341553,1.125,0.18931317329406738,1.875,-0.010921716690063477,0.1875,0.9823191165924072,-0.625,0.03412127494812012,0.0625,0.03001880645751953,-0.068359375,0.004671812057495117,-0.009765625,0.2691226005554199,1.375,-0.17209196090698242,-2.5625,0.0446929931640625,-0.3125,0.992469310760498,-0.8125,-0.19345158338546753,0.0,0.07870769500732422,-0.37109375,0.026298999786376953,0.01953125,-0.0019052624702453613,-0.11186079680919647,0.0,0.0,0.0,0.0
2025-04-10 09:12:16.532156,0.2709920406341553,1.125,0.18931317329406738,1.875,-0.010921716690063477,0.1875,0.9823071956634521,-0.625,0.034133195877075195,0.0625,0.03001117706298828,-0.078125,0.004679441452026367,-0.01953125,0.2691226005554199,1.375,-0.17211580276489258,-2.5625,0.0446929931640625,-0.3125,0.992469310760498,-0.8125,-0.19346356391906738,0.0,0.07871532440185547,-0.3515625,0.026298999786376953,0.01953125,-0.0019052624702453613,-0.11186079680919647,0.0,0.0,0.0,0.0
2025-04-10 09:12:17.020550,0.2709920406341553,1.125,0.18931317329406738,1.875,-0.010909557342529297,0.1875,0.9823071956634521,-0.625,0.03414511680603027,0.0625,0.03001880645751953,-0.068359375,0.004679441452026367,-0.01953125,0.2691226005554199,1.3125,-0.17209196090698242,-2.5625,0.0446929931640625,-0.3125,0.992469310760498,-0.75,-0.19343960285186768,0.0,0.07870769500732422,-0.37109375,0.026298999786376953,0.0,-0.0018919110298156738,-0.11186079680919647,0.0,0.0,0.0,0.0
2025-04-10 09:12:17.503814,0.2709920406341553,1.125,0.18931317329406738,1.9375,-0.010909557342529297,0.1875,0.9823310375213623,-0.625,0.03410911560058594,0.0625,0.03001117706298828,-0.068359375,0.004679441452026367,-0.01953125,0.2691226005554199,1.375,-0.17209196090698242,-2.5625,0.04470491409301758,-0.3125,0.992469310760498,-0.875,-0.19343960285186768,0.0,0.07870769500732422,-0.37109375,0.026306629180908203,0.029296875,-0.001878499984741211,-0.11186079680919647,0.0,0.0,0.0,0.0
2025-04-10 09:12:17.979043,0.2709920406341553,1.125,0.18931317329406738,1.875,-0.010921716690063477,0.1875,0.9823071956634521,-0.625,0.03410911560058594,0.0625,0.03001117706298828,-0.078125,0.004671812057495117,-0.01953125,0.2691226005554199,1.375,-0.17209196090698242,-2.625,0.0446929931640625,-0.3125,0.992469310760498,-0.8125,-0.19347554445266724,0.0,0.07870769500732422,-0.361328125,0.026306629180908203,0.01953125,-0.0019052624702453613,-0.11186079680919647,0.0,0.0,0.0,0.0
2025-04-10 09:12:18.454498,0.270967960357666,1.125,0.18931317329406738,1.875,-0.010921716690063477,0.1875,0.9823071956634521,-0.625,0.034133195877075195,0.0625,0.03001117706298828,-0.068359375,0.004671812057495117,-0.009765625,0.269134521484375,1.375,-0.17209196090698242,-2.5625,0.0446929931640625,-0.375,0.992469310760498,-0.8125,-0.19342762231826782,0.0,0.07870006561279297,-0.3515625,0.026306629180908203,0.01953125,-0.0019052624702453613,-0.11186079680919647,0.0,0.0,0.0,0.0
2025-04-10 09:12:18.953829,0.2709920406341553,1.125,0.18932509422302246,1.875,-0.010921716690063477,0.1875,0.9823191165924072,-0.625,0.03408527374267578,0.0625,0.03001117706298828,-0.068359375,0.004671812057495117,-0.01953125,0.269134521484375,1.375,-0.17209196090698242,-2.625,0.0446929931640625,-0.3125,0.992469310760498,-0.8125,-0.19345158338546753,0.0,0.07870769500732422,-0.361328125,0.026306629180908203,0.01953125,-0.0019052624702453613,-0.11186079680919647,0.0,0.0,0.0,0.0
2025-04-10 09:12:19.477176,0.2709920406341553,1.125,0.18932509422302246,1.875,-0.010909557342529297,0.1875,0.9823071956634521,-0.625,0.03408527374267578,0.0625,0.03001880645751953,-0.068359375,0.004679441452026367,-0.009765625,0.269134521484375,1.375,-0.17209196090698242,-2.5,0.0446929931640625,-0.3125,0.992457389831543,-0.8125,-0.19343960285186768,0.0,0.07871532440185547,-0.361328125,0.026306629180908203,0.01953125,-0.0019052624702453613,-0.11186079680919647,0.0,0.0,0.0,0.0
2025-04-10 09:12:19.965701,0.2709920406341553,1.125,0.18931317329406738,1.875,-0.010909557342529297,0.1875,0.9823191165924072,-0.625,0.034133195877075195,0.0625,0.03001880645751953,-0.068359375,0.004671812057495117,-0.009765625,0.269134521484375,1.375,-0.17211580276489258,-2.5625,0.0446929931640625,-0.3125,0.992457389831543,-0.8125,-0.19343960285186768,0.0,0.07871532440185547,-0.361328125,0.026306629180908203,0.029296875,-0.0019052624702453613,-0.11186079680919647,0.0,0.0,0.0,0.0
2025-04-10 09:12:20.433840,0.2709920406341553,1.125,0.18932509422302246,1.875,-0.010921716690063477,0.1875,0.9823191165924072,-0.625,0.03410911560058594,0.0625,0.03001117706298828,-0.078125,0.004679441452026367,-0.01953125,0.269134521484375,1.375,-0.17211580276489258,-2.5625,0.04470491409301758,-0.375,0.992469310760498,-0.8125,-0.19343960285186768,0.0,0.07870769500732422,-0.361328125,0.026306629180908203,0.029296875,-0.0019052624702453613,-0.11186079680919647,0.0,0.0,0.0,0.0
2025-04-10 09:12:20.951491,0.2709920406341553,1.125,0.18932509422302246,1.875,-0.010921716690063477,0.1875,0.9823071956634521,-0.625,0.03415703773498535,0.0625,0.03001117706298828,-0.068359375,0.004679441452026367,-0.01953125,0.269134521484375,1.375,-0.17209196090698242,-2.5625,0.04468107223510742,-0.3125,0.992469310760498,-0.8125,-0.19343960285186768,0.0,0.07870769500732422,-0.361328125,0.026298999786376953,0.01953125,-0.0019052624702453613,-0.11186079680919647,0.0,0.0,0.0,0.0
2025-04-10 09:12:21.428609,0.2709920406341553,1.125,0.18932509422302246,1.875,-0.010909557342529297,0.1875,0.9823191165924072,-0.625,0.03408527374267578,0.0625,0.03001880645751953,-0.078125,0.004671812057495117,-0.01953125,0.269134521484375,1.375,-0.17211580276489258,-2.5625,0.0446929931640625,-0.3125,0.992457389831543,-0.8125,-0.19345158338546753,0.0,0.07870769500732422,-0.361328125,0.026298999786376953,0.01953125,-0.0018919110298156738,-0.11186079680919647,0.0,0.0,0.0,0.0
2025-04-10 09:12:21.907042,0.2709920406341553,1.0625,0.18931317329406738,1.875,-0.010909557342529297,0.1875,0.9823191165924072,-0.625,0.03412127494812012,0.0625,0.03001117706298828,-0.078125,0.004671812057495117,-0.01953125,0.269134521484375,1.375,-0.1721038818359375,-2.5625,0.0446929931640625,-0.3125,0.9924817085266113,-0.8125,-0.19341564178466797,0.0,0.07870769500732422,-0.361328125,0.026306629180908203,0.01953125,-0.0019052624702453613,-0.11186079680919647,0.0,0.0,0.0,0.0
2025-04-10 09:12:22.390047,0.2709920406341553,1.125,0.18931317329406738,1.875,-0.010909557342529297,0.1875,0.9823191165924072,-0.625,0.03414511680603027,0.0625,0.03001880645751953,-0.068359375,0.004679441452026367,-0.01953125,0.269134521484375,1.375,-0.17209196090698242,-2.625,0.04470491409301758,-0.3125,0.9924817085266113,-0.8125,-0.19343960285186768,0.0,0.07870769500732422,-0.37109375,0.026306629180908203,0.01953125,-0.0019052624702453613,-0.11186079680919647,0.0,0.0,0.0,0.0
2025-04-10 09:12:22.889753,0.2709920406341553,1.125,0.18931317329406738,1.875,-0.010909557342529297,0.1875,0.9823071956634521,-0.625,0.03410911560058594,0.0625,0.03001880645751953,-0.068359375,0.004671812057495117,-0.029296875,0.2691466808319092,1.375,-0.17211580276489258,-2.5625,0.04470491409301758,-0.375,0.992457389831543,-0.8125,-0.19345158338546753,0.0,0.07870006561279297,-0.361328125,0.026306629180908203,0.01953125,-0.0018919110298156738,-0.11186079680919647,0.0,0.0,0.0,0.0
2025-04-10 09:12:23.364911,0.2709920406341553,1.125,0.18931317329406738,1.875,-0.010921716690063477,0.1875,0.9823071956634521,-0.625,0.03410911560058594,0.0625,0.03001880645751953,-0.078125,0.004671812057495117,-0.01953125,0.2691466808319092,1.3125,-0.17209196090698242,-2.5,0.0446929931640625,-0.3125,0.992469310760498,-0.8125,-0.19343960285186768,0.0,0.07870769500732422,-0.361328125,0.026306629180908203,0.01953125,-0.0019052624702453613,-0.11186079680919647,0.0,0.0,0.0,0.0
2025-04-10 09:12:23.893207,0.2709920406341553,1.125,0.18932509422302246,1.875,-0.010909557342529297,0.1875,0.9823071956634521,-0.625,0.03412127494812012,0.0625,0.03001880645751953,-0.078125,0.004671812057495117,-0.01953125,0.2691226005554199,1.375,-0.17209196090698242,-2.5625,0.0446929931640625,-0.375,0.992469310760498,-0.8125,-0.19345158338546753,0.0,0.07870006561279297,-0.37109375,0.026306629180908203,0.01953125,-0.0019052624702453613,-0.11186079680919647,0.0,0.0,0.0,0.0
2025-04-10 09:12:24.368581,0.2709920406341553,1.125,0.18931317329406738,1.875,-0.010921716690063477,0.1875,0.9823071956634521,-0.625,0.03414511680603027,0.0625,0.03001117706298828,-0.078125,0.004671812057495117,-0.01953125,0.269134521484375,1.375,-0.1721038818359375,-2.625,0.0446929931640625,-0.3125,0.992469310760498,-0.8125,-0.19345158338546753,0.0,0.07871532440185547,-0.3515625,0.026306629180908203,0.01953125,-0.0019052624702453613,-0.11186079680919647,0.0,0.0,0.0,0.0
2025-04-10 09:12:24.872400,0.2709920406341553,1.125,0.18931317329406738,1.875,-0.010921716690063477,0.1875,0.9823071956634521,-0.625,0.034133195877075195,0.0625,0.03001880645751953,-0.068359375,0.004671812057495117,-0.01953125,0.2691226005554199,1.375,-0.17211580276489258,-2.5625,0.0446929931640625,-0.3125,0.992469310760498,-0.8125,-0.19346356391906738,0.0,0.07870006561279297,-0.37109375,0.026306629180908203,0.01953125,-0.0019052624702453613,-0.11186079680919647,0.0,0.0,0.0,0.0
2025-04-10 09:12:25.355871,0.2709920406341553,1.125,0.18932509422302246,1.875,-0.010909557342529297,0.1875,0.9823071956634521,-0.625,0.03410911560058594,0.0625,0.03001117706298828,-0.068359375,0.004679441452026367,-0.01953125,0.269134521484375,1.3125,-0.17211580276489258,-2.5625,0.0446929931640625,-0.375,0.9924817085266113,-0.8125,-0.19346356391906738,0.0,0.07870769500732422,-0.3515625,0.026298999786376953,0.01953125,-0.0019052624702453613,-0.1677911877632141,0.0,0.0,0.0,0.0
2025-04-10 09:12:25.830871,0.2709920406341553,1.125,0.18932509422302246,1.875,-0.010921716690063477,0.1875,0.9823191165924072,-0.625,0.03408527374267578,0.0625,0.03001117706298828,-0.068359375,0.004671812057495117,-0.009765625,0.269134521484375,1.375,-0.17209196090698242,-2.5625,0.0446929931640625,-0.3125,0.992469310760498,-0.8125,-0.19345158338546753,0.0,0.07870769500732422,-0.361328125,0.026298999786376953,0.01953125,-0.0019052624702453613,-0.11186079680919647,0.0,0.0,0.0,0.0
2025-04-10 09:12:26.343017,0.2709920406341553,1.125,0.18932509422302246,1.9375,-0.010921716690063477,0.1875,0.9823071956634521,-0.625,0.034133195877075195,0.0625,0.03001880645751953,-0.078125,0.004679441452026367,-0.01953125,0.2691226005554199,1.375,-0.17209196090698242,-2.5625,0.0446929931640625,-0.3125,0.9924817085266113,-0.8125,-0.19345158338546753,0.0,0.07870006561279297,-0.37109375,0.026306629180908203,0.01953125,-0.0019052624702453613,-0.11186079680919647,0.0,0.0,0.0,0.0
2025-04-10 09:12:26.817950,0.2709920406341553,1.125,0.18932509422302246,1.9375,-0.010921716690063477,0.1875,0.9823071956634521,-0.625,0.03415703773498535,0.0625,0.03001117706298828,-0.068359375,0.004679441452026367,-0.01953125,0.2691226005554199,1.375,-0.17209196090698242,-2.5625,0.04470491409301758,-0.375,0.992457389831543,-0.8125,-0.19345158338546753,0.0,0.07869243621826172,-0.37109375,0.026306629180908203,0.01953125,-0.0019052624702453613,-0.11186079680919647,0.0,0.0,0.0,0.0
2025-04-10 09:12:27.293109,0.2709920406341553,1.125,0.18931317329406738,1.875,-0.010921716690063477,0.1875,0.9823071956634521,-0.625,0.03412127494812012,0.0625,0.03001117706298828,-0.068359375,0.004671812057495117,0.0,0.2691226005554199,1.375,-0.17211580276489258,-2.5625,0.0446929931640625,-0.3125,0.9924817085266113,-0.8125,-0.19342762231826782,0.0,0.07870006561279297,-0.361328125,0.026306629180908203,0.01953125,-0.0019052624702453613,-0.11186079680919647,0.0,0.0,0.0,0.0
2025-04-10 09:12:27.784249,0.2709920406341553,1.125,0.18931317329406738,1.875,-0.010921716690063477,0.1875,0.9823071956634521,-0.625,0.03412127494812012,0.0625,0.03001880645751953,-0.068359375,0.004679441452026367,-0.01953125,0.2691226005554199,1.375,-0.1721038818359375,-2.5625,0.0446929931640625,-0.375,0.992469310760498,-0.8125,-0.19346356391906738,0.0,0.07870006561279297,-0.361328125,0.026314258575439453,0.01953125,-0.0019052624702453613,-0.11186079680919647,0.0,0.0,0.0,0.0
2025-04-10 09:12:28.267831,0.2709920406341553,1.125,0.18932509422302246,1.875,-0.010909557342529297,0.1875,0.9823071956634521,-0.625,0.03418111801147461,0.0625,0.03001880645751953,-0.078125,0.004671812057495117,-0.009765625,0.269134521484375,1.375,-0.1721038818359375,-2.5625,0.0446929931640625,-0.3125,0.992457389831543,-0.8125,-0.19346356391906738,0.0,0.07870006561279297,-0.361328125,0.026306629180908203,0.01953125,-0.0019052624702453613,-0.11186079680919647,0.0,0.0,0.0,0.0
2025-04-10 09:12:28.778019,0.2709920406341553,1.1875,0.18931317329406738,1.875,-0.010921716690063477,0.1875,0.9823191165924072,-0.625,0.03414511680603027,0.0625,0.03001117706298828,-0.078125,0.004679441452026367,-0.01953125,0.2691226005554199,1.375,-0.17211580276489258,-2.5625,0.0446929931640625,-0.375,0.9924817085266113,-0.8125,-0.19343960285186768,0.0,0.07870006561279297,-0.361328125,0.026306629180908203,0.01953125,-0.0018919110298156738,-0.1677911877632141,0.0,0.0,0.0,0.0
2025-04-10 09:12:29.252876,0.2709920406341553,1.125,0.18932509422302246,1.875,-0.010909557342529297,0.1875,0.9823191165924072,-0.625,0.03410911560058594,0.0625,0.03001117706298828,-0.068359375,0.004671812057495117,-0.01953125,0.269134521484375,1.3125,-0.17209196090698242,-2.5625,0.04470491409301758,-0.3125,0.9924817085266113,-0.8125,-0.19343960285186768,0.0,0.07869243621826172,-0.37109375,0.026306629180908203,0.01953125,-0.0019052624702453613,-0.11186079680919647,0.0,0.0,0.0,0.0
2025-04-10 09:12:29.761043,0.2709920406341553,1.125,0.18932509422302246,1.9375,-0.010921716690063477,0.1875,0.9823071956634521,-0.625,0.03414511680603027,0.0625,0.03001117706298828,-0.068359375,0.004671812057495117,-0.01953125,0.2691466808319092,1.375,-0.17211580276489258,-2.5625,0.0446929931640625,-0.3125,0.992469310760498,-0.8125,-0.19343960285186768,0.0,0.07869243621826172,-0.390625,0.026314258575439453,0.01953125,-0.0019052624702453613,-0.11186079680919647,0.0,0.0,0.0,0.0
2025-04-10 09:12:30.235919,0.2709920406341553,1.125,0.18932509422302246,1.9375,-0.010921716690063477,0.1875,0.9823191165924072,-0.625,0.03412127494812012,0.0625,0.03001117706298828,-0.068359375,0.004671812057495117,-0.01953125,0.26911067962646484,1.375,-0.17209196090698242,-2.5625,0.0446929931640625,-0.375,0.9924817085266113,-0.8125,-0.19345158338546753,0.0,0.07869243621826172,-0.37109375,0.026306629180908203,0.01953125,-0.0019052624702453613,-0.11186079680919647,0.0,0.0,0.0,0.0
2025-04-10 09:12:30.733560,0.2709920406341553,1.125,0.18931317329406738,1.9375,-0.010921716690063477,0.1875,0.9823191165924072,-0.625,0.03412127494812012,0.125,0.03001117706298828,-0.068359375,0.004671812057495117,-0.01953125,0.2691226005554199,1.3125,-0.17209196090698242,-2.5625,0.04470491409301758,-0.3125,0.992469310760498,-0.8125,-0.19343960285186768,0.0,0.07870769500732422,-0.361328125,0.026306629180908203,0.01953125,-0.0018919110298156738,-0.11186079680919647,0.0,0.0,0.0,0.0
2025-04-10 09:12:31.207227,0.2709920406341553,1.125,0.18932509422302246,1.875,-0.010921716690063477,0.1875,0.9823071956634521,-0.625,0.03408527374267578,0.0625,0.03001880645751953,-0.068359375,0.004679441452026367,-0.009765625,0.2691226005554199,1.375,-0.17209196090698242,-2.5625,0.0446929931640625,-0.375,0.992457389831543,-0.8125,-0.19346356391906738,0.0,0.07870006561279297,-0.361328125,0.026306629180908203,0.01953125,-0.0019052624702453613,-0.11186079680919647,0.0,0.0,0.0,0.0
2025-04-10 09:12:31.779761,0.2709920406341553,1.125,0.18932509422302246,1.875,-0.010921716690063477,0.1875,0.9823191165924072,-0.625,0.03409719467163086,0.0625,0.03002643585205078,-0.078125,0.004664182662963867,-0.01953125,0.269134521484375,1.375,-0.17209196090698242,-2.5625,0.0446929931640625,-0.375,0.9924817085266113,-0.8125,-0.19345158338546753,0.0,0.07869243621826172,-0.3515625,0.026298999786376953,0.0,-0.0019052624702453613,-0.11186079680919647,0.0,0.0,0.0,0.0
2025-04-10 09:12:32.254792,0.2709920406341553,1.125,0.18931317329406738,1.875,-0.010921716690063477,0.1875,0.9823071956634521,-0.625,0.03410911560058594,0.0625,0.03001117706298828,-0.078125,0.004656314849853516,-0.009765625,0.269134521484375,1.375,-0.17211580276489258,-2.5625,0.0446929931640625,-0.3125,0.992469310760498,-0.8125,-0.19343960285186768,0.0,0.07870006561279297,-0.361328125,0.026306629180908203,0.01953125,-0.0019052624702453613,-0.11186079680919647,0.0,0.0,0.0,0.0
2025-04-10 09:12:32.731852,0.2709920406341553,1.1875,0.18930113315582275,1.875,-0.010945558547973633,0.1875,0.9823071956634521,-0.625,0.03414511680603027,0.0625,0.03001117706298828,-0.078125,0.004671812057495117,-0.01953125,0.269134521484375,1.375,-0.17209196090698242,-2.5625,0.0446929931640625,-0.375,0.9924817085266113,-0.875,-0.19345158338546753,0.0,0.07870006561279297,-0.361328125,0.026306629180908203,0.01953125,-0.001878499984741211,-0.11186079680919647,0.0,0.0,0.0,0.0
2025-04-10 09:12:33.207696,0.2709920406341553,1.125,0.18930113315582275,1.875,-0.010921716690063477,0.1875,0.9823071956634521,-0.625,0.03410911560058594,0.0625,0.03002643585205078,-0.078125,0.004671812057495117,-0.01953125,0.2691226005554199,1.375,-0.17209196090698242,-2.5625,0.04471707344055176,-0.3125,0.992469310760498,-0.8125,-0.19343960285186768,0.0,0.07870006561279297,-0.361328125,0.026314258575439453,0.01953125,-0.0019052624702453613,-0.11186079680919647,0.0,0.0,0.0,0.0
2025-04-10 09:12:33.723448,0.2709920406341553,1.125,0.18932509422302246,1.9375,-0.010909557342529297,0.1875,0.9823071956634521,-0.625,0.03409719467163086,0.0625,0.03000354766845703,-0.068359375,0.004679441452026367,-0.009765625,0.2691226005554199,1.375,-0.1721038818359375,-2.5625,0.0446929931640625,-0.3125,0.992469310760498,-0.8125,-0.19345158338546753,0.0,0.07869243621826172,-0.37109375,0.026306629180908203,0.01953125,-0.0019052624702453613,-0.11186079680919647,0.0,0.0,0.0,0.0
2025-04-10 09:12:34.225238,0.2709920406341553,1.1875,0.18931317329406738,1.9375,-0.010921716690063477,0.1875,0.9822952747344971,-0.625,0.03415703773498535,0.0625,0.03001880645751953,-0.068359375,0.004671812057495117,-0.01953125,0.2691226005554199,1.375,-0.17209196090698242,-2.5625,0.04470491409301758,-0.375,0.992457389831543,-0.8125,-0.19343960285186768,0.0,0.07869243621826172,-0.361328125,0.026306629180908203,0.01953125,-0.0018919110298156738,-0.11186079680919647,0.0,0.0,0.0,0.0
2025-04-10 09:12:34.700998,0.2709920406341553,1.125,0.18932509422302246,1.875,-0.010921716690063477,0.1875,0.9823310375213623,-0.625,0.03410911560058594,0.0625,0.03001117706298828,-0.078125,0.004679441452026367,-0.01953125,0.26911067962646484,1.375,-0.17209196090698242,-2.5625,0.0446929931640625,-0.375,0.992469310760498,-0.8125,-0.19343960285186768,0.0,0.07869243621826172,-0.361328125,0.026306629180908203,0.01953125,-0.0018919110298156738,-0.11186079680919647,0.0,0.0,0.0,0.0
2025-04-10 09:12:35.190439,0.2709920406341553,1.1875,0.18932509422302246,1.9375,-0.010921716690063477,0.1875,0.9823071956634521,-0.625,0.03412127494812012,0.0625,0.03001117706298828,-0.068359375,0.004679441452026367,-0.009765625,0.2691226005554199,1.375,-0.17209196090698242,-2.5625,0.0446929931640625,-0.3125,0.9924817085266113,-0.8125,-0.19342762231826782,0.0,0.07869243621826172,-0.361328125,0.026306629180908203,0.01953125,-0.0019052624702453613,-0.11186079680919647,0.0,0.0,0.0,0.0
2025-04-10 09:12:35.670051,0.2709920406341553,1.125,0.18932509422302246,1.875,-0.010909557342529297,0.1875,0.9823071956634521,-0.625,0.03412127494812012,0.0625,0.03001117706298828,-0.068359375,0.004671812057495117,-0.01953125,0.2691226005554199,1.375,-0.17211580276489258,-2.5625,0.0446929931640625,-0.375,0.992469310760498,-0.8125,-0.19343960285186768,0.0,0.07868480682373047,-0.361328125,0.026306629180908203,0.01953125,-0.0019052624702453613,-0.11186079680919647,0.0,0.0,0.0,0.0
2025-04-10 09:12:36.144941,0.2709920406341553,1.125,0.18932509422302246,1.875,-0.010921716690063477,0.1875,0.9823071956634521,-0.625,0.034133195877075195,0.0625,0.03001880645751953,-0.068359375,0.004664182662963867,-0.01953125,0.26911067962646484,1.375,-0.17209196090698242,-2.5625,0.0446929931640625,-0.3125,0.992469310760498,-0.8125,-0.19343960285186768,0.0,0.07869243621826172,-0.361328125,0.026298999786376953,0.01953125,-0.0019052624702453613,-0.11186079680919647,0.0,0.0,0.0,0.0
2025-04-10 09:12:36.624986,0.2709920406341553,1.125,0.18932509422302246,1.875,-0.010921716690063477,0.1875,0.9823071956634521,-0.625,0.03409719467163086,0.0625,0.03001117706298828,-0.068359375,0.004679441452026367,-0.009765625,0.2691226005554199,1.375,-0.17211580276489258,-2.5625,0.0446929931640625,-0.375,0.992469310760498,-0.75,-0.19346356391906738,0.0,0.07869243621826172,-0.361328125,0.026306629180908203,0.01953125,-0.0019052624702453613,-0.11186079680919647,0.0,0.0,0.0,0.0
2025-04-10 09:12:37.147679,0.2709920406341553,1.125,0.18931317329406738,1.875,-0.010921716690063477,0.1875,0.9823071956634521,-0.625,0.03415703773498535,0.0625,0.03001117706298828,-0.078125,0.004679441452026367,-0.009765625,0.269134521484375,1.3125,-0.17209196090698242,-2.625,0.044669151306152344,-0.3125,0.9924817085266113,-0.8125,-0.19345158338546753,0.0,0.07869243621826172,-0.361328125,0.026306629180908203,0.01953125,-0.0019052624702453613,-0.11186079680919647,0.0,0.0,0.0,0.0
2025-04-10 09:12:37.645362,0.2709920406341553,1.125,0.18932509422302246,1.875,-0.010921716690063477,0.1875,0.9823071956634521,-0.625,0.034133195877075195,0.0625,0.03001117706298828,-0.068359375,0.004664182662963867,-0.01953125,0.26911067962646484,1.375,-0.17211580276489258,-2.5625,0.04470491409301758,-0.3125,0.992457389831543,-0.8125,-0.19343960285186768,0.0,0.07869243621826172,-0.361328125,0.026306629180908203,0.01953125,-0.0019052624702453613,-0.11186079680919647,0.0,0.0,0.0,0.0
2025-04-10 09:12:38.121109,0.2709920406341553,1.125,0.18932509422302246,1.875,-0.010909557342529297,0.1875,0.9823191165924072,-0.625,0.03412127494812012,0.0625,0.03001880645751953,-0.068359375,0.004671812057495117,-0.01953125,0.2691226005554199,1.3125,-0.1721038818359375,-2.5625,0.0446929931640625,-0.3125,0.992457389831543,-0.8125,-0.19345158338546753,0.0,0.07869243621826172,-0.37109375,0.026306629180908203,0.01953125,-0.0019052624702453613,-0.11186079680919647,0.0,0.0,0.0,0.0
2025-04-10 09:12:38.599722,0.2709920406341553,1.125,0.18932509422302246,1.875,-0.010909557342529297,0.1875,0.9823191165924072,-0.625,0.03409719467163086,0.0625,0.03001880645751953,-0.068359375,0.004664182662963867,-0.01953125,0.2691226005554199,1.375,-0.17211580276489258,-2.5625,0.0446929931640625,-0.3125,0.992469310760498,-0.8125,-0.19346356391906738,0.0,0.07869243621826172,-0.361328125,0.026306629180908203,0.01953125,-0.0019052624702453613,-0.11186079680919647,0.0,0.0,0.0,0.0
2025-04-10 09:12:39.077875,0.2709920406341553,1.125,0.18932509422302246,1.875,-0.010921716690063477,0.1875,0.9823191165924072,-0.625,0.03409719467163086,0.0625,0.03001117706298828,-0.078125,0.004664182662963867,-0.009765625,0.2691226005554199,1.375,-0.17211580276489258,-2.5625,0.0446929931640625,-0.3125,0.992469310760498,-0.8125,-0.19345158338546753,0.0,0.07868480682373047,-0.361328125,0.026306629180908203,0.01953125,-0.0019052624702453613,-0.11186079680919647,0.0,0.0,0.0,0.0
2025-04-10 09:12:39.552852,0.2709920406341553,1.0625,0.18932509422302246,1.875,-0.010921716690063477,0.1875,0.9823191165924072,-0.625,0.03412127494812012,0.0625,0.03001117706298828,-0.068359375,0.004679441452026367,-0.01953125,0.269134521484375,1.375,-0.17211580276489258,-2.5625,0.0446929931640625,-0.3125,0.9924817085266113,-0.8125,-0.19343960285186768,0.0,0.07869243621826172,-0.361328125,0.026298999786376953,0.01953125,-0.0018919110298156738,-0.11186079680919647,0.0,0.0,0.0,0.0
2025-04-10 09:12:40.040070,0.2709920406341553,1.125,0.18931317329406738,1.875,-0.010921716690063477,0.1875,0.9823191165924072,-0.625,0.03416919708251953,0.0625,0.03001880645751953,-0.068359375,0.004687070846557617,-0.01953125,0.2691226005554199,1.375,-0.17211580276489258,-2.625,0.04470491409301758,-0.3125,0.992457389831543,-0.8125,-0.19343960285186768,0.0,0.07868480682373047,-0.361328125,0.026306629180908203,0.0,-0.0019052624702453613,-0.11186079680919647,0.0,0.0,0.0,0.0
2025-04-10 09:12:40.538569,0.2709920406341553,1.125,0.18932509422302246,1.875,-0.010921716690063477,0.1875,0.9823191165924072,-0.625,0.03414511680603027,0.0625,0.03001880645751953,-0.078125,0.004664182662963867,-0.01953125,0.2691226005554199,1.3125,-0.17209196090698242,-2.5625,0.0446929931640625,-0.3125,0.9924817085266113,-0.8125,-0.19345158338546753,0.0,0.07869243621826172,-0.361328125,0.026306629180908203,0.01953125,-0.0019052624702453613,-0.11186079680919647,0.0,0.0,0.0,0.0
2025-04-10 09:12:41.029151,0.270967960357666,1.125,0.18931317329406738,1.875,-0.010921716690063477,0.1875,0.9823191165924072,-0.625,0.03409719467163086,0.0625,0.03001117706298828,-0.078125,0.004671812057495117,-0.009765625,0.269134521484375,1.375,-0.17209196090698242,-2.5625,0.0446929931640625,-0.3125,0.9924817085266113,-0.8125,-0.19341564178466797,0.0,0.07869243621826172,-0.361328125,0.026314258575439453,0.01953125,-0.0019052624702453613,-0.11186079680919647,0.0,0.0,0.0,0.0
2025-04-10 09:12:41.504401,0.2709920406341553,1.125,0.18930113315582275,1.875,-0.010933637619018555,0.1875,0.9823191165924072,-0.625,0.03412127494812012,0.0625,0.03001117706298828,-0.068359375,0.004671812057495117,-0.01953125,0.2691466808319092,1.375,-0.1721038818359375,-2.5625,0.0446929931640625,-0.3125,0.992469310760498,-0.8125,-0.19343960285186768,0.0,0.07868480682373047,-0.361328125,0.026306629180908203,0.029296875,-0.0018919110298156738,-0.11186079680919647,0.0,0.0,0.0,0.0
2025-04-10 09:12:42.039890,0.2709920406341553,1.125,0.18930113315582275,1.875,-0.010921716690063477,0.1875,0.9823191165924072,-0.625,0.03414511680603027,0.0625,0.03001880645751953,-0.078125,0.004671812057495117,-0.009765625,0.2691226005554199,1.375,-0.17211580276489258,-2.5625,0.0446929931640625,-0.3125,0.992469310760498,-0.8125,-0.19342762231826782,0.0,0.07870006561279297,-0.361328125,0.026306629180908203,0.01953125,-0.0019052624702453613,-0.11186079680919647,0.0,0.0,0.0,0.0
2025-04-10 09:12:42.528439,0.2709920406341553,1.125,0.18932509422302246,1.9375,-0.010921716690063477,0.1875,0.9823310375213623,-0.625,0.034133195877075195,0.0625,0.03001117706298828,-0.078125,0.004687070846557617,-0.01953125,0.269134521484375,1.375,-0.17209196090698242,-2.5625,0.04471707344055176,-0.3125,0.992469310760498,-0.8125,-0.19342762231826782,0.0,0.07869243621826172,-0.361328125,0.026306629180908203,0.01953125,-0.0019052624702453613,-0.11186079680919647,0.0,0.0,0.0,0.0
2025-04-10 09:12:43.003223,0.2709920406341553,1.125,0.18932509422302246,1.875,-0.010909557342529297,0.1875,0.9823191165924072,-0.625,0.03410911560058594,0.0625,0.03001880645751953,-0.078125,0.004671812057495117,-0.01953125,0.2691226005554199,1.375,-0.17211580276489258,-2.5625,0.0446929931640625,-0.3125,0.992469310760498,-0.8125,-0.19343960285186768,0.0,0.07868480682373047,-0.361328125,0.026298999786376953,0.01953125,-0.0019052624702453613,-0.11186079680919647,0.0,0.0,0.0,0.0
2025-04-10 09:12:43.478308,0.2709920406341553,1.125,0.18932509422302246,1.875,-0.010909557342529297,0.1875,0.9823191165924072,-0.625,0.03416919708251953,0.0625,0.03001880645751953,-0.068359375,0.004664182662963867,-0.01953125,0.269134521484375,1.375,-0.17209196090698242,-2.5625,0.04470491409301758,-0.375,0.992457389831543,-0.8125,-0.19343960285186768,0.0,0.07869243621826172,-0.361328125,0.026298999786376953,0.01953125,-0.0018919110298156738,-0.11186079680919647,0.0,0.0,0.0,0.0
2025-04-10 09:12:43.958413,0.2709920406341553,1.125,0.18932509422302246,1.875,-0.010921716690063477,0.1875,0.9823071956634521,-0.625,0.03410911560058594,0.0625,0.03000354766845703,-0.078125,0.004679441452026367,-0.01953125,0.269134521484375,1.375,-0.17209196090698242,-2.5625,0.0446929931640625,-0.375,0.992469310760498,-0.8125,-0.19345158338546753,0.0,0.07869243621826172,-0.37109375,0.026306629180908203,0.01953125,-0.0019052624702453613,-0.11186079680919647,0.0,0.0,0.0,0.0
2025-04-10 09:12:44.428354,0.2709920406341553,1.125,0.18932509422302246,1.875,-0.010921716690063477,0.1875,0.9823191165924072,-0.625,0.03412127494812012,0.0625,0.03001117706298828,-0.068359375,0.004671812057495117,-0.01953125,0.269134521484375,1.375,-0.17211580276489258,-2.5625,0.0446929931640625,-0.3125,0.992469310760498,-0.8125,-0.19341564178466797,0.0,0.07869243621826172,-0.361328125,0.026306629180908203,0.01953125,-0.0018919110298156738,-0.11186079680919647,0.0,0.0,0.0,0.0
2025-04-10 09:12:44.904963,0.2709920406341553,1.125,0.18931317329406738,1.875,-0.010921716690063477,0.1875,0.9823071956634521,-0.625,0.03410911560058594,0.0625,0.03001880645751953,-0.078125,0.004671812057495117,-0.009765625,0.2691226005554199,1.3125,-0.17209196090698242,-2.5625,0.044669151306152344,-0.3125,0.992469310760498,-0.8125,-0.19345158338546753,0.0,0.07869243621826172,-0.37109375,0.026291370391845703,0.01953125,-0.0019052624702453613,-0.11186079680919647,0.0,0.0,0.0,0.0
2025-04-10 09:12:45.379953,0.2709920406341553,1.125,0.18931317329406738,1.9375,-0.010909557342529297,0.1875,0.9823191165924072,-0.625,0.03415703773498535,0.0625,0.03001880645751953,-0.068359375,0.004679441452026367,-0.01953125,0.269134521484375,1.375,-0.1721038818359375,-2.5625,0.04470491409301758,-0.3125,0.9924817085266113,-0.8125,-0.19342762231826782,0.0,0.07869243621826172,-0.361328125,0.026306629180908203,0.01953125,-0.0018919110298156738,-0.11186079680919647,0.0,0.0,0.0,0.0
2025-04-10 09:12:45.855121,0.2709920406341553,1.125,0.18932509422302246,1.9375,-0.010921716690063477,0.1875,0.9823071956634521,-0.625,0.03414511680603027,0.0625,0.03001880645751953,-0.078125,0.004671812057495117,-0.01953125,0.269134521484375,1.375,-0.17209196090698242,-2.625,0.04468107223510742,-0.3125,0.9924817085266113,-0.75,-0.19341564178466797,0.0,0.07869243621826172,-0.361328125,0.026306629180908203,0.01953125,-0.0019052624702453613,-0.11186079680919647,0.0,0.0,0.0,0.0
2025-04-10 09:12:46.349841,0.2709920406341553,1.0625,0.18932509422302246,1.875,-0.010909557342529297,0.1875,0.9823191165924072,-0.625,0.03409719467163086,0.0625,0.03001880645751953,-0.068359375,0.004671812057495117,-0.01953125,0.269134521484375,1.375,-0.17209196090698242,-2.5625,0.0446929931640625,-0.3125,0.992457389831543,-0.8125,-0.19341564178466797,0.0,0.07868480682373047,-0.361328125,0.026306629180908203,0.01953125,-0.0019052624702453613,-0.11186079680919647,0.0,0.0,0.0,0.0
2025-04-10 09:12:46.825151,0.2709920406341553,1.125,0.18932509422302246,1.875,-0.010921716690063477,0.1875,0.9823071956634521,-0.625,0.03414511680603027,0.0625,0.03001880645751953,-0.068359375,0.004664182662963867,-0.01953125,0.2691226005554199,1.375,-0.17211580276489258,-2.5625,0.0446929931640625,-0.375,0.9924817085266113,-0.8125,-0.19342762231826782,0.0,0.07869243621826172,-0.37109375,0.026306629180908203,0.01953125,-0.0019052624702453613,-0.11186079680919647,0.0,0.0,0.0,0.0
2025-04-10 09:12:47.321879,0.2709920406341553,1.125,0.18932509422302246,1.9375,-0.010921716690063477,0.1875,0.9823071956634521,-0.625,0.03414511680603027,0.0625,0.03001880645751953,-0.078125,0.004664182662963867,-0.01953125,0.2691226005554199,1.375,-0.17209196090698242,-2.5625,0.04470491409301758,-0.3125,0.9924817085266113,-0.75,-0.19342762231826782,0.0,0.07869243621826172,-0.361328125,0.026306629180908203,0.01953125,-0.001878499984741211,-0.11186079680919647,0.0,0.0,0.0,0.0
2025-04-10 09:12:47.797099,0.2709920406341553,1.125,0.18932509422302246,1.9375,-0.010921716690063477,0.1875,0.9823071956634521,-0.625,0.03415703773498535,0.0625,0.03001117706298828,-0.068359375,0.004671812057495117,-0.01953125,0.269134521484375,1.375,-0.1721038818359375,-2.5,0.0446929931640625,-0.3125,0.992457389831543,-0.8125,-0.19343960285186768,0.0,0.07868480682373047,-0.361328125,0.026298999786376953,0.01953125,-0.001878499984741211,-0.11186079680919647,0.0,0.0,0.0,0.0
2025-04-10 09:12:48.271874,0.2709920406341553,1.125,0.18932509422302246,1.9375,-0.010921716690063477,0.1875,0.9823191165924072,-0.625,0.03408527374267578,0.0625,0.03001880645751953,-0.068359375,0.004664182662963867,-0.01953125,0.269134521484375,1.375,-0.17209196090698242,-2.625,0.0446929931640625,-0.375,0.992469310760498,-0.8125,-0.19343960285186768,0.0,0.07869243621826172,-0.341796875,0.026306629180908203,0.01953125,-0.0019052624702453613,-0.11186079680919647,0.0,0.0,0.0,0.0
2025-04-10 09:12:48.748244,0.2709920406341553,1.125,0.18931317329406738,1.875,-0.010909557342529297,0.1875,0.9823191165924072,-0.625,0.034133195877075195,0.0625,0.03001880645751953,-0.078125,0.004664182662963867,-0.01953125,0.269134521484375,1.375,-0.17209196090698242,-2.5625,0.0446929931640625,-0.375,0.992457389831543,-0.8125,-0.19343960285186768,0.0,0.07868480682373047,-0.361328125,0.026306629180908203,0.01953125,-0.0019052624702453613,-0.11186079680919647,0.0,0.0,0.0,0.0
2025-04-10 09:12:49.222116,0.2709920406341553,1.125,0.18932509422302246,1.875,-0.010921716690063477,0.1875,0.9823191165924072,-0.625,0.03414511680603027,0.0625,0.03001117706298828,-0.078125,0.004671812057495117,-0.029296875,0.269134521484375,1.375,-0.17211580276489258,-2.5,0.0446929931640625,-0.3125,0.992469310760498,-0.8125,-0.19343960285186768,0.0,0.07869243621826172,-0.37109375,0.026298999786376953,0.01953125,-0.001878499984741211,-0.11186079680919647,0.0,0.0,0.0,0.0
2025-04-10 09:12:49.718791,0.2709920406341553,1.0625,0.18931317329406738,1.875,-0.010909557342529297,0.1875,0.9823191165924072,-0.625,0.034133195877075195,0.125,0.03001117706298828,-0.078125,0.004671812057495117,-0.009765625,0.269134521484375,1.3125,-0.17211580276489258,-2.625,0.04470491409301758,-0.375,0.992457389831543,-0.8125,-0.19342762231826782,0.0,0.07869243621826172,-0.361328125,0.026306629180908203,0.01953125,-0.0019052624702453613,-0.11186079680919647,0.0,0.0,0.0,0.0
2025-04-10 09:12:50.193886,0.2709920406341553,1.125,0.18931317329406738,1.875,-0.010909557342529297,0.1875,0.9823071956634521,-0.625,0.03408527374267578,0.125,0.03001117706298828,-0.068359375,0.004671812057495117,-0.01953125,0.269134521484375,1.3125,-0.17211580276489258,-2.625,0.04470491409301758,-0.375,0.9924817085266113,-0.8125,-0.19343960285186768,0.0,0.07869243621826172,-0.361328125,0.026298999786376953,0.01953125,-0.0019052624702453613,-0.11186079680919647,0.0,0.0,0.0,0.0
2025-04-10 09:12:50.669183,0.2709920406341553,1.125,0.18932509422302246,1.875,-0.010909557342529297,0.1875,0.9823191165924072,-0.625,0.034133195877075195,0.0625,0.03001880645751953,-0.068359375,0.004664182662963867,-0.009765625,0.2691226005554199,1.375,-0.17211580276489258,-2.5625,0.0446929931640625,-0.3125,0.9924817085266113,-0.8125,-0.19343960285186768,0.0,0.07869243621826172,-0.3515625,0.026298999786376953,0.01953125,-0.0019052624702453613,-0.11186079680919647,0.0,0.0,0.0,0.0
2025-04-10 09:12:51.143829,0.2709920406341553,1.125,0.18932509422302246,1.875,-0.010921716690063477,0.1875,0.9823191165924072,-0.625,0.03409719467163086,0.125,0.03001880645751953,-0.078125,0.004671812057495117,-0.01953125,0.2691226005554199,1.375,-0.1721038818359375,-2.5,0.04468107223510742,-0.375,0.992469310760498,-0.8125,-0.19342762231826782,0.0,0.07868480682373047,-0.3515625,0.026306629180908203,0.01953125,-0.0019052624702453613,-0.11186079680919647,0.0,0.0,0.0,0.0
2025-04-10 09:12:51.634030,0.25772547721862793,0.125,0.16823291778564453,0.5,-0.010669946670532227,0.1875,0.9924218654632568,-0.375,0.032742977142333984,-0.125,0.030065059661865234,-0.029296875,0.0048635005950927734,0.029296875,0.25318360328674316,0.5,-0.1536121368408203,-0.5,0.046862125396728516,0.125,1.013321876525879,-0.25,-0.19378715753555298,-0.0625,0.08527326583862305,-0.15625,0.024588584899902344,0.13671875,-0.0019454360008239746,-0.1677911877632141,0.0,0.0,0.0,0.0
2025-04-10 09:12:52.111721,0.22665023803710938,-0.4375,0.12203371524810791,-0.375,-0.009771108627319336,0.125,0.9847877025604248,-1.4375,0.02884817123413086,-0.1875,0.030632495880126953,-0.087890625,0.01723504066467285,-0.068359375,0.22829246520996094,-0.25,-0.14545106887817383,0.0625,0.04446530342102051,0.0,1.0277390480041504,-1.625,-0.19261270761489868,0.1875,0.1098017692565918,-0.21484375,0.01586771011352539,0.01953125,-0.0035390853881835938,-0.22372159361839294,0.0,0.0,0.0,0.0
2025-04-10 09:12:52.587993,0.1871023178100586,-0.6875,0.0503920316696167,0.4375,-0.009771108627319336,0.1875,0.6314809322357178,-1.625,0.025456666946411133,-0.25,0.0334935188293457,-0.21484375,0.02239680290222168,-0.09765625,0.2951643466949463,-2.0625,-0.12875699996948242,0.625,0.04283547401428223,-0.125,0.8492698669433594,-3.5625,-0.18179094791412354,0.8125,0.16592979431152344,-1.09375,0.0004363059997558594,0.166015625,-0.029305100440979004,0.4474431872367859,0.0,0.0,0.0,0.0
2025-04-10 09:12:53.096843,0.125335693359375,-1.75,0.008782744407653809,-0.1875,-0.009351730346679688,0.25,0.24382710456848145,-2.6875,0.014598846435546875,-0.3125,0.03293323516845703,-0.458984375,0.01837015151977539,-0.17578125,0.35893237590789795,-4.6875,-0.10562705993652344,1.0,0.04167294502258301,-0.3125,0.5791454315185547,-7.125,-0.11398422718048096,1.1875,0.18227481842041016,-2.373046875,-0.005415916442871094,0.13671875,-0.157478928565979,2.1812856197357178,0.0,0.0,0.0,0.0
2025-04-10 09:12:53.576015,0.11060714721679688,-2.0,0.008435249328613281,-0.3125,-0.0065953731536865234,0.1875,0.13107943534851074,-2.875,0.010176658630371094,-0.3125,0.031222820281982422,-0.673828125,0.005239248275756836,-0.029296875,0.3924163579940796,-8.125,-0.09429025650024414,1.8125,0.027256011962890625,-0.4375,0.5248332023620605,-10.75,-0.09496521949768066,1.8125,0.18227481842041016,-3.798828125,-0.012948036193847656,0.283203125,-0.16503196954727173,3.299893617630005,0.0,0.0,0.0,0.0
2025-04-10 09:12:54.077833,0.0851285457611084,-2.5625,0.008003830909729004,-0.375,-0.003347635269165039,0.25,0.09214282035827637,-2.875,0.005335092544555664,-0.3125,0.028131961822509766,-0.859375,0.004518270492553711,-0.078125,0.4005775451660156,-12.125,-0.09400272369384766,2.625,0.026860475540161133,-0.625,0.5044598579406738,-14.5,-0.09216094017028809,2.5625,0.18245887756347656,-5.439453125,-0.012924671173095703,0.41015625,-0.1673353910446167,4.698153495788574,0.0,0.0,0.0,0.0
2025-04-10 09:12:54.578157,0.05829596519470215,-2.4375,0.00631403923034668,-0.375,-0.0029401779174804688,0.1875,0.062290191650390625,-2.5,0.00487971305847168,-0.3125,0.021229267120361328,-0.849609375,0.004272937774658203,-0.126953125,0.4054551124572754,-15.9375,-0.093475341796875,3.5625,0.026189327239990234,-0.8125,0.49019861221313477,-19.1875,-0.0880623459815979,3.3125,0.18253517150878906,-6.93359375,-0.0128021240234375,0.517578125,-0.1693575382232666,6.431995868682861,0.0,0.0,0.0,0.0
2025-04-10 09:12:55.051203,0.056845903396606445,-2.8125,0.004923820495605469,-0.375,-0.0021131038665771484,0.1875,0.056705474853515625,-2.8125,-0.003221750259399414,0.0,0.019595623016357422,-0.927734375,0.004012107849121094,-0.166015625,0.412705659866333,-19.5,-0.09279203414916992,4.25,0.025722026824951172,-1.0625,0.4638094902038574,-21.875,-0.08582127094268799,3.9375,0.2025308609008789,-6.93359375,-0.01274871826171875,0.625,-0.16943788528442383,7.886186122894287,0.0,0.0,0.0,0.0
2025-04-10 09:12:55.529132,0.050194501876831055,-2.8125,0.004360556602478027,-0.375,-0.0016219615936279297,0.1875,0.052451133728027344,-2.9375,-0.0032575130462646484,0.0,0.012799739837646484,-0.703125,0.0038280487060546875,-0.17578125,0.41260969638824463,-22.125,-0.0895686149597168,4.625,0.021779298782348633,-0.875,0.4110069274902344,-21.4375,-0.08014076948165894,4.0625,0.3079380989074707,-6.93359375,-0.012924671173095703,0.703125,-0.1661434769630432,8.781072616577148,0.0,0.0,0.0,0.0
2025-04-10 09:12:56.007326,0.04766583442687988,-2.6875,0.009106278419494629,-0.5625,0.009247779846191406,-0.25,0.03104710578918457,-2.0,-0.003233671188354492,0.0,0.009102821350097656,-0.537109375,0.0034215450286865234,-0.166015625,0.07622456550598145,-3.5625,0.02275991439819336,-1.375,0.021323680877685547,-0.6875,0.09468317031860352,-5.0,-0.004688084125518799,0.0625,0.033171653747558594,-1.845703125,0.004025459289550781,-0.17578125,0.03375732898712158,-1.23046875,0.0,0.0,0.0,0.0
2025-04-10 09:12:56.494566,0.02692127227783203,-1.75,-0.007527828216552734,0.25,-0.0014901161193847656,0.1875,0.030675649642944336,-1.9375,-0.003233671188354492,0.0625,0.009057044982910156,-0.556640625,0.00272369384765625,-0.126953125,0.05072212219238281,-2.8125,-0.0040130615234375,0.0625,0.0019571781158447266,0.0,0.05559062957763672,-3.125,-0.004580199718475342,0.125,0.018276691436767578,-1.0546875,-0.0006222724914550781,0.068359375,-0.004690825939178467,0.11186079680919647,0.0,0.0,0.0,0.0
2025-04-10 09:12:56.989163,0.02692127227783203,-1.75,-0.005502462387084961,0.1875,-0.0008068084716796875,0.1875,0.030675649642944336,-1.9375,-0.003233671188354492,0.0625,0.009057044982910156,-0.56640625,0.0027620792388916016,-0.126953125,0.04837322235107422,-2.6875,-0.0036177635192871094,0.0625,0.001825571060180664,0.0,0.05559062957763672,-3.125,-0.004580199718475342,0.0625,0.018269062042236328,-1.0546875,-0.0006222724914550781,0.068359375,-0.004155099391937256,0.055930398404598236,0.0,0.0,0.0,0.0
2025-04-10 09:12:57.464037,0.02690911293029785,-1.75,-0.005478501319885254,0.25,-0.0007829666137695312,0.1875,0.030675649642944336,-1.9375,-0.0032575130462646484,0.0625,0.009057044982910156,-0.556640625,0.0027697086334228516,-0.126953125,0.04836130142211914,-2.6875,-0.0036416053771972656,0.0625,0.0013699531555175781,0.0,0.05559062957763672,-3.1875,-0.004580199718475342,0.125,0.018276691436767578,-1.0546875,-0.0006532669067382812,0.068359375,-0.004114925861358643,0.055930398404598236,0.0,0.0,0.0,0.0
2025-04-10 09:12:57.939083,0.02692127227783203,-1.8125,-0.005478501319885254,0.1875,-0.0008189678192138672,0.1875,0.030699729919433594,-1.9375,-0.003233671188354492,0.0625,0.009064674377441406,-0.56640625,0.0027620792388916016,-0.126953125,0.04836130142211914,-2.6875,-0.0036416053771972656,0.0625,0.0013580322265625,0.0,0.0556025505065918,-3.1875,-0.004616141319274902,0.125,0.018269062042236328,-1.0546875,-0.0006685256958007812,0.068359375,-0.0041283369064331055,0.055930398404598236,0.0,0.0,0.0,0.0
2025-04-10 09:12:58.416379,0.02690911293029785,-1.75,-0.005478501319885254,0.25,-0.0008068084716796875,0.1875,0.030687570571899414,-1.9375,-0.003269672393798828,0.0625,0.009064674377441406,-0.556640625,0.0027620792388916016,-0.126953125,0.04836130142211914,-2.6875,-0.0036416053771972656,0.0625,0.0013699531555175781,0.0,0.055614471435546875,-3.125,-0.004580199718475342,0.125,0.018261432647705078,-1.0546875,-0.0006685256958007812,0.068359375,-0.0041283369064331055,0.055930398404598236,0.0,0.0,0.0,0.0
2025-04-10 09:12:58.889221,0.02692127227783203,-1.75,-0.005490422248840332,0.25,-0.0007948875427246094,0.1875,0.030687570571899414,-1.9375,-0.003233671188354492,0.0625,0.009057044982910156,-0.56640625,0.0027697086334228516,-0.126953125,0.04836130142211914,-2.6875,-0.0036416053771972656,0.0625,0.0013461112976074219,0.0,0.05559062957763672,-3.1875,-0.004604160785675049,0.125,0.018261432647705078,-1.0546875,-0.0006532669067382812,0.078125,-0.0041283369064331055,0.055930398404598236,0.0,0.0,0.0,0.0
2025-04-10 09:12:59.364368,0.02692127227783203,-1.75,-0.005490422248840332,0.25,-0.0008068084716796875,0.1875,0.030699729919433594,-1.9375,-0.003233671188354492,0.0625,0.009057044982910156,-0.56640625,0.0027697086334228516,-0.126953125,0.04836130142211914,-2.6875,-0.0036416053771972656,0.0625,0.0012502670288085938,0.0625,0.05559062957763672,-3.125,-0.004592180252075195,0.125,0.018269062042236328,-1.044921875,-0.0006761550903320312,0.078125,-0.004222095012664795,0.11186079680919647,0.0,0.0,0.0,0.0
2025-04-10 09:12:59.887258,0.026885271072387695,-1.8125,-0.005466461181640625,0.25,-0.0006151199340820312,0.125,0.030687570571899414,-1.9375,-0.0032575130462646484,0.0,0.009057044982910156,-0.56640625,0.0027773380279541016,-0.126953125,0.0395047664642334,-2.1875,-0.003078460693359375,0.0625,0.003934621810913086,-0.0625,0.05549478530883789,-3.125,-0.003945052623748779,0.125,0.018253803253173828,-1.0546875,-0.0006990432739257812,0.068359375,-0.00035184621810913086,-0.1677911877632141,0.0,0.0,0.0,0.0
2025-04-10 09:13:00.374348,0.026873350143432617,-1.75,-0.005394577980041504,0.1875,-0.0008189678192138672,0.1875,0.030675649642944336,-1.9375,-0.0032575130462646484,0.0,0.009057044982910156,-0.56640625,0.0027697086334228516,-0.126953125,0.03514266014099121,-1.8125,-0.0026230812072753906,0.0,0.004581928253173828,-0.0625,0.05363750457763672,-3.0,-0.0018478035926818848,0.0,0.017893314361572266,-1.03515625,-0.000522613525390625,0.068359375,0.00043827295303344727,-0.22372159361839294,0.0,0.0,0.0,0.0
2025-04-10 09:13:00.849946,0.026861190795898438,-1.75,-0.005382657051086426,0.25,-0.0007710456848144531,0.1875,0.030687570571899414,-1.9375,-0.003269672393798828,0.0625,0.009064674377441406,-0.56640625,0.0027620792388916016,-0.126953125,0.03342890739440918,-1.875,-0.0027189254760742188,0.0,0.001394033432006836,0.0,0.052007198333740234,-2.9375,-0.0019437074661254883,0.0,0.01746368408203125,-0.99609375,-0.0006222724914550781,0.078125,-3.039836883544922e-05,-0.1677911877632141,0.0,0.0,0.0,0.0
2025-04-10 09:13:01.325012,0.026873350143432617,-1.75,-0.005358695983886719,0.25,-0.0008068084716796875,0.1875,0.03065180778503418,-1.9375,-0.0032575130462646484,0.0625,0.009057044982910156,-0.56640625,0.0027697086334228516,-0.126953125,0.02958202362060547,-1.625,-0.0031862258911132812,0.0,0.0013341903686523438,0.0,0.04861593246459961,-2.6875,-0.0018597841262817383,0.0,0.015300750732421875,-0.87890625,-0.0006146430969238281,0.068359375,0.00019723176956176758,-0.22372159361839294,0.0,0.0,0.0,0.0
2025-04-10 09:13:01.799935,0.026861190795898438,-1.75,-0.005358695983886719,0.25,-0.0008308887481689453,0.1875,0.030675649642944336,-2.0,-0.0032575130462646484,0.0625,0.009057044982910156,-0.556640625,0.0027697086334228516,-0.126953125,0.03964877128601074,-2.1875,-0.0029463768005371094,0.0625,0.001394033432006836,0.0,0.05338573455810547,-3.0,-0.0017639398574829102,0.0,0.015944957733154297,-0.908203125,-0.0006299018859863281,0.068359375,-0.0013830065727233887,-0.11186079680919647,0.0,0.0,0.0,0.0
2025-04-10 09:13:02.307506,0.026861190795898438,-1.75,-0.005382657051086426,0.1875,-0.0007829666137695312,0.1875,0.030675649642944336,-1.9375,-0.0032575130462646484,0.0625,0.009057044982910156,-0.56640625,0.0027697086334228516,-0.146484375,0.03964877128601074,-2.1875,-0.0029463768005371094,0.0625,0.0013699531555175781,0.0625,0.05338573455810547,-3.0625,-0.0017879009246826172,0.0,0.015960216522216797,-0.908203125,-0.0006375312805175781,0.068359375,-0.0013695955276489258,-0.11186079680919647,0.0,0.0,0.0,0.0
2025-04-10 09:13:02.782327,0.026873350143432617,-1.75,-0.005370616912841797,0.25,-0.0008068084716796875,0.1875,0.030675649642944336,-1.9375,-0.0032575130462646484,0.0625,0.009057044982910156,-0.56640625,0.0027697086334228516,-0.126953125,0.03963661193847656,-2.1875,-0.0029463768005371094,0.0625,0.0013699531555175781,0.0,0.05338573455810547,-3.0625,-0.0017998814582824707,0.0,0.015952587127685547,-0.927734375,-0.0006222724914550781,0.078125,-0.0013562440872192383,-0.11186079680919647,0.0,0.0,0.0,0.0
2025-04-10 09:13:03.257373,0.026873350143432617,-1.8125,-0.005358695983886719,0.25,-0.0008189678192138672,0.1875,0.030687570571899414,-1.9375,-0.0032575130462646484,0.0,0.009064674377441406,-0.56640625,0.0027620792388916016,-0.146484375,0.03964877128601074,-2.1875,-0.0029344558715820312,0.0,0.0013580322265625,0.0,0.05339765548706055,-3.0625,-0.0017879009246826172,0.0,0.015944957733154297,-0.908203125,-0.0006299018859863281,0.068359375,-0.0013428330421447754,-0.11186079680919647,0.0,0.0,0.0,0.0
2025-04-10 09:13:03.773055,0.026873350143432617,-1.75,-0.005382657051086426,0.1875,-0.0007829666137695312,0.1875,0.030687570571899414,-1.9375,-0.003233671188354492,0.0625,0.009064674377441406,-0.56640625,0.0027620792388916016,-0.126953125,0.03964877128601074,-2.1875,-0.002922534942626953,0.0625,0.0013580322265625,0.0,0.05339765548706055,-3.0,-0.0017998814582824707,0.0,0.015952587127685547,-0.908203125,-0.0006375312805175781,0.068359375,-0.0013428330421447754,-0.11186079680919647,0.0,0.0,0.0,0.0
2025-04-10 09:13:04.248264,0.026873350143432617,-1.75,-0.005370616912841797,0.25,-0.0007948875427246094,0.1875,0.030663728713989258,-2.0,-0.0032575130462646484,0.0625,0.009064674377441406,-0.556640625,0.00275421142578125,-0.126953125,0.03964877128601074,-2.1875,-0.0029463768005371094,0.0625,0.0013580322265625,0.0,0.05338573455810547,-3.0625,-0.0018118619918823242,0.0,0.015952587127685547,-0.908203125,-0.0006299018859863281,0.068359375,-0.0013428330421447754,-0.11186079680919647,0.0,0.0,0.0,0.0
2025-04-10 09:13:04.722913,0.02684926986694336,-1.75,-0.005382657051086426,0.125,-0.0007829666137695312,0.1875,0.030675649642944336,-1.9375,-0.003233671188354492,0.0625,0.009057044982910156,-0.56640625,0.0027620792388916016,-0.1171875,0.03964877128601074,-2.1875,-0.0029463768005371094,0.0,0.0013821125030517578,0.0625,0.05339765548706055,-3.0,-0.0017879009246826172,0.0,0.015952587127685547,-0.908203125,-0.0006299018859863281,0.078125,-0.0013428330421447754,-0.11186079680919647,0.0,0.0,0.0,0.0
2025-04-10 09:13:05.198198,0.026873350143432617,-1.75,-0.005358695983886719,0.25,-0.0007948875427246094,0.1875,0.030687570571899414,-1.9375,-0.0032575130462646484,0.0625,0.009057044982910156,-0.556640625,0.0027697086334228516,-0.126953125,0.03963661193847656,-2.1875,-0.0029463768005371094,0.0625,0.0013699531555175781,0.0,0.05338573455810547,-3.0,-0.0018118619918823242,0.0,0.015952587127685547,-0.908203125,-0.0006299018859863281,0.068359375,-0.0013428330421447754,-0.11186079680919647,0.0,0.0,0.0,0.0
2025-04-10 09:13:05.674118,0.026861190795898438,-1.75,-0.005358695983886719,0.25,-0.0007829666137695312,0.1875,0.030687570571899414,-1.9375,-0.003221750259399414,0.0625,0.009064674377441406,-0.556640625,0.0027620792388916016,-0.126953125,0.03964877128601074,-2.1875,-0.0029344558715820312,0.0625,0.0013699531555175781,0.0,0.05338573455810547,-3.0,-0.0017759203910827637,0.0,0.015952587127685547,-0.927734375,-0.0006299018859863281,0.068359375,-0.0013428330421447754,-0.11186079680919647,0.0,0.0,0.0,0.0
2025-04-10 09:13:06.152913,0.026873350143432617,-1.8125,-0.005358695983886719,0.25,-0.0007948875427246094,0.1875,0.030675649642944336,-1.9375,-0.003233671188354492,0.0625,0.009064674377441406,-0.56640625,0.0027620792388916016,-0.126953125,0.03963661193847656,-2.1875,-0.0029344558715820312,0.0,0.0013461112976074219,0.0,0.05338573455810547,-3.0625,-0.0017759203910827637,0.0,0.015960216522216797,-0.927734375,-0.0006222724914550781,0.078125,-0.0013428330421447754,-0.11186079680919647,0.0,0.0,0.0,0.0
2025-04-10 09:13:06.627849,0.026873350143432617,-1.8125,-0.005382657051086426,0.25,-0.0007948875427246094,0.1875,0.030663728713989258,-1.9375,-0.003233671188354492,0.0625,0.009057044982910156,-0.556640625,0.0027697086334228516,-0.146484375,0.03963661193847656,-2.1875,-0.0029582977294921875,0.0625,0.0013699531555175781,0.0,0.05339765548706055,-3.0625,-0.0017639398574829102,0.0,0.015960216522216797,-0.908203125,-0.0006222724914550781,0.068359375,-0.0013428330421447754,-0.11186079680919647,0.0,0.0,0.0,0.0
2025-04-10 09:13:07.102839,0.026861190795898438,-1.75,-0.005370616912841797,0.125,-0.0007948875427246094,0.1875,0.030663728713989258,-1.9375,-0.0032575130462646484,0.0,0.009064674377441406,-0.56640625,0.0027620792388916016,-0.126953125,0.03964877128601074,-2.1875,-0.002922534942626953,0.0625,0.0013461112976074219,0.0,0.05339765548706055,-3.0625,-0.0017639398574829102,0.0,0.015960216522216797,-0.908203125,-0.0006222724914550781,0.068359375,-0.0013428330421447754,-0.11186079680919647,0.0,0.0,0.0,0.0
2025-04-10 09:13:07.577845,0.026861190795898438,-1.8125,-0.005358695983886719,0.25,-0.0007710456848144531,0.1875,0.030687570571899414,-1.9375,-0.003233671188354492,0.0625,0.009057044982910156,-0.556640625,0.0027620792388916016,-0.126953125,0.03964877128601074,-2.1875,-0.0029463768005371094,0.0625,0.0013821125030517578,0.0,0.053409576416015625,-3.0625,-0.0017998814582824707,0.0,0.015952587127685547,-0.927734375,-0.0006299018859863281,0.068359375,-0.0013428330421447754,-0.11186079680919647,0.0,0.0,0.0,0.0
2025-04-10 09:13:08.052723,0.026861190795898438,-1.75,-0.005358695983886719,0.25,-0.0007948875427246094,0.1875,0.030675649642944336,-1.9375,-0.003233671188354492,0.0625,0.009064674377441406,-0.556640625,0.0027620792388916016,-0.126953125,0.03964877128601074,-2.1875,-0.0029463768005371094,0.0625,0.0013580322265625,0.0,0.05339765548706055,-3.0,-0.0017519593238830566,0.0,0.015960216522216797,-0.908203125,-0.0006222724914550781,0.078125,-0.0013428330421447754,-0.11186079680919647,0.0,0.0,0.0,0.0
2025-04-10 09:13:08.567882,0.026861190795898438,-1.75,-0.005358695983886719,0.125,-0.0008068084716796875,0.1875,0.030663728713989258,-2.0,-0.0032095909118652344,0.0625,0.009064674377441406,-0.556640625,0.0027620792388916016,-0.126953125,0.03964877128601074,-2.1875,-0.0029463768005371094,0.0625,0.0013699531555175781,0.0,0.05338573455810547,-3.0,-0.0017879009246826172,0.0,0.015952587127685547,-0.908203125,-0.0006299018859863281,0.078125,-0.0013428330421447754,-0.11186079680919647,0.0,0.0,0.0,0.0
2025-04-10 09:13:09.042763,0.026861190795898438,-1.8125,-0.005370616912841797,0.25,-0.0007948875427246094,0.1875,0.030663728713989258,-1.9375,-0.0032575130462646484,0.0625,0.009064674377441406,-0.56640625,0.0027620792388916016,-0.126953125,0.03964877128601074,-2.1875,-0.0029463768005371094,0.0625,0.0013461112976074219,0.0,0.05339765548706055,-3.0625,-0.0017399787902832031,0.0,0.015952587127685547,-0.908203125,-0.0006222724914550781,0.078125,-0.0013428330421447754,-0.11186079680919647,0.0,0.0,0.0,0.0
2025-04-10 09:13:09.584243,0.026873350143432617,-1.75,-0.005382657051086426,0.1875,-0.0008068084716796875,0.1875,0.030675649642944336,-1.9375,-0.003233671188354492,0.0625,0.009064674377441406,-0.556640625,0.0027697086334228516,-0.1171875,0.03963661193847656,-2.1875,-0.0029463768005371094,0.0,0.0013699531555175781,0.0,0.05338573455810547,-3.0,-0.0017759203910827637,0.0,0.015952587127685547,-0.908203125,-0.0006222724914550781,0.068359375,-0.0013562440872192383,-0.11186079680919647,0.0,0.0,0.0,0.0
