UARobotics-Lab/beta_unitree_utilities/arm_movement/g1_pcNico/Robotics4p0/100425/data_g1_20250410_103936.csv
timestamp,q_joint15,tau_joint15,q_joint16,tau_joint16,q_joint17,tau_joint17,q_joint18,tau_joint18,q_joint19,tau_joint19,q_joint20,tau_joint20,q_joint21,tau_joint21,q_joint22,tau_joint22,q_joint23,tau_joint23,q_joint24,tau_joint24,q_joint25,tau_joint25,q_joint26,tau_joint26,q_joint27,tau_joint27,q_joint28,tau_joint28,q_joint12,tau_joint12,q_joint13,tau_joint13,q_joint14,tau_joint14
2025-04-10 10:39:36.918792,0.29160475730895996,0.5625,0.219093918800354,1.6875,-0.007865667343139648,0.3125,0.9738943576812744,-0.3125,0.10343790054321289,0.0625,0.03003406524658203,-0.146484375,-0.01286172866821289,0.078125,0.28832125663757324,1.125,-0.22361183166503906,-1.6875,0.03962373733520508,-0.625,0.976830005645752,-0.25,-0.162855863571167,-0.0625,0.05468559265136719,-0.17578125,0.040472984313964844,-0.126953125,-0.0026418566703796387,0.2796519994735718,0.0,0.0,0.0,0.0
2025-04-10 10:39:37.416622,0.29076600074768066,0.0,0.21676898002624512,0.125,-0.0075778961181640625,0.0625,0.9750926494598389,-0.375,0.10313844680786133,-0.0625,0.030164718627929688,-0.068359375,-0.01289987564086914,0.029296875,0.2864038944244385,0.375,-0.22217369079589844,-0.3125,0.04126548767089844,-0.0625,0.9786758422851562,-0.25,-0.16289180517196655,-0.0625,0.05531454086303711,-0.166015625,0.0405879020690918,0.0,-0.0036596059799194336,-0.11186079680919647,0.0,0.0,0.0,0.0
2025-04-10 10:39:37.891395,0.24726319313049316,-0.0625,0.11926531791687012,0.0,-0.007182598114013672,0.1875,0.995537519454956,-0.1875,0.10288667678833008,-0.1875,0.0321202278137207,-0.029296875,-0.0036194324493408203,-0.009765625,0.22258782386779785,0.5,-0.1491541862487793,-0.1875,0.04705381393432617,0.125,1.0559377670288086,-0.25,-0.16307157278060913,-0.125,0.07935237884521484,-0.1953125,0.03568696975708008,0.029296875,-0.009150326251983643,-0.11186079680919647,0.0,0.0,0.0,0.0
2025-04-10 10:39:38.366832,0.2455613613128662,0.0625,0.11957693099975586,0.375,-0.007326364517211914,0.0625,0.9980661869049072,-0.3125,0.10282683372497559,-0.0625,0.03222799301147461,-0.0390625,-0.0033049583435058594,-0.01953125,0.2028977870941162,0.625,-0.14893817901611328,-0.5,0.04682612419128418,0.125,1.0865697860717773,-0.4375,-0.16307157278060913,-0.0625,0.08340930938720703,-0.107421875,0.03567171096801758,0.0390625,-0.009685993194580078,-0.1677911877632141,0.0,0.0,0.0,0.0
2025-04-10 10:39:38.841741,0.24566936492919922,0.3125,0.12317216396331787,0.8125,-0.007506132125854492,0.0625,0.9978148937225342,-0.375,0.10285067558288574,-0.0625,0.032212257385253906,-0.048828125,-0.003550291061401367,-0.05859375,0.20844650268554688,0.9375,-0.14930963516235352,-0.9375,0.04685020446777344,0.0,1.0776653289794922,-0.8125,-0.16305959224700928,-0.125,0.08325624465942383,-0.29296875,0.03570222854614258,0.078125,-0.009659171104431152,-0.1677911877632141,0.0,0.0,0.0,0.0
2025-04-10 10:39:39.316568,0.24626851081848145,0.6875,0.1340179443359375,1.3125,-0.007877588272094727,0.125,0.994950532913208,-0.5,0.10285067558288574,-0.125,0.032158851623535156,-0.068359375,-0.0070095062255859375,-0.05859375,0.2360701560974121,0.9375,-0.15256929397583008,-1.4375,0.0476531982421875,0.0,1.0373382568359375,-0.875,-0.1631075143814087,-0.0625,0.0810546875,-0.41015625,0.03627777099609375,0.09765625,-0.009685993194580078,-0.11186079680919647,0.0,0.0,0.0,0.0
2025-04-10 10:39:39.791702,0.2549569606781006,0.8125,0.14643359184265137,1.75,-0.007937431335449219,0.125,0.9909355640411377,-0.5625,0.10286283493041992,-0.0625,0.032135963439941406,-0.087890625,-0.010629653930664062,-0.029296875,0.2496483325958252,1.0625,-0.15519380569458008,-2.0,0.047533273696899414,-0.0625,1.0151195526123047,-0.6875,-0.1631075143814087,-0.125,0.07407522201538086,-0.48828125,0.03682994842529297,0.126953125,-0.009632408618927002,0.0,0.0,0.0,0.0,0.0
2025-04-10 10:39:40.266584,0.2565031051635742,1.0625,0.1695871353149414,1.625,-0.008033514022827148,0.1875,0.9889705181121826,-0.6875,0.10288667678833008,-0.125,0.03209733963012695,-0.1171875,-0.011895179748535156,0.0,0.25765371322631836,1.25,-0.1600956916809082,-2.4375,0.0476531982421875,-0.125,1.001936912536621,-0.6875,-0.16311955451965332,-0.125,0.0679469108581543,-0.41015625,0.039667606353759766,0.048828125,-0.009565472602844238,0.055930398404598236,0.0,0.0,0.0,0.0
2025-04-10 10:39:40.741599,0.2613205909729004,1.125,0.17803597450256348,1.6875,-0.008129358291625977,0.125,0.98811936378479,-0.75,0.10292267799377441,-0.0625,0.0320897102355957,-0.126953125,-0.012501239776611328,0.01953125,0.258528470993042,1.4375,-0.1826019287109375,-1.875,0.04758119583129883,-0.25,0.9982457160949707,-0.8125,-0.16315549612045288,-0.0625,0.06442642211914062,-0.390625,0.040434837341308594,0.029296875,-0.00928419828414917,0.11186079680919647,0.0,0.0,0.0,0.0
2025-04-10 10:39:41.216787,0.2632620334625244,1.3125,0.1806964874267578,1.8125,-0.008201122283935547,0.1875,0.9863698482513428,-0.75,0.10289859771728516,-0.125,0.0320591926574707,-0.13671875,-0.012692928314208984,0.01953125,0.2612729072570801,1.5,-0.18497467041015625,-2.125,0.04754519462585449,-0.25,0.9966402053833008,-0.875,-0.1632034182548523,-0.0625,0.06383609771728516,-0.439453125,0.0405421257019043,0.01953125,-0.009056568145751953,0.1677911877632141,0.0,0.0,0.0,0.0
2025-04-10 10:39:41.691614,0.2672288417816162,1.1875,0.18245816230773926,1.9375,-0.008213281631469727,0.1875,0.9855906963348389,-0.75,0.10289859771728516,-0.125,0.03205156326293945,-0.13671875,-0.012738943099975586,0.01953125,0.2658989429473877,1.375,-0.18643712997436523,-2.1875,0.04754519462585449,-0.25,0.9957413673400879,-0.875,-0.16311955451965332,-0.0625,0.06285429000854492,-0.41015625,0.0405421257019043,0.01953125,-0.008828878402709961,0.1677911877632141,0.0,0.0,0.0,0.0
2025-04-10 10:39:42.166643,0.26748061180114746,1.25,0.1829015016555786,1.9375,-0.008237123489379883,0.1875,0.9843084812164307,-0.75,0.10289859771728516,-0.0625,0.0320439338684082,-0.13671875,-0.012738943099975586,0.029296875,0.26837968826293945,1.3125,-0.1870722770690918,-2.3125,0.04754519462585449,-0.25,0.9952859878540039,-0.9375,-0.1631794571876526,-0.0625,0.06232500076293945,-0.419921875,0.04058027267456055,0.029296875,-0.008641421794891357,0.1677911877632141,0.0,0.0,0.0,0.0
2025-04-10 10:39:42.641677,0.26758837699890137,1.25,0.18317723274230957,1.9375,-0.008237123489379883,0.125,0.9842245578765869,-0.75,0.10285067558288574,-0.125,0.03203582763671875,-0.13671875,-0.012754201889038086,0.01953125,0.2685112953186035,1.3125,-0.18721580505371094,-2.3125,0.04749727249145508,-0.25,0.9951539039611816,-0.875,-0.16314351558685303,-0.0625,0.0621638298034668,-0.41015625,0.04058027267456055,0.01953125,-0.008641421794891357,0.1677911877632141,0.0,0.0,0.0,0.0
2025-04-10 10:39:43.116641,0.26770830154418945,1.25,0.18323707580566406,1.9375,-0.008237123489379883,0.125,0.9841525554656982,-0.75,0.10292267799377441,-0.0625,0.03203582763671875,-0.13671875,-0.012754201889038086,0.01953125,0.2686431407928467,1.3125,-0.1872878074645996,-2.3125,0.04749727249145508,-0.25,0.9951419830322266,-0.875,-0.16315549612045288,-0.125,0.062018394470214844,-0.400390625,0.0405879020690918,0.01953125,-0.008668184280395508,0.1677911877632141,0.0,0.0,0.0,0.0
2025-04-10 10:39:43.591665,0.2678639888763428,1.25,0.1832730770111084,1.9375,-0.008237123489379883,0.125,0.9841406345367432,-0.75,0.10286283493041992,-0.0625,0.03202056884765625,-0.146484375,-0.012777328491210938,0.029296875,0.26871514320373535,1.25,-0.18733549118041992,-2.3125,0.0474853515625,-0.25,0.9951419830322266,-0.875,-0.16314351558685303,-0.0625,0.06194925308227539,-0.400390625,0.0405879020690918,0.029296875,-0.008654773235321045,0.1677911877632141,0.0,0.0,0.0,0.0
2025-04-10 10:39:44.066914,0.26793599128723145,1.25,0.18330907821655273,1.9375,-0.008249044418334961,0.125,0.9841287136077881,-0.75,0.10288667678833008,-0.0625,0.0320281982421875,-0.13671875,-0.012769699096679688,0.01953125,0.2687032222747803,1.3125,-0.18735980987548828,-2.25,0.0474853515625,-0.25,0.9951539039611816,-0.875,-0.16314351558685303,-0.0625,0.06191825866699219,-0.400390625,0.04058027267456055,0.01953125,-0.008587837219238281,0.1677911877632141,0.0,0.0,0.0,0.0
2025-04-10 10:39:44.541670,0.268007755279541,1.25,0.18333303928375244,1.9375,-0.008273124694824219,0.125,0.984116792678833,-0.75,0.10289859771728516,-0.0625,0.0320281982421875,-0.146484375,-0.012769699096679688,0.029296875,0.26871514320373535,1.3125,-0.1874556541442871,-2.3125,0.04749727249145508,-0.3125,0.9951300621032715,-0.875,-0.1631794571876526,-0.125,0.06187248229980469,-0.390625,0.0405879020690918,0.01953125,-0.008654773235321045,0.1677911877632141,0.0,0.0,0.0,0.0
2025-04-10 10:39:45.023544,0.268007755279541,1.25,0.18336892127990723,1.9375,-0.00826120376586914,0.125,0.9840805530548096,-0.75,0.10286283493041992,-0.125,0.03202056884765625,-0.146484375,-0.012777328491210938,0.01953125,0.26872706413269043,1.25,-0.18755149841308594,-2.3125,0.04749727249145508,-0.25,0.9951419830322266,-0.875,-0.16315549612045288,-0.0625,0.061833858489990234,-0.37109375,0.04059553146362305,0.01953125,-0.008574426174163818,0.1677911877632141,0.0,0.0,0.0,0.0
2025-04-10 10:39:45.498695,0.26805591583251953,1.1875,0.18335700035095215,1.9375,-0.008249044418334961,0.125,0.9840567111968994,-0.75,0.10288667678833008,-0.0625,0.0320281982421875,-0.13671875,-0.012761831283569336,0.029296875,0.26872706413269043,1.25,-0.1876235008239746,-2.3125,0.0474853515625,-0.25,0.9951419830322266,-0.875,-0.16315549612045288,-0.125,0.061810970306396484,-0.37109375,0.0406031608581543,0.01953125,-0.008226275444030762,0.1677911877632141,0.0,0.0,0.0,0.0
2025-04-10 10:39:45.973635,0.2680678367614746,1.1875,0.18336892127990723,1.9375,-0.008273124694824219,0.125,0.9840567111968994,-0.75,0.10289859771728516,-0.0625,0.0320281982421875,-0.13671875,-0.012777328491210938,0.029296875,0.26872706413269043,1.25,-0.1876354217529297,-2.25,0.0474853515625,-0.25,0.9951419830322266,-0.875,-0.1631794571876526,-0.0625,0.061803340911865234,-0.390625,0.0406031608581543,0.0,-0.008212864398956299,0.1677911877632141,0.0,0.0,0.0,0.0
2025-04-10 10:39:46.448587,0.26804375648498535,1.1875,0.18339288234710693,1.9375,-0.00826120376586914,0.125,0.9840567111968994,-0.75,0.10285067558288574,-0.125,0.0320281982421875,-0.146484375,-0.012769699096679688,0.01953125,0.26871514320373535,1.25,-0.18769502639770508,-2.25,0.0474853515625,-0.3125,0.9951181411743164,-0.875,-0.1631794571876526,-0.0625,0.061788082122802734,-0.390625,0.0406031608581543,0.01953125,-0.007891476154327393,0.1677911877632141,0.0,0.0,0.0,0.0
2025-04-10 10:39:46.923485,0.26805591583251953,1.1875,0.18339288234710693,1.9375,-0.00826120376586914,0.125,0.9840567111968994,-0.75,0.10285067558288574,-0.0625,0.03202056884765625,-0.146484375,-0.012777328491210938,0.029296875,0.26872706413269043,1.25,-0.18769502639770508,-2.25,0.04749727249145508,-0.25,0.9951300621032715,-0.875,-0.1631794571876526,-0.0625,0.061765193939208984,-0.400390625,0.0406031608581543,0.029296875,-0.00799858570098877,0.11186079680919647,0.0,0.0,0.0,0.0
2025-04-10 10:39:47.399055,0.26805591583251953,1.1875,0.18340492248535156,1.9375,-0.008249044418334961,0.1875,0.9840328693389893,-0.75,0.10286283493041992,-0.125,0.0320281982421875,-0.13671875,-0.012769699096679688,0.0390625,0.2687511444091797,1.25,-0.18775510787963867,-2.25,0.04750943183898926,-0.25,0.9951181411743164,-0.875,-0.16316747665405273,-0.125,0.06174182891845703,-0.37109375,0.04061126708984375,0.029296875,-0.007623612880706787,0.1677911877632141,0.0,0.0,0.0,0.0
2025-04-10 10:39:47.873601,0.26805591583251953,1.1875,0.18340492248535156,1.9375,-0.00826120376586914,0.125,0.9840209484100342,-0.75,0.10289859771728516,-0.0625,0.032012939453125,-0.146484375,-0.012777328491210938,0.029296875,0.2687032222747803,1.3125,-0.18776702880859375,-2.25,0.04749727249145508,-0.3125,0.9944109916687012,-0.875,-0.16315549612045288,-0.0625,0.061519622802734375,-0.37109375,0.04062652587890625,0.01953125,-0.007570028305053711,0.11186079680919647,0.0,0.0,0.0,0.0
2025-04-10 10:39:48.348631,0.26804375648498535,1.1875,0.18340492248535156,1.9375,-0.00826120376586914,0.1875,0.9840209484100342,-0.75,0.10292267799377441,-0.0625,0.03202056884765625,-0.13671875,-0.012784957885742188,0.029296875,0.268787145614624,1.25,-0.18920516967773438,-2.1875,0.047293663024902344,-0.25,0.9943990707397461,-0.875,-0.1631794571876526,-0.125,0.061511993408203125,-0.3515625,0.040618896484375,0.01953125,-0.007677197456359863,0.1677911877632141,0.0,0.0,0.0,0.0
2025-04-10 10:39:48.823594,0.24737095832824707,0.0625,0.1449354887008667,0.4375,-0.007997512817382812,0.125,0.9916188716888428,-0.25,0.10268306732177734,-0.125,0.032181739807128906,-0.029296875,-0.012769699096679688,0.029296875,0.23838305473327637,0.4375,-0.15845394134521484,-0.625,0.049079179763793945,0.1875,1.0208959579467773,-0.1875,-0.16291576623916626,-0.1875,0.0681619644165039,-0.09765625,0.0405726432800293,0.029296875,-0.00856107473373413,-0.1677911877632141,0.0,0.0,0.0,0.0
2025-04-10 10:39:49.299380,0.21590042114257812,-0.625,0.10487222671508789,-0.1875,-0.006379604339599609,0.125,0.9524304866790771,-1.125,0.10158038139343262,-0.375,0.033915042877197266,-0.1171875,0.008445262908935547,-0.029296875,0.2079792022705078,-0.3125,-0.14477968215942383,0.125,0.044884681701660156,0.0,1.0290813446044922,-1.75,-0.1618252396583557,0.125,0.10299062728881836,-0.361328125,0.03278779983520508,0.01953125,-0.009685993194580078,-0.1677911877632141,0.0,0.0,0.0,0.0
2025-04-10 10:39:49.774485,0.1676640510559082,-0.875,0.025944113731384277,0.1875,-0.0008668899536132812,0.0625,0.5621163845062256,-1.5,0.07801938056945801,-0.5,0.03892374038696289,-0.33203125,0.013216018676757812,-0.05859375,0.2944211959838867,-2.5,-0.1429581642150879,0.8125,0.0415651798248291,-0.125,0.8316054344177246,-4.25,-0.15369993448257446,0.6875,0.1606149673461914,-1.26953125,0.011127948760986328,0.0,-0.03180938959121704,0.4474431872367859,0.0,0.0,0.0,0.0
2025-04-10 10:39:50.249540,0.12888288497924805,-1.6875,0.0034018754959106445,-0.1875,0.0013141632080078125,0.125,0.23036885261535645,-2.4375,0.021585702896118164,-0.1875,0.03917694091796875,-0.556640625,0.010984182357788086,-0.05859375,0.35109472274780273,-3.625,-0.14992094039916992,2.375,-0.007642030715942383,1.625,0.4733848571777344,-2.6875,-0.1000705361366272,0.625,0.15866661071777344,-1.42578125,0.015660762786865234,-0.146484375,-0.12788283824920654,2.069424629211426,0.0,0.0,0.0,0.0
2025-04-10 10:39:50.724515,0.09230709075927734,-2.0,0.0014843940734863281,-0.125,0.0003075599670410156,0.0625,0.12416458129882812,-2.625,0.012118101119995117,-0.375,0.03694486618041992,-0.732421875,0.004518270492553711,-0.078125,0.12085366249084473,-2.25,-0.036394596099853516,0.25,-0.03490614891052246,0.5625,0.1610279083251953,-3.1875,-0.025756359100341797,0.4375,0.07294797897338867,-1.5234375,0.007001399993896484,-0.126953125,-0.06394994258880615,0.5033735632896423,0.0,0.0,0.0,0.0
2025-04-10 10:39:51.232687,0.08648276329040527,-2.5625,0.0019277334213256836,-0.1875,0.0009906291961669922,0.125,0.08932638168334961,-2.8125,0.003992795944213867,-0.25,0.02858448028564453,-0.8984375,0.004403352737426758,-0.107421875,0.10673642158508301,-2.9375,-0.018477916717529297,0.4375,-0.023305416107177734,0.8125,0.12799930572509766,-3.75,-0.008834600448608398,0.0625,0.05361175537109375,-1.572265625,0.0015711784362792969,0.0,-0.025046467781066895,0.5033735632896423,0.0,0.0,0.0,0.0
2025-04-10 10:39:51.707716,0.05736112594604492,-2.375,0.0018678903579711914,-0.1875,0.0009307861328125,0.0625,0.06773090362548828,-2.8125,0.003633260726928711,-0.25,0.020577430725097656,-0.830078125,0.004180908203125,-0.1171875,0.08492517471313477,-3.125,-0.005726814270019531,0.0625,-0.0032439231872558594,0.125,0.10652351379394531,-4.0,-0.0061261653900146484,0.0625,0.04437732696533203,-1.669921875,0.00011396408081054688,0.01953125,-0.018377304077148438,0.39151278138160706,0.0,0.0,0.0,0.0
2025-04-10 10:39:52.182719,0.05492830276489258,-2.75,0.0018318891525268555,-0.1875,0.0008828639984130859,0.0625,0.053253889083862305,-2.625,0.0033338069915771484,-0.3125,0.018813133239746094,-0.908203125,0.003912448883056641,-0.15625,0.07532572746276855,-3.4375,-0.00443267822265625,0.0625,-0.0011587142944335938,0.1875,0.09445571899414062,-4.3125,-0.004987657070159912,0.0625,0.03374671936035156,-1.5234375,7.581710815429688e-05,0.01953125,-0.013957977294921875,0.39151278138160706,0.0,0.0,0.0,0.0
2025-04-10 10:39:52.658921,0.048792362213134766,-2.625,0.0018199682235717773,-0.1875,0.0009188652038574219,0.0625,0.050545454025268555,-2.8125,0.0030820369720458984,-0.3125,0.013728141784667969,-0.751953125,0.003782033920288086,-0.166015625,0.06283807754516602,-3.0625,-0.0037851333618164062,0.0625,-0.0007631778717041016,0.1875,0.0814046859741211,-4.125,-0.004556238651275635,0.0625,0.029428958892822266,-1.533203125,6.771087646484375e-05,0.029296875,-0.012712538242340088,0.39151278138160706,0.0,0.0,0.0,0.0
2025-04-10 10:39:53.135094,0.04614400863647461,-2.8125,0.0018439292907714844,-0.1875,0.0008349418640136719,0.0625,0.04711794853210449,-2.8125,0.0030100345611572266,-0.3125,0.012807369232177734,-0.76171875,0.003674745559692383,-0.166015625,0.058092355728149414,-3.25,-0.003665447235107422,0.0625,-0.0006673336029052734,0.1875,0.07483720779418945,-4.1875,-0.004328548908233643,0.125,0.02787160873413086,-1.572265625,7.581710815429688e-05,0.01953125,-0.010676980018615723,0.39151278138160706,0.0,0.0,0.0,0.0
2025-04-10 10:39:53.609837,0.04566454887390137,-2.8125,0.0018199682235717773,-0.1875,0.0008709430694580078,0.0625,0.04648280143737793,-2.9375,0.0029501914978027344,-0.3125,0.012485504150390625,-0.76171875,0.0035827159881591797,-0.17578125,0.05400586128234863,-3.0625,-0.0036416053771972656,0.0625,-0.0006551742553710938,0.1875,0.07206916809082031,-4.125,-0.004292607307434082,0.0625,0.027396202087402344,-1.591796875,6.771087646484375e-05,0.01953125,-0.01066356897354126,0.39151278138160706,0.0,0.0,0.0,0.0
2025-04-10 10:39:54.084928,0.04522109031677246,-2.8125,0.0018318891525268555,-0.1875,0.0008587837219238281,0.0,0.04633903503417969,-2.875,0.0029022693634033203,-0.3125,0.012439250946044922,-0.76171875,0.003567218780517578,-0.166015625,0.05377817153930664,-3.0625,-0.0036296844482421875,0.0625,-0.0006194114685058594,0.125,0.06982803344726562,-4.0,-0.0042206645011901855,0.0625,0.02733469009399414,-1.591796875,7.581710815429688e-05,0.01953125,-0.01063680648803711,0.4474431872367859,0.0,0.0,0.0,0.0
2025-04-10 10:39:54.559988,0.04498147964477539,-2.8125,0.0018199682235717773,-0.1875,0.0008828639984130859,0.0625,0.04629111289978027,-2.875,0.002890348434448242,-0.3125,0.012401103973388672,-0.76171875,0.003551959991455078,-0.17578125,0.053730010986328125,-3.0625,-0.003605365753173828,0.0625,-0.0006432533264160156,0.125,0.06977987289428711,-4.0,-0.004244625568389893,0.0625,0.02731180191040039,-1.58203125,6.771087646484375e-05,0.01953125,-0.01063680648803711,0.4474431872367859,0.0,0.0,0.0,0.0
2025-04-10 10:39:55.035051,0.03964853286743164,-2.5,0.0018318891525268555,-0.1875,0.0008587837219238281,0.0625,0.046195268630981445,-2.9375,0.0028183460235595703,-0.3125,0.012385845184326172,-0.76171875,0.003544330596923828,-0.17578125,0.053730010986328125,-3.0625,-0.003605365753173828,0.0625,-0.0006313323974609375,0.125,0.06974411010742188,-4.0,-0.004208683967590332,0.125,0.02729654312133789,-1.591796875,7.581710815429688e-05,0.01953125,-0.010502874851226807,0.4474431872367859,0.0,0.0,0.0,0.0
2025-04-10 10:39:55.510066,0.03963637351989746,-2.5,0.0018318891525268555,-0.1875,0.00084686279296875,0.0625,0.04620718955993652,-2.875,0.002794504165649414,-0.3125,0.012370586395263672,-0.751953125,0.003567218780517578,-0.17578125,0.05370616912841797,-3.0625,-0.00359344482421875,0.0625,-0.0006673336029052734,0.1875,0.06977987289428711,-4.0,-0.0041967034339904785,0.125,0.02730417251586914,-1.58203125,6.771087646484375e-05,0.029296875,-0.010288596153259277,0.39151278138160706,0.0,0.0,0.0,0.0
2025-04-10 10:39:56.002065,0.03963637351989746,-2.5,0.0018439292907714844,-0.1875,0.0008828639984130859,0.0625,0.046195268630981445,-2.875,0.002758502960205078,-0.3125,0.012362957000732422,-0.751953125,0.003536701202392578,-0.166015625,0.05369424819946289,-3.0625,-0.00359344482421875,0.125,-0.0005953311920166016,0.125,0.0697321891784668,-4.0,-0.004208683967590332,0.125,0.02729654312133789,-1.591796875,6.771087646484375e-05,0.01953125,-0.010221660137176514,0.4474431872367859,0.0,0.0,0.0,0.0
2025-04-10 10:39:56.476985,0.03962445259094238,-2.5,0.0018439292907714844,-0.1875,0.00084686279296875,0.0625,0.04615926742553711,-2.8125,0.0027344226837158203,-0.3125,0.012354850769042969,-0.76171875,0.003536701202392578,-0.17578125,0.05368208885192871,-3.0625,-0.003581523895263672,0.0625,-0.0006673336029052734,0.125,0.06974411010742188,-4.0,-0.004184722900390625,0.0625,0.02728128433227539,-1.591796875,6.008148193359375e-05,0.01953125,-0.010141313076019287,0.4474431872367859,0.0,0.0,0.0,0.0
2025-04-10 10:39:56.951980,0.039612531661987305,-2.5,0.0018439292907714844,-0.25,0.0008587837219238281,0.0625,0.04612326622009277,-2.875,0.0027344226837158203,-0.3125,0.012354850769042969,-0.76171875,0.003544330596923828,-0.17578125,0.05367016792297363,-3.0625,-0.00359344482421875,0.0625,-0.0005953311920166016,0.1875,0.0697321891784668,-4.0,-0.004208683967590332,0.125,0.02728891372680664,-1.58203125,6.008148193359375e-05,0.01953125,-0.009712755680084229,0.39151278138160706,0.0,0.0,0.0,0.0
2025-04-10 10:39:57.426900,0.03962445259094238,-2.5,0.0018439292907714844,-0.1875,0.0008709430694580078,0.0625,0.04614734649658203,-2.875,0.002698659896850586,-0.3125,0.012354850769042969,-0.76171875,0.0035212039947509766,-0.17578125,0.05367016792297363,-3.0625,-0.00359344482421875,0.0625,-0.0006313323974609375,0.125,0.0697321891784668,-4.0,-0.004184722900390625,0.125,0.02728128433227539,-1.58203125,6.771087646484375e-05,0.01953125,-0.00937795639038086,0.3355823755264282,0.0,0.0,0.0,0.0
2025-04-10 10:39:57.927672,0.039612531661987305,-2.5,0.0018199682235717773,-0.1875,0.0008709430694580078,0.0625,0.04608750343322754,-2.875,0.002674579620361328,-0.3125,0.012339591979980469,-0.751953125,0.003536701202392578,-0.17578125,0.053658246994018555,-3.0625,-0.00359344482421875,0.0625,-0.0006551742553710938,0.1875,0.06972026824951172,-4.0,-0.0041967034339904785,0.0625,0.02728128433227539,-1.591796875,6.771087646484375e-05,0.029296875,-0.00940471887588501,0.39151278138160706,0.0,0.0,0.0,0.0
2025-04-10 10:39:58.402700,0.03962445259094238,-2.5,0.0018199682235717773,-0.25,0.0008828639984130859,0.0625,0.046111345291137695,-2.875,0.002674579620361328,-0.3125,0.012339591979980469,-0.751953125,0.0035288333892822266,-0.166015625,0.05367016792297363,-3.0625,-0.0035696029663085938,0.0625,-0.0006313323974609375,0.1875,0.06972026824951172,-4.0,-0.004208683967590332,0.0625,0.02728128433227539,-1.591796875,6.771087646484375e-05,0.01953125,-0.00937795639038086,0.39151278138160706,0.0,0.0,0.0,0.0
2025-04-10 10:39:58.906176,0.03960061073303223,-2.5,0.0018199682235717773,-0.1875,0.0008709430694580078,0.0625,0.04607534408569336,-2.8125,0.00266265869140625,-0.3125,0.012339591979980469,-0.76171875,0.0035288333892822266,-0.17578125,0.053658246994018555,-3.0625,-0.00359344482421875,0.0625,-0.0006673336029052734,0.1875,0.06972026824951172,-4.0,-0.004184722900390625,0.0625,0.02728128433227539,-1.58203125,6.008148193359375e-05,0.01953125,-0.00937795639038086,0.3355823755264282,0.0,0.0,0.0,0.0
2025-04-10 10:39:59.386005,0.039612531661987305,-2.5,0.0018318891525268555,-0.1875,0.0008587837219238281,0.0625,0.04608750343322754,-2.875,0.002638578414916992,-0.3125,0.012339591979980469,-0.76171875,0.0035288333892822266,-0.17578125,0.05368208885192871,-3.0625,-0.0035696029663085938,0.0625,-0.0006313323974609375,0.125,0.06972026824951172,-4.0,-0.004184722900390625,0.125,0.02728128433227539,-1.58203125,6.008148193359375e-05,0.029296875,-0.009391367435455322,0.3355823755264282,0.0,0.0,0.0,0.0
2025-04-10 10:39:59.861023,0.03958845138549805,-2.5,0.0018558502197265625,-0.1875,0.0008587837219238281,0.0625,0.04607534408569336,-2.875,0.002674579620361328,-0.3125,0.012339591979980469,-0.76171875,0.0035288333892822266,-0.17578125,0.05368208885192871,-3.0625,-0.00359344482421875,0.0625,-0.0006432533264160156,0.1875,0.06972026824951172,-4.0,-0.0041727423667907715,0.0625,0.02727365493774414,-1.591796875,6.008148193359375e-05,0.01953125,-0.00937795639038086,0.3355823755264282,0.0,0.0,0.0,0.0
2025-04-10 10:40:00.336001,0.03962445259094238,-2.5,0.0018318891525268555,-0.1875,0.0008709430694580078,0.0625,0.0460515022277832,-2.875,0.002638578414916992,-0.3125,0.012331962585449219,-0.76171875,0.0035288333892822266,-0.17578125,0.05368208885192871,-3.0625,-0.0035576820373535156,0.0625,-0.0006432533264160156,0.1875,0.06972026824951172,-4.0,-0.004184722900390625,0.0625,0.02727365493774414,-1.58203125,6.771087646484375e-05,0.01953125,-0.009337782859802246,0.39151278138160706,0.0,0.0,0.0,0.0
2025-04-10 10:40:00.810977,0.03962445259094238,-2.5,0.0018199682235717773,-0.1875,0.0008709430694580078,0.0625,0.0460515022277832,-2.875,0.002626657485961914,-0.3125,0.012324333190917969,-0.76171875,0.0035288333892822266,-0.166015625,0.05367016792297363,-3.0625,-0.0035696029663085938,0.0625,-0.0006551742553710938,0.1875,0.06972026824951172,-4.0,-0.0041967034339904785,0.0625,0.02728128433227539,-1.58203125,6.771087646484375e-05,0.029296875,-0.009069979190826416,0.3355823755264282,0.0,0.0,0.0,0.0
2025-04-10 10:40:01.309723,0.03960061073303223,-2.5,0.0018439292907714844,-0.1875,0.0008587837219238281,0.0625,0.046039581298828125,-2.875,0.002626657485961914,-0.3125,0.012331962585449219,-0.76171875,0.0035212039947509766,-0.17578125,0.05368208885192871,-3.0625,-0.0035576820373535156,0.0625,-0.0006673336029052734,0.125,0.06972026824951172,-3.9375,-0.004184722900390625,0.0625,0.02728128433227539,-1.58203125,6.008148193359375e-05,0.029296875,-0.009002983570098877,0.3355823755264282,0.0,0.0,0.0,0.0
2025-04-10 10:40:01.784802,0.039612531661987305,-2.5,0.0018439292907714844,-0.1875,0.0008709430694580078,0.0625,0.046027421951293945,-2.875,0.002626657485961914,-0.3125,0.012331962585449219,-0.751953125,0.0035288333892822266,-0.17578125,0.05368208885192871,-3.0625,-0.003581523895263672,0.0625,-0.0006551742553710938,0.125,0.06969594955444336,-4.0,-0.004184722900390625,0.125,0.02727365493774414,-1.611328125,5.245208740234375e-05,0.029296875,-0.0089493989944458,0.3355823755264282,0.0,0.0,0.0,0.0
2025-04-10 10:40:02.259734,0.03962445259094238,-2.5,0.0018439292907714844,-0.1875,0.0008587837219238281,0.0625,0.04600358009338379,-2.875,0.002626657485961914,-0.3125,0.012324333190917969,-0.76171875,0.0035288333892822266,-0.17578125,0.05367016792297363,-3.0625,-0.0035576820373535156,0.0625,-0.0005953311920166016,0.125,0.06972026824951172,-4.0,-0.004184722900390625,0.0625,0.02728128433227539,-1.611328125,6.008148193359375e-05,0.029296875,-0.008962810039520264,0.39151278138160706,0.0,0.0,0.0,0.0
2025-04-10 10:40:02.734929,0.03960061073303223,-2.5,0.0018318891525268555,-0.1875,0.0008709430694580078,0.0625,0.04599142074584961,-2.875,0.002626657485961914,-0.3125,0.012324333190917969,-0.76171875,0.0035288333892822266,-0.17578125,0.053658246994018555,-3.0625,-0.0035696029663085938,0.0625,-0.0006551742553710938,0.1875,0.06972026824951172,-4.0,-0.004184722900390625,0.0625,0.02728128433227539,-1.611328125,6.008148193359375e-05,0.029296875,-0.0089493989944458,0.3355823755264282,0.0,0.0,0.0,0.0
2025-04-10 10:40:03.209798,0.039612531661987305,-2.5,0.0018558502197265625,-0.1875,0.0008587837219238281,0.0625,0.04597949981689453,-2.875,0.0026025772094726562,-0.3125,0.012324333190917969,-0.751953125,0.0035212039947509766,-0.17578125,0.05368208885192871,-3.0625,-0.0035696029663085938,0.0625,-0.0006551742553710938,0.125,0.06972026824951172,-4.0,-0.004184722900390625,0.0625,0.02728128433227539,-1.58203125,6.008148193359375e-05,0.01953125,-0.0089493989944458,0.3355823755264282,0.0,0.0,0.0,0.0
2025-04-10 10:40:03.684829,0.039612531661987305,-2.5,0.0018558502197265625,-0.1875,0.0008587837219238281,0.0625,0.04599142074584961,-2.875,0.0026025772094726562,-0.3125,0.012324333190917969,-0.751953125,0.0035288333892822266,-0.17578125,0.053658246994018555,-3.0625,-0.0035576820373535156,0.0625,-0.0006313323974609375,0.125,0.06969594955444336,-4.0,-0.004184722900390625,0.0625,0.02728128433227539,-1.591796875,5.245208740234375e-05,0.029296875,-0.008936047554016113,0.3355823755264282,0.0,0.0,0.0,0.0
2025-04-10 10:40:04.159877,0.039612531661987305,-2.5,0.0018318891525268555,-0.1875,0.0008587837219238281,0.0625,0.04597949981689453,-2.875,0.002638578414916992,-0.3125,0.012324333190917969,-0.751953125,0.0035212039947509766,-0.1953125,0.053658246994018555,-3.0625,-0.003581523895263672,0.0625,-0.0006432533264160156,0.1875,0.06969594955444336,-4.0,-0.004184722900390625,0.0625,0.02728128433227539,-1.591796875,6.008148193359375e-05,0.029296875,-0.008976221084594727,0.3355823755264282,0.0,0.0,0.0,0.0
2025-04-10 10:40:04.634868,0.039612531661987305,-2.5,0.0018199682235717773,-0.1875,0.0008709430694580078,0.0625,0.04599142074584961,-2.875,0.002626657485961914,-0.3125,0.012324333190917969,-0.751953125,0.0035288333892822266,-0.17578125,0.05368208885192871,-3.0625,-0.0035696029663085938,0.0625,-0.0006313323974609375,0.125,0.06969594955444336,-4.0,-0.0041727423667907715,0.0625,0.02728128433227539,-1.591796875,6.771087646484375e-05,0.029296875,-0.0089493989944458,0.3355823755264282,0.0,0.0,0.0,0.0
2025-04-10 10:40:05.113610,0.039612531661987305,-2.5,0.0018318891525268555,-0.1875,0.0008709430694580078,0.0625,0.04599142074584961,-2.875,0.0026025772094726562,-0.3125,0.012324333190917969,-0.76171875,0.0035288333892822266,-0.17578125,0.05368208885192871,-3.0625,-0.0035576820373535156,0.125,-0.0005953311920166016,0.125,0.06969594955444336,-4.0,-0.004208683967590332,0.0625,0.02726602554321289,-1.58203125,4.482269287109375e-05,0.029296875,-0.0089493989944458,0.39151278138160706,0.0,0.0,0.0,0.0
2025-04-10 10:40:05.588543,0.039612531661987305,-2.5,0.0018439292907714844,-0.25,0.0008587837219238281,0.0625,0.04597949981689453,-2.875,0.002626657485961914,-0.3125,0.012324333190917969,-0.751953125,0.0035288333892822266,-0.166015625,0.05367016792297363,-3.0625,-0.0035696029663085938,0.0625,-0.0006194114685058594,0.125,0.06970834732055664,-4.0,-0.004184722900390625,0.0625,0.02728128433227539,-1.58203125,6.008148193359375e-05,0.029296875,-0.008962810039520264,0.3355823755264282,0.0,0.0,0.0,0.0
2025-04-10 10:40:06.063634,0.03962445259094238,-2.4375,0.0018318891525268555,-0.1875,0.0008349418640136719,0.0625,0.04597949981689453,-2.8125,0.002626657485961914,-0.3125,0.012324333190917969,-0.751953125,0.0035212039947509766,-0.166015625,0.05368208885192871,-3.0625,-0.0035696029663085938,0.0625,-0.0006551742553710938,0.125,0.06969594955444336,-4.0,-0.004208683967590332,0.0625,0.02727365493774414,-1.591796875,5.245208740234375e-05,0.01953125,-0.008976221084594727,0.3355823755264282,0.0,0.0,0.0,0.0
2025-04-10 10:40:06.538666,0.03962445259094238,-2.5,0.0018318891525268555,-0.1875,0.0008349418640136719,0.0625,0.04597949981689453,-2.875,0.002626657485961914,-0.3125,0.012324333190917969,-0.751953125,0.0035212039947509766,-0.166015625,0.05368208885192871,-3.0625,-0.0035696029663085938,0.0625,-0.0006313323974609375,0.125,0.06969594955444336,-4.0,-0.004184722900390625,0.0625,0.02727365493774414,-1.591796875,5.245208740234375e-05,0.0,-0.008962810039520264,0.39151278138160706,0.0,0.0,0.0,0.0
2025-04-10 10:40:07.019309,0.03960061073303223,-2.5,0.0018199682235717773,-0.1875,0.00084686279296875,0.0625,0.045955657958984375,-2.875,0.002638578414916992,-0.3125,0.012324333190917969,-0.751953125,0.0035288333892822266,-0.17578125,0.05368208885192871,-3.0625,-0.003581523895263672,0.125,-0.0005953311920166016,0.125,0.06969594955444336,-4.0,-0.004208683967590332,0.125,0.02728128433227539,-1.591796875,5.245208740234375e-05,0.029296875,-0.0089493989944458,0.3355823755264282,0.0,0.0,0.0,0.0
2025-04-10 10:40:07.494342,0.03958845138549805,-2.5,0.0018199682235717773,-0.1875,0.0008587837219238281,0.0625,0.045943498611450195,-2.875,0.002626657485961914,-0.3125,0.012301445007324219,-0.751953125,0.0035288333892822266,-0.166015625,0.05367016792297363,-3.0625,-0.0035696029663085938,0.0625,-0.0005834102630615234,0.1875,0.06969594955444336,-4.0,-0.004184722900390625,0.0625,0.02727365493774414,-1.58203125,6.008148193359375e-05,0.01953125,-0.0089493989944458,0.3355823755264282,0.0,0.0,0.0,0.0
2025-04-10 10:40:07.969353,0.03962445259094238,-2.5,0.0018318891525268555,-0.1875,0.0008587837219238281,0.0625,0.04596757888793945,-2.875,0.0026025772094726562,-0.3125,0.012324333190917969,-0.751953125,0.0035288333892822266,-0.166015625,0.05367016792297363,-3.0625,-0.0035696029663085938,0.0625,-0.0006313323974609375,0.125,0.06969594955444336,-4.0,-0.004184722900390625,0.0625,0.02727365493774414,-1.58203125,6.008148193359375e-05,0.0,-0.0089493989944458,0.39151278138160706,0.0,0.0,0.0,0.0
2025-04-10 10:40:08.444355,0.03962445259094238,-2.5,0.0018199682235717773,-0.25,0.0008587837219238281,0.0625,0.045955657958984375,-2.875,0.0026025772094726562,-0.3125,0.012316703796386719,-0.76171875,0.0035212039947509766,-0.17578125,0.05367016792297363,-3.0625,-0.0035696029663085938,0.0625,-0.0006432533264160156,0.125,0.06969594955444336,-4.0,-0.004184722900390625,0.0625,0.02728128433227539,-1.58203125,6.008148193359375e-05,0.029296875,-0.0089493989944458,0.3355823755264282,0.0,0.0,0.0,0.0
2025-04-10 10:40:08.919353,0.039612531661987305,-2.5,0.0018318891525268555,-0.1875,0.0008349418640136719,0.0625,0.04593157768249512,-2.9375,0.002626657485961914,-0.3125,0.012324333190917969,-0.751953125,0.0035135746002197266,-0.166015625,0.05367016792297363,-3.0625,-0.0035696029663085938,0.0625,-0.0006072521209716797,0.125,0.06969594955444336,-4.0,-0.004184722900390625,0.0625,0.02726602554321289,-1.591796875,5.245208740234375e-05,0.029296875,-0.008962810039520264,0.39151278138160706,0.0,0.0,0.0,0.0
2025-04-10 10:40:09.394631,0.03960061073303223,-2.4375,0.0018199682235717773,-0.1875,0.00084686279296875,0.0625,0.045955657958984375,-2.875,0.002626657485961914,-0.3125,0.012316703796386719,-0.751953125,0.0035212039947509766,-0.17578125,0.05368208885192871,-3.0625,-0.0035576820373535156,0.125,-0.0006432533264160156,0.1875,0.06969594955444336,-4.0,-0.004208683967590332,0.0625,0.02727365493774414,-1.591796875,6.008148193359375e-05,0.01953125,-0.0089493989944458,0.39151278138160706,0.0,0.0,0.0,0.0
2025-04-10 10:40:09.869387,0.039612531661987305,-2.5,0.0018439292907714844,-0.1875,0.0008587837219238281,0.0625,0.045943498611450195,-2.875,0.002626657485961914,-0.3125,0.012331962585449219,-0.751953125,0.003536701202392578,-0.17578125,0.05368208885192871,-3.0,-0.0035696029663085938,0.125,-0.0006072521209716797,0.125,0.06969594955444336,-4.0,-0.004184722900390625,0.0625,0.027257919311523438,-1.591796875,5.245208740234375e-05,0.029296875,-0.008962810039520264,0.3355823755264282,0.0,0.0,0.0,0.0
2025-04-10 10:40:10.344139,0.039612531661987305,-2.5,0.0018318891525268555,-0.1875,0.0008587837219238281,0.0625,0.04591965675354004,-2.8125,0.002626657485961914,-0.25,0.012316703796386719,-0.76171875,0.0035212039947509766,-0.17578125,0.05367016792297363,-3.0625,-0.003581523895263672,0.0625,-0.0006432533264160156,0.1875,0.06969594955444336,-4.0,-0.004184722900390625,0.0625,0.02727365493774414,-1.611328125,6.008148193359375e-05,0.01953125,-0.00892263650894165,0.3355823755264282,0.0,0.0,0.0,0.0
2025-04-10 10:40:10.819086,0.03962445259094238,-2.5,0.0018318891525268555,-0.1875,0.0008349418640136719,0.0,0.045943498611450195,-2.9375,0.002626657485961914,-0.3125,0.012316703796386719,-0.751953125,0.0035135746002197266,-0.17578125,0.05367016792297363,-3.0625,-0.003581523895263672,0.0625,-0.0006313323974609375,0.1875,0.06969594955444336,-4.0,-0.004208683967590332,0.0625,0.02728128433227539,-1.591796875,5.245208740234375e-05,0.029296875,-0.0089493989944458,0.3355823755264282,0.0,0.0,0.0,0.0
2025-04-10 10:40:11.309555,0.039612531661987305,-2.5,0.0018318891525268555,-0.1875,0.0008230209350585938,0.0625,0.04590773582458496,-2.8125,0.002626657485961914,-0.3125,0.012324333190917969,-0.76171875,0.0035212039947509766,-0.17578125,0.05368208885192871,-3.0625,-0.0035696029663085938,0.0625,-0.0006194114685058594,0.125,0.06969594955444336,-4.0,-0.0041727423667907715,0.0625,0.02726602554321289,-1.591796875,6.008148193359375e-05,0.029296875,-0.008507490158081055,0.3355823755264282,0.0,0.0,0.0,0.0
2025-04-10 10:40:11.784412,0.039612531661987305,-2.5,0.0018318891525268555,-0.1875,0.0008349418640136719,0.0625,0.045943498611450195,-2.8125,0.0026025772094726562,-0.3125,0.012316703796386719,-0.751953125,0.0035135746002197266,-0.17578125,0.05367016792297363,-3.0625,-0.003581523895263672,0.0625,-0.0006313323974609375,0.125,0.06970834732055664,-4.0,-0.0041727423667907715,0.125,0.02728128433227539,-1.58203125,5.245208740234375e-05,0.01953125,-0.008534252643585205,0.3355823755264282,0.0,0.0,0.0,0.0
2025-04-10 10:40:12.259368,0.039612531661987305,-2.4375,0.0018318891525268555,-0.1875,0.0008587837219238281,0.0625,0.04590773582458496,-2.875,0.002638578414916992,-0.3125,0.012316703796386719,-0.751953125,0.0035135746002197266,-0.17578125,0.05368208885192871,-3.0,-0.0035576820373535156,0.0625,-0.0006194114685058594,0.125,0.06969594955444336,-4.0,-0.004184722900390625,0.0625,0.02727365493774414,-1.591796875,5.245208740234375e-05,0.01953125,-0.008212864398956299,0.3355823755264282,0.0,0.0,0.0,0.0
2025-04-10 10:40:12.734747,0.039612531661987305,-2.5,0.0018199682235717773,-0.1875,0.0008349418640136719,0.0625,0.04591965675354004,-2.9375,0.002626657485961914,-0.3125,0.012324333190917969,-0.76171875,0.0035135746002197266,-0.1953125,0.053658246994018555,-3.0625,-0.0035696029663085938,0.0625,-0.0006551742553710938,0.125,0.06972026824951172,-4.0,-0.004184722900390625,0.0625,0.02727365493774414,-1.591796875,6.008148193359375e-05,0.029296875,-0.008172690868377686,0.2796519994735718,0.0,0.0,0.0,0.0
2025-04-10 10:40:13.223712,0.039612531661987305,-2.5,0.0018318891525268555,-0.25,0.0008587837219238281,0.0625,0.04591965675354004,-2.875,0.002614736557006836,-0.3125,0.012324333190917969,-0.751953125,0.0035135746002197266,-0.166015625,0.053658246994018555,-3.0625,-0.0035576820373535156,0.0625,-0.0006551742553710938,0.1875,0.06970834732055664,-4.0,-0.0041727423667907715,0.0625,0.02726602554321289,-1.58203125,5.245208740234375e-05,0.01953125,-0.008159279823303223,0.2796519994735718,0.0,0.0,0.0,0.0
2025-04-10 10:40:13.698773,0.03960061073303223,-2.5,0.0018318891525268555,-0.1875,0.0008828639984130859,0.0625,0.04590773582458496,-2.875,0.002626657485961914,-0.3125,0.012309074401855469,-0.751953125,0.0035212039947509766,-0.17578125,0.05367016792297363,-3.0625,-0.0035696029663085938,0.0625,-0.0005834102630615234,0.125,0.06969594955444336,-4.0,-0.004184722900390625,0.125,0.02727365493774414,-1.591796875,5.245208740234375e-05,0.029296875,-0.008132517337799072,0.2796519994735718,0.0,0.0,0.0,0.0
2025-04-10 10:40:14.173728,0.03962445259094238,-2.5,0.0018318891525268555,-0.1875,0.0008587837219238281,0.0625,0.04590773582458496,-2.875,0.0026025772094726562,-0.3125,0.012324333190917969,-0.76171875,0.0035135746002197266,-0.17578125,0.0531308650970459,-3.0,-0.003497600555419922,0.0625,0.0013341903686523438,0.0,0.06962442398071289,-4.0,-0.004160761833190918,0.125,0.027257919311523438,-1.58203125,5.245208740234375e-05,0.01953125,-0.00751650333404541,0.2796519994735718,0.0,0.0,0.0,0.0
2025-04-10 10:40:14.648739,0.039612531661987305,-2.5,0.0018678903579711914,-0.1875,0.00084686279296875,0.0625,0.04591965675354004,-2.8125,0.002626657485961914,-0.3125,0.012309074401855469,-0.771484375,0.0035059452056884766,-0.17578125,0.05248379707336426,-3.0,-0.0034499168395996094,0.0625,0.001310110092163086,0.0,0.06945657730102539,-4.0,-0.004112839698791504,0.0625,0.02727365493774414,-1.591796875,6.008148193359375e-05,0.029296875,-0.007529854774475098,0.22372159361839294,0.0,0.0,0.0,0.0
2025-04-10 10:40:15.123756,0.03960061073303223,-2.5,0.0018318891525268555,-0.1875,0.0008349418640136719,0.0625,0.04590773582458496,-2.875,0.002626657485961914,-0.3125,0.012324333190917969,-0.751953125,0.0035059452056884766,-0.17578125,0.05115342140197754,-2.875,-0.0034499168395996094,0.0625,0.0012502670288085938,0.0625,0.06932449340820312,-4.0,-0.004112839698791504,0.0625,0.027257919311523438,-1.58203125,7.581710815429688e-05,0.029296875,-0.007570028305053711,0.22372159361839294,0.0,0.0,0.0,0.0
2025-04-10 10:40:15.598737,0.03962445259094238,-2.5,0.0018318891525268555,-0.1875,0.0008587837219238281,0.0625,0.04591965675354004,-2.875,0.002626657485961914,-0.3125,0.012309074401855469,-0.751953125,0.0035059452056884766,-0.17578125,0.04894852638244629,-2.75,-0.0034379959106445312,0.0625,0.0007469654083251953,0.0625,0.06895303726196289,-3.9375,-0.004112839698791504,0.0625,0.027227401733398438,-1.591796875,2.193450927734375e-05,0.01953125,-0.007462918758392334,0.2796519994735718,0.0,0.0,0.0,0.0
2025-04-10 10:40:16.073728,0.03962445259094238,-2.5,0.0018318891525268555,-0.1875,0.0008587837219238281,0.0625,0.0458836555480957,-2.8125,0.002638578414916992,-0.3125,0.012309074401855469,-0.76171875,0.0035135746002197266,-0.17578125,0.04844498634338379,-2.75,-0.0034379959106445312,0.0625,0.0017056465148925781,0.0,0.06891727447509766,-3.9375,-0.004088878631591797,0.125,0.027235031127929688,-1.591796875,2.193450927734375e-05,0.01953125,-0.006779909133911133,0.22372159361839294,0.0,0.0,0.0,0.0
2025-04-10 10:40:16.548746,0.03962445259094238,-2.4375,0.0018318891525268555,-0.1875,0.0008349418640136719,0.0625,0.04589557647705078,-2.875,0.002626657485961914,-0.3125,0.012316703796386719,-0.76171875,0.0035212039947509766,-0.17578125,0.04844498634338379,-2.6875,-0.0034379959106445312,0.0625,0.0018134117126464844,0.0625,0.06892919540405273,-3.9375,-0.004076898097991943,0.0625,0.027227401733398438,-1.58203125,2.193450927734375e-05,0.029296875,-0.006779909133911133,0.22372159361839294,0.0,0.0,0.0,0.0
2025-04-10 10:40:17.023802,0.039612531661987305,-2.5,0.0018318891525268555,-0.25,0.0008349418640136719,0.0625,0.04590773582458496,-2.8125,0.002626657485961914,-0.3125,0.012309074401855469,-0.76171875,0.0034983158111572266,-0.166015625,0.04844498634338379,-2.75,-0.0033898353576660156,0.0625,0.0019812583923339844,0.0,0.06891727447509766,-3.9375,-0.004076898097991943,0.0625,0.027219772338867188,-1.58203125,2.956390380859375e-05,0.029296875,-0.006806731224060059,0.22372159361839294,0.0,0.0,0.0,0.0
2025-04-10 10:40:17.498746,0.03962445259094238,-2.5,0.0018318891525268555,-0.1875,0.0008349418640136719,0.0625,0.04589557647705078,-2.875,0.002626657485961914,-0.3125,0.012316703796386719,-0.751953125,0.0034983158111572266,-0.17578125,0.04844498634338379,-2.75,-0.0032939910888671875,0.0625,0.002808094024658203,0.0,0.06895303726196289,-3.9375,-0.004088878631591797,0.0625,0.027219772338867188,-1.58203125,2.193450927734375e-05,0.029296875,-0.006793320178985596,0.22372159361839294,0.0,0.0,0.0,0.0
2025-04-10 10:40:17.973773,0.03962445259094238,-2.5,0.0018318891525268555,-0.1875,0.0008349418640136719,0.0625,0.04590773582458496,-2.875,0.002626657485961914,-0.3125,0.012316703796386719,-0.751953125,0.0035059452056884766,-0.17578125,0.04844498634338379,-2.75,-0.003245830535888672,0.0,0.002880096435546875,-0.0625,0.06891727447509766,-3.9375,-0.00410085916519165,0.0625,0.027204513549804688,-1.58203125,1.430511474609375e-05,0.0,-0.006779909133911133,0.22372159361839294,0.0,0.0,0.0,0.0
2025-04-10 10:40:18.448886,0.03960061073303223,-2.5,0.0018199682235717773,-0.1875,0.0008349418640136719,0.0625,0.04590773582458496,-2.875,0.002638578414916992,-0.3125,0.012309074401855469,-0.751953125,0.0035059452056884766,-0.17578125,0.04845714569091797,-2.75,-0.003258228302001953,0.0,0.002868175506591797,0.0,0.06892919540405273,-3.9375,-0.004112839698791504,0.0625,0.027196884155273438,-1.58203125,1.430511474609375e-05,0.01953125,-0.006820082664489746,0.22372159361839294,0.0,0.0,0.0,0.0
2025-04-10 10:40:18.923859,0.039612531661987305,-2.5,0.0018318891525268555,-0.1875,0.0008230209350585938,0.0625,0.04590773582458496,-2.875,0.002626657485961914,-0.3125,0.012309074401855469,-0.751953125,0.0034983158111572266,-0.17578125,0.04845714569091797,-2.75,-0.0032339096069335938,0.0625,0.002676248550415039,-0.0625,0.06892919540405273,-3.9375,-0.004088878631591797,0.125,0.027212142944335938,-1.58203125,1.430511474609375e-05,0.01953125,-0.006806731224060059,0.22372159361839294,0.0,0.0,0.0,0.0
2025-04-10 10:40:19.408292,0.03960061073303223,-2.5,0.0018318891525268555,-0.1875,0.0008230209350585938,0.0625,0.0458836555480957,-2.875,0.002626657485961914,-0.25,0.012309074401855469,-0.751953125,0.0034983158111572266,-0.17578125,0.04844498634338379,-2.75,-0.003258228302001953,0.0625,0.002784252166748047,-0.0625,0.06892919540405273,-3.9375,-0.004088878631591797,0.0625,0.027212142944335938,-1.58203125,3.719329833984375e-05,0.029296875,-0.006793320178985596,0.22372159361839294,0.0,0.0,0.0,0.0
2025-04-10 10:40:19.883312,0.039612531661987305,-2.5,0.0018318891525268555,-0.1875,0.0008349418640136719,0.0625,0.04590773582458496,-2.875,0.002638578414916992,-0.3125,0.012309074401855469,-0.76171875,0.0035059452056884766,-0.166015625,0.04846906661987305,-2.6875,-0.0032339096069335938,0.0625,0.002736330032348633,-0.0625,0.06892919540405273,-3.9375,-0.004088878631591797,0.0625,0.027204513549804688,-1.58203125,2.193450927734375e-05,0.029296875,-0.006806731224060059,0.22372159361839294,0.0,0.0,0.0,0.0
2025-04-10 10:40:20.358584,0.039612531661987305,-2.5,0.0018318891525268555,-0.1875,0.00084686279296875,0.0625,0.0458836555480957,-2.875,0.002626657485961914,-0.3125,0.012301445007324219,-0.76171875,0.0034983158111572266,-0.166015625,0.04844498634338379,-2.75,-0.003258228302001953,0.0,0.0026404857635498047,0.0,0.06891727447509766,-3.9375,-0.004124820232391357,0.0625,0.027196884155273438,-1.58203125,2.193450927734375e-05,0.029296875,-0.006846904754638672,0.22372159361839294,0.0,0.0,0.0,0.0
2025-04-10 10:40:20.833329,0.039612531661987305,-2.5,0.0018199682235717773,-0.1875,0.0008349418640136719,0.0625,0.0458836555480957,-2.875,0.002626657485961914,-0.3125,0.012324333190917969,-0.76171875,0.0034983158111572266,-0.166015625,0.04844498634338379,-2.75,-0.003258228302001953,0.0625,0.0021970272064208984,0.0,0.06892919540405273,-3.9375,-0.004088878631591797,0.0625,0.027196884155273438,-1.58203125,6.67572021484375e-06,0.029296875,-0.007047772407531738,0.22372159361839294,0.0,0.0,0.0,0.0
2025-04-10 10:40:21.308422,0.03960061073303223,-2.4375,0.0018318891525268555,-0.1875,0.0008828639984130859,0.0625,0.0458836555480957,-2.875,0.002626657485961914,-0.3125,0.012309074401855469,-0.751953125,0.0035059452056884766,-0.17578125,0.04845714569091797,-2.75,-0.003245830535888672,0.0625,0.002364635467529297,0.0,0.06892919540405273,-3.9375,-0.004112839698791504,0.0625,0.027189254760742188,-1.58203125,-9.5367431640625e-07,0.029296875,-0.007047772407531738,0.22372159361839294,0.0,0.0,0.0,0.0
2025-04-10 10:40:21.783293,0.03962445259094238,-2.5,0.0018439292907714844,-0.1875,0.0008349418640136719,0.0625,0.0458836555480957,-2.875,0.002614736557006836,-0.3125,0.012301445007324219,-0.76171875,0.0034983158111572266,-0.17578125,0.04846906661987305,-2.75,-0.0032701492309570312,0.0,0.0024127960205078125,0.0,0.06895303726196289,-3.9375,-0.004076898097991943,0.125,0.027204513549804688,-1.572265625,6.67572021484375e-06,0.01953125,-0.007047772407531738,0.22372159361839294,0.0,0.0,0.0,0.0
2025-04-10 10:40:22.258657,0.039612531661987305,-2.5,0.0018199682235717773,-0.1875,0.0008349418640136719,0.0625,0.04589557647705078,-2.8125,0.002626657485961914,-0.3125,0.012293815612792969,-0.76171875,0.0035059452056884766,-0.17578125,0.04845714569091797,-2.75,-0.003258228302001953,0.0625,0.0024127960205078125,0.0,0.06892919540405273,-3.9375,-0.004076898097991943,0.0625,0.027196884155273438,-1.572265625,6.67572021484375e-06,0.01953125,-0.007021009922027588,0.22372159361839294,0.0,0.0,0.0,0.0
2025-04-10 10:40:22.733456,0.039612531661987305,-2.5,0.0018318891525268555,-0.1875,0.0008349418640136719,0.0625,0.04589557647705078,-2.875,0.002626657485961914,-0.3125,0.012309074401855469,-0.76171875,0.0035059452056884766,-0.15625,0.04844498634338379,-2.75,-0.003258228302001953,0.0625,0.002616405487060547,0.0,0.06892919540405273,-3.9375,-0.00406491756439209,0.0625,0.027204513549804688,-1.591796875,1.430511474609375e-05,0.01953125,-0.007021009922027588,0.22372159361839294,0.0,0.0,0.0,0.0
2025-04-10 10:40:23.238864,0.03958845138549805,-2.5,0.0018318891525268555,-0.1875,0.0008349418640136719,0.0625,0.04589557647705078,-2.875,0.0026025772094726562,-0.3125,0.012293815612792969,-0.76171875,0.0035059452056884766,-0.17578125,0.04846906661987305,-2.75,-0.0032339096069335938,0.0625,0.002616405487060547,0.0,0.06892919540405273,-3.9375,-0.004076898097991943,0.125,0.027196884155273438,-1.58203125,6.67572021484375e-06,0.01953125,-0.007007598876953125,0.22372159361839294,0.0,0.0,0.0,0.0
2025-04-10 10:40:23.713737,0.03960061073303223,-2.5,0.0018439292907714844,-0.1875,0.0008230209350585938,0.0625,0.04590773582458496,-2.875,0.0026025772094726562,-0.3125,0.012293815612792969,-0.76171875,0.0034983158111572266,-0.17578125,0.04846906661987305,-2.75,-0.0032339096069335938,0.0,0.0026044845581054688,0.0,0.06892919540405273,-3.9375,-0.004088878631591797,0.0625,0.027196884155273438,-1.591796875,1.430511474609375e-05,0.01953125,-0.007021009922027588,0.22372159361839294,0.0,0.0,0.0,0.0
2025-04-10 10:40:24.188725,0.03960061073303223,-2.5,0.0018318891525268555,-0.1875,0.0008349418640136719,0.0625,0.04589557647705078,-2.8125,0.002626657485961914,-0.3125,0.012293815612792969,-0.76171875,0.0034983158111572266,-0.17578125,0.04845714569091797,-2.75,-0.0032339096069335938,0.0,0.0026044845581054688,0.0,0.06891727447509766,-3.9375,-0.004076898097991943,0.0625,0.027189254760742188,-1.58203125,6.67572021484375e-06,0.01953125,-0.007021009922027588,0.22372159361839294,0.0,0.0,0.0,0.0
2025-04-10 10:40:24.663720,0.039612531661987305,-2.5,0.0018079280853271484,-0.1875,0.0008587837219238281,0.0625,0.04589557647705078,-2.875,0.002626657485961914,-0.3125,0.012301445007324219,-0.751953125,0.0035059452056884766,-0.166015625,0.04844498634338379,-2.6875,-0.003258228302001953,0.0625,0.002580404281616211,0.0,0.06895303726196289,-3.9375,-0.004088878631591797,0.0625,0.027196884155273438,-1.58203125,-9.5367431640625e-07,0.01953125,-0.007021009922027588,0.22372159361839294,0.0,0.0,0.0,0.0
2025-04-10 10:40:25.139710,0.03958845138549805,-2.5,0.0018439292907714844,-0.1875,0.0008349418640136719,0.0625,0.0458836555480957,-2.9375,0.0026025772094726562,-0.3125,0.012301445007324219,-0.76171875,0.0035059452056884766,-0.17578125,0.04845714569091797,-2.75,-0.003258228302001953,0.0,0.0026044845581054688,0.0,0.06891727447509766,-3.9375,-0.004076898097991943,0.0625,0.027196884155273438,-1.58203125,2.193450927734375e-05,0.029296875,-0.006994187831878662,0.22372159361839294,0.0,0.0,0.0,0.0
2025-04-10 10:40:25.613747,0.03962445259094238,-2.5,0.0018199682235717773,-0.1875,0.0008349418640136719,0.0625,0.0458836555480957,-2.875,0.002626657485961914,-0.25,0.012293815612792969,-0.771484375,0.0035059452056884766,-0.17578125,0.04846906661987305,-2.6875,-0.003258228302001953,0.0,0.002580404281616211,0.0,0.06894111633300781,-3.9375,-0.004076898097991943,0.0625,0.027196884155273438,-1.572265625,6.67572021484375e-06,0.029296875,-0.007034361362457275,0.22372159361839294,0.0,0.0,0.0,0.0
2025-04-10 10:40:26.088854,0.03960061073303223,-2.5,0.0018318891525268555,-0.1875,0.0008230209350585938,0.0625,0.0458836555480957,-2.875,0.002626657485961914,-0.3125,0.012293815612792969,-0.751953125,0.0035059452056884766,-0.17578125,0.04845714569091797,-2.75,-0.0032701492309570312,0.0625,0.002580404281616211,0.0,0.06895303726196289,-3.9375,-0.004076898097991943,0.125,0.027189254760742188,-1.58203125,1.430511474609375e-05,0.029296875,-0.007047772407531738,0.22372159361839294,0.0,0.0,0.0,0.0
2025-04-10 10:40:26.563827,0.03960061073303223,-2.5,0.0018079280853271484,-0.25,0.0008349418640136719,0.0625,0.0458836555480957,-2.875,0.002626657485961914,-0.3125,0.012301445007324219,-0.751953125,0.0035059452056884766,-0.166015625,0.04845714569091797,-2.75,-0.003258228302001953,0.0625,0.002544403076171875,0.0,0.06892919540405273,-3.9375,-0.004076898097991943,0.0625,0.027196884155273438,-1.58203125,1.430511474609375e-05,0.01953125,-0.007034361362457275,0.22372159361839294,0.0,0.0,0.0,0.0
2025-04-10 10:40:27.038821,0.039612531661987305,-2.5,0.0018318891525268555,-0.1875,0.00084686279296875,0.0625,0.0458836555480957,-2.875,0.002626657485961914,-0.3125,0.012293815612792969,-0.751953125,0.0035059452056884766,-0.17578125,0.048480987548828125,-2.6875,-0.003258228302001953,0.0625,0.0025205612182617188,0.0,0.06894111633300781,-3.9375,-0.004088878631591797,0.125,0.027196884155273438,-1.58203125,1.430511474609375e-05,0.0390625,-0.007034361362457275,0.22372159361839294,0.0,0.0,0.0,0.0
2025-04-10 10:40:27.513803,0.03960061073303223,-2.5,0.0018318891525268555,-0.1875,0.0008108615875244141,0.0625,0.0458836555480957,-2.875,0.002626657485961914,-0.3125,0.012293815612792969,-0.76171875,0.0035059452056884766,-0.17578125,0.048480987548828125,-2.75,-0.003258228302001953,0.0625,0.002544403076171875,0.0,0.06892919540405273,-3.9375,-0.004076898097991943,0.0625,0.027196884155273438,-1.58203125,1.430511474609375e-05,0.029296875,-0.007047772407531738,0.22372159361839294,0.0,0.0,0.0,0.0
2025-04-10 10:40:27.988847,0.03960061073303223,-2.5,0.0018318891525268555,-0.1875,0.0008349418640136719,0.0625,0.0458836555480957,-2.875,0.002626657485961914,-0.3125,0.012293815612792969,-0.76171875,0.0035059452056884766,-0.17578125,0.048480987548828125,-2.75,-0.003258228302001953,0.0,0.002544403076171875,0.0,0.06892919540405273,-3.9375,-0.004076898097991943,0.0625,0.027189254760742188,-1.58203125,6.67572021484375e-06,0.029296875,-0.007061183452606201,0.2796519994735718,0.0,0.0,0.0,0.0
2025-04-10 10:40:28.463901,0.039612531661987305,-2.5,0.0018318891525268555,-0.1875,0.0008349418640136719,0.0625,0.04589557647705078,-2.875,0.0026025772094726562,-0.3125,0.012301445007324219,-0.76171875,0.0034983158111572266,-0.17578125,0.04845714569091797,-2.75,-0.003258228302001953,0.0625,0.0025205612182617188,0.0,0.06892919540405273,-3.9375,-0.004088878631591797,0.0625,0.027189254760742188,-1.58203125,6.67572021484375e-06,0.01953125,-0.007047772407531738,0.22372159361839294,0.0,0.0,0.0,0.0
2025-04-10 10:40:28.938835,0.03962445259094238,-2.5,0.0018199682235717773,-0.1875,0.0008230209350585938,0.0625,0.0458836555480957,-2.875,0.002626657485961914,-0.3125,0.012293815612792969,-0.76171875,0.0034983158111572266,-0.17578125,0.04845714569091797,-2.6875,-0.003258228302001953,0.0625,0.002496480941772461,0.0,0.06892919540405273,-3.9375,-0.004076898097991943,0.0625,0.027196884155273438,-1.58203125,1.430511474609375e-05,0.029296875,-0.007047772407531738,0.22372159361839294,0.0,0.0,0.0,0.0
2025-04-10 10:40:29.430140,0.039612531661987305,-2.5,0.0018318891525268555,-0.1875,0.0008230209350585938,0.0625,0.0458836555480957,-2.875,0.002626657485961914,-0.3125,0.012293815612792969,-0.76171875,0.0034983158111572266,-0.166015625,0.04845714569091797,-2.75,-0.003258228302001953,0.0625,0.002544403076171875,0.0,0.06892919540405273,-3.9375,-0.004076898097991943,0.0625,0.027196884155273438,-1.58203125,6.67572021484375e-06,0.01953125,-0.007047772407531738,0.22372159361839294,0.0,0.0,0.0,0.0
2025-04-10 10:40:29.905023,0.039612531661987305,-2.5,0.0018079280853271484,-0.1875,0.0008349418640136719,0.0,0.045871734619140625,-2.875,0.002638578414916992,-0.3125,0.012293815612792969,-0.76171875,0.0034906864166259766,-0.17578125,0.04845714569091797,-2.75,-0.0032701492309570312,0.0625,0.002544403076171875,0.0,0.06891727447509766,-3.9375,-0.004076898097991943,0.0625,0.027196884155273438,-1.58203125,6.67572021484375e-06,0.01953125,-0.007047772407531738,0.22372159361839294,0.0,0.0,0.0,0.0
2025-04-10 10:40:30.380103,0.03960061073303223,-2.5,0.0018199682235717773,-0.1875,0.0008349418640136719,0.0625,0.0458836555480957,-2.875,0.002626657485961914,-0.3125,0.012293815612792969,-0.76171875,0.0034983158111572266,-0.166015625,0.04845714569091797,-2.75,-0.003258228302001953,0.0625,0.002532482147216797,0.0,0.06895303726196289,-3.9375,-0.00410085916519165,0.125,0.027196884155273438,-1.58203125,1.430511474609375e-05,0.01953125,-0.007074534893035889,0.22372159361839294,0.0,0.0,0.0,0.0
2025-04-10 10:40:30.855008,0.03960061073303223,-2.5,0.0018318891525268555,-0.1875,0.0008349418640136719,0.0625,0.0458836555480957,-2.875,0.002626657485961914,-0.3125,0.012293815612792969,-0.76171875,0.0035059452056884766,-0.166015625,0.04845714569091797,-2.75,-0.003258228302001953,0.0625,0.002544403076171875,0.0,0.06892919540405273,-3.9375,-0.004076898097991943,0.0625,0.027212142944335938,-1.58203125,6.67572021484375e-06,0.029296875,-0.007061183452606201,0.22372159361839294,0.0,0.0,0.0,0.0
2025-04-10 10:40:31.351965,0.039612531661987305,-2.5,0.0018439292907714844,-0.1875,0.0008349418640136719,0.0625,0.0458836555480957,-2.875,0.002626657485961914,-0.3125,0.012293815612792969,-0.76171875,0.0034983158111572266,-0.166015625,0.04846906661987305,-2.75,-0.003258228302001953,0.0,0.0025565624237060547,0.0,0.06891727447509766,-3.9375,-0.004076898097991943,0.0625,0.027196884155273438,-1.58203125,6.67572021484375e-06,0.01953125,-0.007061183452606201,0.22372159361839294,0.0,0.0,0.0,0.0
2025-04-10 10:40:31.826887,0.039612531661987305,-2.5,0.0018318891525268555,-0.1875,0.0008349418640136719,0.0625,0.0458836555480957,-2.8125,0.002626657485961914,-0.3125,0.012293815612792969,-0.751953125,0.0034906864166259766,-0.17578125,0.04846906661987305,-2.6875,-0.003258228302001953,0.0,0.0025565624237060547,0.0,0.06891727447509766,-3.9375,-0.004088878631591797,0.0625,0.027189254760742188,-1.58203125,-9.5367431640625e-07,0.029296875,-0.007061183452606201,0.2796519994735718,0.0,0.0,0.0,0.0
2025-04-10 10:40:32.323854,0.03962445259094238,-2.4375,0.0018199682235717773,-0.25,0.0008349418640136719,0.0625,0.0458836555480957,-2.875,0.002626657485961914,-0.3125,0.012286186218261719,-0.751953125,0.0035059452056884766,-0.17578125,0.048480987548828125,-2.8125,-0.003245830535888672,0.0625,0.002532482147216797,0.0,0.06892919540405273,-3.9375,-0.00410085916519165,0.0625,0.027196884155273438,-1.58203125,6.67572021484375e-06,0.029296875,-0.007061183452606201,0.2796519994735718,0.0,0.0,0.0,0.0
2025-04-10 10:40:32.798729,0.03960061073303223,-2.5,0.0018318891525268555,-0.1875,0.0008349418640136719,0.0625,0.0458836555480957,-2.875,0.0026025772094726562,-0.3125,0.012301445007324219,-0.76171875,0.0035059452056884766,-0.1953125,0.048480987548828125,-2.75,-0.003258228302001953,0.0625,0.002616405487060547,0.0,0.06892919540405273,-3.9375,-0.004076898097991943,0.0625,0.027196884155273438,-1.58203125,6.67572021484375e-06,0.029296875,-0.007061183452606201,0.22372159361839294,0.0,0.0,0.0,0.0
2025-04-10 10:40:33.288044,0.03958845138549805,-2.5,0.0018318891525268555,-0.1875,0.0008349418640136719,0.0625,0.045871734619140625,-2.875,0.002626657485961914,-0.3125,0.012293815612792969,-0.751953125,0.0035059452056884766,-0.166015625,0.048480987548828125,-2.75,-0.003258228302001953,0.0,0.0026044845581054688,0.0,0.06894111633300781,-3.9375,-0.004076898097991943,0.0625,0.027196884155273438,-1.591796875,-9.5367431640625e-07,0.029296875,-0.007061183452606201,0.22372159361839294,0.0,0.0,0.0,0.0
2025-04-10 10:40:33.763227,0.03960061073303223,-2.4375,0.0018318891525268555,-0.1875,0.0008349418640136719,0.0,0.0458836555480957,-2.8125,0.002626657485961914,-0.3125,0.012293815612792969,-0.751953125,0.0034906864166259766,-0.17578125,0.048480987548828125,-2.75,-0.003258228302001953,0.0625,0.0026044845581054688,0.0,0.06892919540405273,-3.9375,-0.004076898097991943,0.0625,0.027189254760742188,-1.591796875,-9.5367431640625e-07,0.01953125,-0.007047772407531738,0.1677911877632141,0.0,0.0,0.0,0.0
2025-04-10 10:40:34.238242,0.03957653045654297,-2.5,0.0018439292907714844,-0.1875,0.0008349418640136719,0.0625,0.0458836555480957,-2.875,0.0026025772094726562,-0.3125,0.012286186218261719,-0.751953125,0.0034906864166259766,-0.17578125,0.048480987548828125,-2.75,-0.003258228302001953,0.0625,0.002532482147216797,0.0,0.06892919540405273,-3.9375,-0.004076898097991943,0.0625,0.027204513549804688,-1.58203125,-9.5367431640625e-07,0.01953125,-0.007061183452606201,0.22372159361839294,0.0,0.0,0.0,0.0
2025-04-10 10:40:34.729495,0.039612531661987305,-2.5,0.0018199682235717773,-0.1875,0.0008349418640136719,0.0625,0.04589557647705078,-2.875,0.002626657485961914,-0.3125,0.012301445007324219,-0.76171875,0.0035059452056884766,-0.166015625,0.048480987548828125,-2.75,-0.003258228302001953,0.0,0.0021369457244873047,0.0,0.06891727447509766,-3.9375,-0.004088878631591797,0.0625,0.027196884155273438,-1.58203125,6.67572021484375e-06,0.029296875,-0.0070879459381103516,0.22372159361839294,0.0,0.0,0.0,0.0
2025-04-10 10:40:35.204378,0.03958845138549805,-2.5,0.0018439292907714844,-0.1875,0.0008349418640136719,0.0625,0.0458836555480957,-2.8125,0.002626657485961914,-0.3125,0.012293815612792969,-0.76171875,0.0034983158111572266,-0.17578125,0.048480987548828125,-2.75,-0.0032701492309570312,0.0,0.0022330284118652344,0.0,0.06892919540405273,-4.0,-0.004088878631591797,0.0625,0.027189254760742188,-1.591796875,6.67572021484375e-06,0.0390625,-0.007061183452606201,0.22372159361839294,0.0,0.0,0.0,0.0
2025-04-10 10:40:35.694775,0.039612531661987305,-2.5,0.0018199682235717773,-0.25,0.0008349418640136719,0.0625,0.0458836555480957,-2.875,0.002626657485961914,-0.3125,0.012293815612792969,-0.76171875,0.0034983158111572266,-0.166015625,0.048480987548828125,-2.75,-0.003258228302001953,0.0625,0.0023767948150634766,0.0,0.06892919540405273,-3.9375,-0.004088878631591797,0.0625,0.027204513549804688,-1.572265625,-9.5367431640625e-07,0.01953125,-0.007074534893035889,0.2796519994735718,0.0,0.0,0.0,0.0
2025-04-10 10:40:36.169600,0.03960061073303223,-2.5,0.0018199682235717773,-0.1875,0.0008349418640136719,0.0625,0.045871734619140625,-2.875,0.002626657485961914,-0.3125,0.012293815612792969,-0.76171875,0.0034983158111572266,-0.17578125,0.048480987548828125,-2.75,-0.003258228302001953,0.0625,0.0023527145385742188,0.0,0.06892919540405273,-3.9375,-0.004076898097991943,0.0625,0.027196884155273438,-1.58203125,2.193450927734375e-05,0.029296875,-0.007047772407531738,0.22372159361839294,0.0,0.0,0.0,0.0
2025-04-10 10:40:36.660723,0.03958845138549805,-2.4375,0.0018318891525268555,-0.1875,0.0008108615875244141,0.0625,0.0458836555480957,-2.875,0.002626657485961914,-0.25,0.012293815612792969,-0.751953125,0.0034983158111572266,-0.17578125,0.04845714569091797,-2.6875,-0.0032701492309570312,0.0625,0.0023288726806640625,0.0,0.06892919540405273,-3.9375,-0.004076898097991943,0.0625,0.027189254760742188,-1.58203125,6.67572021484375e-06,0.029296875,-0.007047772407531738,0.22372159361839294,0.0,0.0,0.0,0.0
2025-04-10 10:40:37.135706,0.03958845138549805,-2.5,0.0018079280853271484,-0.25,0.0008349418640136719,0.0625,0.0458836555480957,-2.875,0.002626657485961914,-0.3125,0.012293815612792969,-0.751953125,0.0034983158111572266,-0.166015625,0.04845714569091797,-2.75,-0.0032701492309570312,0.0,0.0025205612182617188,0.0,0.06892919540405273,-3.9375,-0.00406491756439209,0.0625,0.027196884155273438,-1.58203125,6.67572021484375e-06,0.029296875,-0.007021009922027588,0.22372159361839294,0.0,0.0,0.0,0.0
2025-04-10 10:40:37.610657,0.03958845138549805,-2.5,0.0018199682235717773,-0.1875,0.0008349418640136719,0.0625,0.0458836555480957,-2.8125,0.002626657485961914,-0.3125,0.012293815612792969,-0.751953125,0.0035135746002197266,-0.166015625,0.048480987548828125,-2.75,-0.003258228302001953,0.0625,0.002532482147216797,0.0,0.06892919540405273,-3.9375,-0.004076898097991943,0.125,0.027196884155273438,-1.58203125,6.67572021484375e-06,0.029296875,-0.007074534893035889,0.22372159361839294,0.0,0.0,0.0,0.0
2025-04-10 10:40:38.085724,0.039612531661987305,-2.5,0.0018678903579711914,-0.1875,0.0008230209350585938,0.0625,0.045871734619140625,-2.875,0.002626657485961914,-0.3125,0.012286186218261719,-0.751953125,0.0034983158111572266,-0.17578125,0.048480987548828125,-2.75,-0.003258228302001953,0.0625,0.0025086402893066406,0.0,0.06892919540405273,-3.9375,-0.004076898097991943,0.0625,0.027189254760742188,-1.58203125,1.430511474609375e-05,0.01953125,-0.0071013569831848145,0.2796519994735718,0.0,0.0,0.0,0.0
2025-04-10 10:40:38.560804,0.03960061073303223,-2.4375,0.0018318891525268555,-0.1875,0.0008108615875244141,0.0625,0.0458836555480957,-2.875,0.002626657485961914,-0.3125,0.012301445007324219,-0.751953125,0.003475189208984375,-0.17578125,0.04845714569091797,-2.75,-0.003258228302001953,0.0625,0.002616405487060547,0.0,0.06892919540405273,-3.9375,-0.004076898097991943,0.0625,0.027189254760742188,-1.591796875,6.67572021484375e-06,0.029296875,-0.007021009922027588,0.22372159361839294,0.0,0.0,0.0,0.0
2025-04-10 10:40:39.035874,0.03960061073303223,-2.5,0.0018199682235717773,-0.1875,0.0008108615875244141,0.0625,0.04589557647705078,-2.875,0.002638578414916992,-0.3125,0.012293815612792969,-0.751953125,0.0034906864166259766,-0.17578125,0.048480987548828125,-2.75,-0.003258228302001953,0.0625,0.0029878616333007812,0.0,0.06892919540405273,-3.9375,-0.004052877426147461,0.0625,0.027189254760742188,-1.58203125,1.430511474609375e-05,0.029296875,-0.006726384162902832,0.22372159361839294,0.0,0.0,0.0,0.0
2025-04-10 10:40:39.514867,0.03960061073303223,-2.5,0.0018199682235717773,-0.1875,0.0008349418640136719,0.0625,0.0458836555480957,-2.875,0.0026025772094726562,-0.3125,0.012301445007324219,-0.76171875,0.0034983158111572266,-0.17578125,0.048480987548828125,-2.75,-0.0032339096069335938,0.0625,0.0026404857635498047,0.0,0.06892919540405273,-3.9375,-0.004088878631591797,0.0625,0.027181625366210938,-1.58203125,1.430511474609375e-05,0.01953125,-0.006779909133911133,0.22372159361839294,0.0,0.0,0.0,0.0
2025-04-10 10:40:39.989695,0.03957653045654297,-2.5,0.0018318891525268555,-0.1875,0.0008349418640136719,0.0625,0.0458836555480957,-2.875,0.0026025772094726562,-0.3125,0.012293815612792969,-0.751953125,0.0034983158111572266,-0.17578125,0.048480987548828125,-2.75,-0.0032339096069335938,0.0625,0.0021131038665771484,0.0,0.06891727447509766,-3.9375,-0.004076898097991943,0.0625,0.027189254760742188,-1.58203125,6.67572021484375e-06,0.029296875,-0.006846904754638672,0.22372159361839294,0.0,0.0,0.0,0.0
2025-04-10 10:40:40.464754,0.03958845138549805,-2.5,0.0018199682235717773,-0.1875,0.0008349418640136719,0.0625,0.0458836555480957,-2.875,0.0026025772094726562,-0.25,0.012293815612792969,-0.76171875,0.0035135746002197266,-0.166015625,0.04845714569091797,-2.75,-0.0032339096069335938,0.0,0.0020411014556884766,0.0,0.06890535354614258,-3.9375,-0.00406491756439209,0.0625,0.027189254760742188,-1.591796875,-9.5367431640625e-07,0.029296875,-0.006980836391448975,0.22372159361839294,0.0,0.0,0.0,0.0
2025-04-10 10:40:40.943519,0.03958845138549805,-2.5,0.0018199682235717773,-0.1875,0.0008349418640136719,0.0625,0.0458836555480957,-2.875,0.0026025772094726562,-0.3125,0.012293815612792969,-0.751953125,0.0034983158111572266,-0.17578125,0.04845714569091797,-2.75,-0.003245830535888672,0.0625,0.0022208690643310547,0.0,0.06892919540405273,-3.9375,-0.004076898097991943,0.0625,0.027189254760742188,-1.58203125,-8.58306884765625e-06,0.029296875,-0.006967425346374512,0.22372159361839294,0.0,0.0,0.0,0.0
2025-04-10 10:40:41.415018,0.03957653045654297,-2.5,0.0018439292907714844,-0.1875,0.0008349418640136719,0.0625,0.045871734619140625,-2.875,0.0026025772094726562,-0.3125,0.012286186218261719,-0.76171875,0.003482818603515625,-0.17578125,0.048480987548828125,-2.75,-0.003258228302001953,0.0625,0.0022687911987304688,0.0,0.06895303726196289,-3.9375,-0.004088878631591797,0.0625,0.027189254760742188,-1.58203125,6.67572021484375e-06,0.0390625,-0.007007598876953125,0.1677911877632141,0.0,0.0,0.0,0.0
2025-04-10 10:40:41.889669,0.03958845138549805,-2.5,0.0018318891525268555,-0.1875,0.0008108615875244141,0.0625,0.045871734619140625,-2.875,0.0026025772094726562,-0.3125,0.012293815612792969,-0.76171875,0.0034906864166259766,-0.1953125,0.04845714569091797,-2.75,-0.0032339096069335938,0.0625,0.002580404281616211,0.0,0.06892919540405273,-3.9375,-0.004076898097991943,0.0625,0.027196884155273438,-1.591796875,6.67572021484375e-06,0.01953125,-0.007007598876953125,0.22372159361839294,0.0,0.0,0.0,0.0
2025-04-10 10:40:42.364697,0.03957653045654297,-2.5,0.0018199682235717773,-0.1875,0.0008108615875244141,0.0625,0.045871734619140625,-2.8125,0.0026025772094726562,-0.3125,0.012286186218261719,-0.751953125,0.0034906864166259766,-0.166015625,0.048480987548828125,-2.75,-0.003258228302001953,0.0625,0.002532482147216797,0.0,0.06891727447509766,-3.9375,-0.004076898097991943,0.0625,0.027189254760742188,-1.611328125,-9.5367431640625e-07,0.0390625,-0.007007598876953125,0.22372159361839294,0.0,0.0,0.0,0.0
2025-04-10 10:40:42.839940,0.03957653045654297,-2.4375,0.0018318891525268555,-0.1875,0.0008230209350585938,0.0,0.04590773582458496,-2.8125,0.0026025772094726562,-0.25,0.012293815612792969,-0.751953125,0.0034983158111572266,-0.17578125,0.048480987548828125,-2.75,-0.003258228302001953,0.0,0.002544403076171875,0.0,0.06891727447509766,-3.9375,-0.004076898097991943,0.0625,0.027196884155273438,-1.58203125,-9.5367431640625e-07,0.029296875,-0.007007598876953125,0.22372159361839294,0.0,0.0,0.0,0.0
2025-04-10 10:40:43.325192,0.03957653045654297,-2.5,0.0018439292907714844,-0.1875,0.0008349418640136719,0.0625,0.045871734619140625,-2.875,0.002626657485961914,-0.3125,0.012293815612792969,-0.751953125,0.0034906864166259766,-0.17578125,0.04846906661987305,-2.75,-0.003258228302001953,0.0625,0.0025205612182617188,0.0,0.06892919540405273,-3.9375,-0.004076898097991943,0.0625,0.027189254760742188,-1.591796875,-8.58306884765625e-06,0.029296875,-0.007007598876953125,0.22372159361839294,0.0,0.0,0.0,0.0
2025-04-10 10:40:43.817465,0.03960061073303223,-2.5,0.0018199682235717773,-0.1875,0.0008108615875244141,0.0625,0.0458836555480957,-2.8125,0.002626657485961914,-0.3125,0.012293815612792969,-0.751953125,0.0034906864166259766,-0.17578125,0.048480987548828125,-2.75,-0.003245830535888672,0.0,0.0025086402893066406,0.0,0.06892919540405273,-3.9375,-0.004076898097991943,0.0625,0.027196884155273438,-1.58203125,-9.5367431640625e-07,0.01953125,-0.007007598876953125,0.22372159361839294,0.0,0.0,0.0,0.0
2025-04-10 10:40:44.291299,0.03957653045654297,-2.5,0.0018199682235717773,-0.1875,0.0008108615875244141,0.0625,0.0458836555480957,-2.9375,0.0026025772094726562,-0.3125,0.012278556823730469,-0.76171875,0.0034906864166259766,-0.1953125,0.048480987548828125,-2.75,-0.0032339096069335938,0.0,0.0025565624237060547,0.0,0.06892919540405273,-3.9375,-0.00406491756439209,0.0625,0.027196884155273438,-1.591796875,6.67572021484375e-06,0.029296875,-0.007007598876953125,0.22372159361839294,0.0,0.0,0.0,0.0
2025-04-10 10:40:44.766334,0.03956460952758789,-2.5,0.0018199682235717773,-0.25,0.0008349418640136719,0.0625,0.045871734619140625,-2.875,0.0026025772094726562,-0.3125,0.012286186218261719,-0.76171875,0.0034906864166259766,-0.17578125,0.04845714569091797,-2.75,-0.003258228302001953,0.0625,0.002544403076171875,0.0,0.06891727447509766,-3.9375,-0.004076898097991943,0.0625,0.027196884155273438,-1.591796875,-9.5367431640625e-07,0.029296875,-0.007007598876953125,0.22372159361839294,0.0,0.0,0.0,0.0
2025-04-10 10:40:45.241311,0.03958845138549805,-2.5,0.0018678903579711914,-0.1875,0.0008349418640136719,0.0625,0.0458836555480957,-2.875,0.002626657485961914,-0.3125,0.012286186218261719,-0.76171875,0.0034906864166259766,-0.17578125,0.048480987548828125,-2.75,-0.003258228302001953,0.0625,0.002532482147216797,0.0,0.06891727447509766,-3.9375,-0.00406491756439209,0.0625,0.027196884155273438,-1.58203125,6.67572021484375e-06,0.029296875,-0.007034361362457275,0.22372159361839294,0.0,0.0,0.0,0.0
2025-04-10 10:40:45.716285,0.03960061073303223,-2.5,0.0018199682235717773,-0.1875,0.0008108615875244141,0.0625,0.0458836555480957,-2.875,0.002638578414916992,-0.3125,0.012293815612792969,-0.76171875,0.0034906864166259766,-0.166015625,0.048480987548828125,-2.75,-0.0032339096069335938,0.0625,0.002628326416015625,0.0,0.06892919540405273,-3.9375,-0.00406491756439209,0.0625,0.027196884155273438,-1.591796875,-9.5367431640625e-07,0.01953125,-0.007021009922027588,0.22372159361839294,0.0,0.0,0.0,0.0
2025-04-10 10:40:46.191347,0.03958845138549805,-2.4375,0.0018079280853271484,-0.25,0.0008349418640136719,0.0625,0.0458836555480957,-2.875,0.0026025772094726562,-0.3125,0.012286186218261719,-0.751953125,0.0034906864166259766,-0.17578125,0.04846906661987305,-2.75,-0.003245830535888672,0.0625,0.002544403076171875,0.0,0.06892919540405273,-3.9375,-0.004076898097991943,0.0625,0.027189254760742188,-1.591796875,2.193450927734375e-05,0.0390625,-0.007007598876953125,0.22372159361839294,0.0,0.0,0.0,0.0
2025-04-10 10:40:46.666360,0.03957653045654297,-2.5,0.0018318891525268555,-0.25,0.0008349418640136719,0.0625,0.0458836555480957,-2.875,0.0026025772094726562,-0.3125,0.012301445007324219,-0.76171875,0.0034906864166259766,-0.17578125,0.048480987548828125,-2.75,-0.003258228302001953,0.0625,0.0026044845581054688,0.0,0.06891727447509766,-3.9375,-0.004076898097991943,0.0625,0.027189254760742188,-1.58203125,1.430511474609375e-05,0.01953125,-0.007034361362457275,0.22372159361839294,0.0,0.0,0.0,0.0
2025-04-10 10:40:47.141282,0.03957653045654297,-2.5,0.0018318891525268555,-0.1875,0.0008349418640136719,0.0625,0.045871734619140625,-2.875,0.002626657485961914,-0.3125,0.012286186218261719,-0.751953125,0.0034906864166259766,-0.17578125,0.048480987548828125,-2.6875,-0.0032339096069335938,0.0625,0.002568483352661133,0.0,0.06891727447509766,-3.9375,-0.004076898097991943,0.0625,0.027196884155273438,-1.591796875,-9.5367431640625e-07,0.01953125,-0.007007598876953125,0.22372159361839294,0.0,0.0,0.0,0.0
2025-04-10 10:40:47.616337,0.03957653045654297,-2.5,0.0018199682235717773,-0.1875,0.0008349418640136719,0.0625,0.045871734619140625,-2.875,0.002626657485961914,-0.3125,0.012286186218261719,-0.76171875,0.003482818603515625,-0.17578125,0.04846906661987305,-2.75,-0.0032339096069335938,0.0625,0.002616405487060547,0.0,0.06892919540405273,-3.9375,-0.004076898097991943,0.0625,0.027196884155273438,-1.58203125,-9.5367431640625e-07,0.01953125,-0.007007598876953125,0.22372159361839294,0.0,0.0,0.0,0.0
2025-04-10 10:40:48.091123,0.03957653045654297,-2.5,0.0018318891525268555,-0.1875,0.0008349418640136719,0.0625,0.045871734619140625,-2.875,0.002626657485961914,-0.3125,0.012293815612792969,-0.751953125,0.0034906864166259766,-0.17578125,0.04846906661987305,-2.75,-0.0032339096069335938,0.0625,0.002628326416015625,-0.0625,0.06892919540405273,-3.9375,-0.004076898097991943,0.0625,0.027196884155273438,-1.572265625,-9.5367431640625e-07,0.029296875,-0.006887078285217285,0.22372159361839294,0.0,0.0,0.0,0.0
2025-04-10 10:40:48.570960,0.03956460952758789,-2.5,0.0018079280853271484,-0.1875,0.0008230209350585938,0.0625,0.0458836555480957,-2.875,0.002626657485961914,-0.3125,0.012286186218261719,-0.751953125,0.0034983158111572266,-0.17578125,0.048480987548828125,-2.75,-0.003245830535888672,0.0625,0.002616405487060547,0.0,0.06891727447509766,-3.9375,-0.004076898097991943,0.125,0.027189254760742188,-1.58203125,-9.5367431640625e-07,0.01953125,-0.0069272518157958984,0.22372159361839294,0.0,0.0,0.0,0.0
2025-04-10 10:40:49.068014,0.03957653045654297,-2.5,0.0018318891525268555,-0.1875,0.0008349418640136719,0.0625,0.0458836555480957,-2.875,0.002626657485961914,-0.25,0.012286186218261719,-0.751953125,0.0034906864166259766,-0.17578125,0.04845714569091797,-2.75,-0.003258228302001953,0.0,0.0026044845581054688,0.0,0.06891727447509766,-3.9375,-0.004076898097991943,0.0625,0.027189254760742188,-1.58203125,-9.5367431640625e-07,0.01953125,-0.006900489330291748,0.22372159361839294,0.0,0.0,0.0,0.0
2025-04-10 10:40:49.539175,0.03957653045654297,-2.5,0.0018318891525268555,-0.1875,0.0008230209350585938,0.0625,0.045871734619140625,-2.875,0.0026025772094726562,-0.3125,0.012286186218261719,-0.76171875,0.0034906864166259766,-0.17578125,0.04846906661987305,-2.75,-0.003245830535888672,0.0,0.002616405487060547,-0.0625,0.06892919540405273,-3.9375,-0.004076898097991943,0.0625,0.027196884155273438,-1.591796875,-9.5367431640625e-07,0.029296875,-0.0069272518157958984,0.22372159361839294,0.0,0.0,0.0,0.0
2025-04-10 10:40:50.014140,0.03957653045654297,-2.5,0.0018439292907714844,-0.1875,0.0008349418640136719,0.0625,0.0458836555480957,-2.8125,0.002626657485961914,-0.3125,0.012286186218261719,-0.76171875,0.003482818603515625,-0.166015625,0.048480987548828125,-2.75,-0.003245830535888672,0.0625,0.002628326416015625,0.0,0.06892919540405273,-4.0,-0.004088878631591797,0.0625,0.027196884155273438,-1.58203125,-9.5367431640625e-07,0.01953125,-0.006954014301300049,0.22372159361839294,0.0,0.0,0.0,0.0
2025-04-10 10:40:50.503546,0.03957653045654297,-2.5,0.0018318891525268555,-0.1875,0.0008349418640136719,0.0625,0.045871734619140625,-2.875,0.002626657485961914,-0.3125,0.012293815612792969,-0.76171875,0.0034906864166259766,-0.17578125,0.048480987548828125,-2.6875,-0.003258228302001953,0.0,0.0026044845581054688,0.0,0.06891727447509766,-3.9375,-0.004076898097991943,0.0625,0.027196884155273438,-1.591796875,-9.5367431640625e-07,0.029296875,-0.007021009922027588,0.22372159361839294,0.0,0.0,0.0,0.0
2025-04-10 10:40:50.979333,0.03957653045654297,-2.5,0.0018439292907714844,-0.1875,0.0008349418640136719,0.0625,0.0458836555480957,-2.875,0.002626657485961914,-0.25,0.012293815612792969,-0.76171875,0.0034906864166259766,-0.17578125,0.048480987548828125,-2.75,-0.003258228302001953,0.0625,0.0026044845581054688,0.0,0.06892919540405273,-3.9375,-0.004076898097991943,0.0625,0.027189254760742188,-1.58203125,6.67572021484375e-06,0.0390625,-0.007021009922027588,0.2796519994735718,0.0,0.0,0.0,0.0
2025-04-10 10:40:51.461982,0.03957653045654297,-2.5,0.0018318891525268555,-0.1875,0.0008349418640136719,0.0625,0.0458836555480957,-2.875,0.002626657485961914,-0.3125,0.012293815612792969,-0.76171875,0.0034906864166259766,-0.166015625,0.04845714569091797,-2.75,-0.003258228302001953,0.0,0.002616405487060547,0.0,0.06892919540405273,-3.9375,-0.004076898097991943,0.0625,0.027189254760742188,-1.58203125,-9.5367431640625e-07,0.029296875,-0.007007598876953125,0.22372159361839294,0.0,0.0,0.0,0.0
2025-04-10 10:40:51.937714,0.03958845138549805,-2.5,0.0018199682235717773,-0.1875,0.0008349418640136719,0.0625,0.045871734619140625,-2.8125,0.0026025772094726562,-0.25,0.012286186218261719,-0.76171875,0.0034906864166259766,-0.17578125,0.048480987548828125,-2.75,-0.003245830535888672,0.0625,0.0026044845581054688,0.0,0.06892919540405273,-3.9375,-0.00406491756439209,0.0625,0.027196884155273438,-1.58203125,-9.5367431640625e-07,0.029296875,-0.007034361362457275,0.22372159361839294,0.0,0.0,0.0,0.0
2025-04-10 10:40:52.412089,0.03957653045654297,-2.5,0.0018439292907714844,-0.25,0.0008349418640136719,0.0625,0.0458836555480957,-2.875,0.002626657485961914,-0.3125,0.012293815612792969,-0.76171875,0.0034906864166259766,-0.166015625,0.04846906661987305,-2.75,-0.003258228302001953,0.0,0.002628326416015625,-0.0625,0.06892919540405273,-3.9375,-0.004076898097991943,0.0625,0.027189254760742188,-1.591796875,6.67572021484375e-06,0.01953125,-0.007007598876953125,0.22372159361839294,0.0,0.0,0.0,0.0
2025-04-10 10:40:52.886887,0.03957653045654297,-2.5,0.0018318891525268555,-0.1875,0.0008349418640136719,0.0625,0.0458836555480957,-2.875,0.0026025772094726562,-0.25,0.012293815612792969,-0.751953125,0.0034906864166259766,-0.17578125,0.048480987548828125,-2.75,-0.0032339096069335938,0.0625,0.0026044845581054688,0.0,0.06891727447509766,-3.9375,-0.004076898097991943,0.0625,0.027196884155273438,-1.58203125,-8.58306884765625e-06,0.029296875,-0.007034361362457275,0.22372159361839294,0.0,0.0,0.0,0.0
2025-04-10 10:40:53.369272,0.03957653045654297,-2.5,0.0018199682235717773,-0.1875,0.0008230209350585938,0.0625,0.045871734619140625,-2.875,0.0026025772094726562,-0.25,0.012278556823730469,-0.76171875,0.0034906864166259766,-0.17578125,0.048480987548828125,-2.75,-0.0032339096069335938,0.0625,0.002628326416015625,0.0,0.06891727447509766,-3.9375,-0.004076898097991943,0.0625,0.027181625366210938,-1.58203125,6.67572021484375e-06,0.029296875,-0.007021009922027588,0.22372159361839294,0.0,0.0,0.0,0.0
2025-04-10 10:40:53.858345,0.03957653045654297,-2.5,0.0018199682235717773,-0.1875,0.0008349418640136719,0.0625,0.045871734619140625,-2.875,0.002626657485961914,-0.3125,0.012278556823730469,-0.76171875,0.003482818603515625,-0.17578125,0.048480987548828125,-2.6875,-0.0031981468200683594,0.0,0.002820253372192383,0.0,0.06892919540405273,-3.9375,-0.004040896892547607,0.0625,0.027196884155273438,-1.58203125,-9.5367431640625e-07,0.029296875,-0.007047772407531738,0.22372159361839294,0.0,0.0,0.0,0.0
2025-04-10 10:40:54.332993,0.03957653045654297,-2.5,0.0018199682235717773,-0.1875,0.0008349418640136719,0.0625,0.045871734619140625,-2.9375,0.002626657485961914,-0.3125,0.012293815612792969,-0.76171875,0.003482818603515625,-0.17578125,0.04845714569091797,-2.75,0.002590179443359375,-0.25,0.004102468490600586,-0.0625,0.06892919540405273,-3.9375,-0.004088878631591797,0.0625,0.027196884155273438,-1.58203125,-9.5367431640625e-07,0.029296875,-0.0069272518157958984,0.22372159361839294,0.0,0.0,0.0,0.0
2025-04-10 10:40:54.807855,0.03957653045654297,-2.5,0.0018439292907714844,-0.1875,0.0008349418640136719,0.0625,0.045871734619140625,-2.875,0.002626657485961914,-0.3125,0.012286186218261719,-0.751953125,0.0034906864166259766,-0.17578125,0.048480987548828125,-2.75,0.0024704933166503906,-0.25,0.0032875537872314453,-0.0625,0.06892919540405273,-3.9375,-0.004112839698791504,0.0625,0.027196884155273438,-1.58203125,-9.5367431640625e-07,0.029296875,-0.006980836391448975,0.22372159361839294,0.0,0.0,0.0,0.0
2025-04-10 10:40:55.282904,0.03957653045654297,-2.5,0.0018079280853271484,-0.1875,0.0008349418640136719,0.0625,0.045871734619140625,-2.875,0.0026025772094726562,-0.3125,0.012286186218261719,-0.751953125,0.0034906864166259766,-0.166015625,0.04845714569091797,-2.75,0.0021948814392089844,-0.25,0.0025925636291503906,0.0,0.06891727447509766,-3.9375,-0.004076898097991943,0.0625,0.027196884155273438,-1.58203125,-9.5367431640625e-07,0.029296875,-0.0071013569831848145,0.22372159361839294,0.0,0.0,0.0,0.0
2025-04-10 10:40:55.764720,0.03957653045654297,-2.5,0.0018199682235717773,-0.1875,0.0008349418640136719,0.0625,0.0458836555480957,-2.8125,0.002626657485961914,-0.3125,0.012301445007324219,-0.751953125,0.0034906864166259766,-0.166015625,0.048480987548828125,-2.75,0.002158641815185547,-0.25,0.002628326416015625,0.0,0.06891727447509766,-3.9375,-0.004076898097991943,0.0625,0.027189254760742188,-1.58203125,-9.5367431640625e-07,0.029296875,-0.007074534893035889,0.22372159361839294,0.0,0.0,0.0,0.0
2025-04-10 10:40:56.239739,0.03958845138549805,-2.5,0.0018439292907714844,-0.1875,0.00084686279296875,0.0625,0.045871734619140625,-2.875,0.0026025772094726562,-0.3125,0.012286186218261719,-0.76171875,0.0034983158111572266,-0.166015625,0.04845714569091797,-2.6875,0.002171039581298828,-0.25,0.003227710723876953,0.0,0.06891727447509766,-3.9375,-0.004124820232391357,0.0625,0.027189254760742188,-1.58203125,-8.58306884765625e-06,0.029296875,-0.006887078285217285,0.22372159361839294,0.0,0.0,0.0,0.0
2025-04-10 10:40:56.714978,0.03957653045654297,-2.5,0.0018199682235717773,-0.1875,0.0008349418640136719,0.0625,0.0458836555480957,-2.8125,0.0026025772094726562,-0.25,0.012286186218261719,-0.771484375,0.0034906864166259766,-0.17578125,0.04845714569091797,-2.75,0.002158641815185547,-0.3125,0.003059864044189453,-0.0625,0.06891727447509766,-3.9375,-0.00406491756439209,0.0625,0.027204513549804688,-1.591796875,-9.5367431640625e-07,0.029296875,-0.006900489330291748,0.22372159361839294,0.0,0.0,0.0,0.0
2025-04-10 10:40:57.189806,0.03957653045654297,-2.5,0.0018199682235717773,-0.1875,0.0008349418640136719,0.0625,0.04589557647705078,-2.875,0.0026025772094726562,-0.3125,0.012293815612792969,-0.76171875,0.003482818603515625,-0.17578125,0.04845714569091797,-2.75,0.002158641815185547,-0.3125,0.002964019775390625,0.0,0.06892919540405273,-3.9375,-0.004052877426147461,0.0625,0.027196884155273438,-1.58203125,6.67572021484375e-06,0.029296875,-0.0069272518157958984,0.22372159361839294,0.0,0.0,0.0,0.0
2025-04-10 10:40:57.664706,0.03957653045654297,-2.5,0.0018079280853271484,-0.25,0.0008230209350585938,0.0625,0.0458836555480957,-2.875,0.002626657485961914,-0.3125,0.012293815612792969,-0.751953125,0.0034906864166259766,-0.17578125,0.04845714569091797,-2.75,0.002158641815185547,-0.3125,0.003011941909790039,0.0,0.06891727447509766,-3.9375,-0.00406491756439209,0.0625,0.027189254760742188,-1.58203125,-8.58306884765625e-06,0.01953125,-0.007074534893035889,0.2796519994735718,0.0,0.0,0.0,0.0
2025-04-10 10:40:58.139730,0.03957653045654297,-2.5,0.0018199682235717773,-0.1875,0.0008349418640136719,0.0625,0.045871734619140625,-2.875,0.0026025772094726562,-0.25,0.012293815612792969,-0.76171875,0.0034906864166259766,-0.17578125,0.04845714569091797,-2.75,0.002171039581298828,-0.25,0.003023862838745117,-0.0625,0.06890535354614258,-3.9375,-0.004076898097991943,0.0625,0.027189254760742188,-1.58203125,6.67572021484375e-06,0.029296875,-0.0071013569831848145,0.22372159361839294,0.0,0.0,0.0,0.0
2025-04-10 10:40:58.614903,0.03957653045654297,-2.5,0.0018318891525268555,-0.1875,0.0008230209350585938,0.0625,0.0458836555480957,-2.875,0.0026025772094726562,-0.3125,0.012286186218261719,-0.751953125,0.003482818603515625,-0.17578125,0.04845714569091797,-2.75,0.0021948814392089844,-0.25,0.002939939498901367,-0.0625,0.06892919540405273,-3.9375,-0.004040896892547607,0.0625,0.027189254760742188,-1.58203125,-9.5367431640625e-07,0.0390625,-0.007074534893035889,0.2796519994735718,0.0,0.0,0.0,0.0
2025-04-10 10:40:59.089749,0.03956460952758789,-2.5,0.0018199682235717773,-0.1875,0.0008349418640136719,0.0625,0.045871734619140625,-2.875,0.0026025772094726562,-0.3125,0.012286186218261719,-0.72265625,0.0034906864166259766,-0.17578125,0.04845714569091797,-2.75,0.002158641815185547,-0.3125,0.003023862838745117,0.0,0.06892919540405273,-3.9375,-0.004040896892547607,0.0625,0.027189254760742188,-1.58203125,-9.5367431640625e-07,0.029296875,-0.0070879459381103516,0.2796519994735718,0.0,0.0,0.0,0.0
2025-04-10 10:40:59.564746,0.03956460952758789,-2.5,0.0018199682235717773,-0.1875,0.0008349418640136719,0.0625,0.0458836555480957,-2.8125,0.0026025772094726562,-0.3125,0.012293815612792969,-0.76171875,0.003482818603515625,-0.166015625,0.04845714569091797,-2.75,0.002171039581298828,-0.3125,0.0029878616333007812,-0.0625,0.06892919540405273,-3.9375,-0.004040896892547607,0.0625,0.027196884155273438,-1.572265625,6.67572021484375e-06,0.029296875,-0.007128119468688965,0.2796519994735718,0.0,0.0,0.0,0.0
2025-04-10 10:41:00.039766,0.03957653045654297,-2.5,0.0018439292907714844,-0.1875,0.0008349418640136719,0.0625,0.0458836555480957,-2.875,0.0026025772094726562,-0.25,0.012301445007324219,-0.76171875,0.0034906864166259766,-0.17578125,0.04845714569091797,-2.75,0.002171039581298828,-0.3125,0.0029518604278564453,-0.0625,0.06892919540405273,-3.9375,-0.004028916358947754,0.0625,0.027189254760742188,-1.58203125,-9.5367431640625e-07,0.029296875,-0.007128119468688965,0.22372159361839294,0.0,0.0,0.0,0.0
2025-04-10 10:41:00.524319,0.03956460952758789,-2.5,0.0017958879470825195,-0.1875,0.0008108615875244141,0.0625,0.045871734619140625,-2.875,0.002638578414916992,-0.3125,0.012293815612792969,-0.76171875,0.003482818603515625,-0.17578125,0.04845714569091797,-2.6875,0.002171039581298828,-0.25,0.0029878616333007812,-0.0625,0.06892919540405273,-3.9375,-0.004040896892547607,0.0625,0.027196884155273438,-1.591796875,-8.58306884765625e-06,0.01953125,-0.0071013569831848145,0.22372159361839294,0.0,0.0,0.0,0.0
2025-04-10 10:41:01.019400,0.03955268859863281,-2.5,0.0018199682235717773,-0.1875,0.0008349418640136719,0.0625,0.0458836555480957,-2.875,0.0026025772094726562,-0.3125,0.012278556823730469,-0.751953125,0.003482818603515625,-0.166015625,0.04846906661987305,-2.75,0.002171039581298828,-0.25,0.0029518604278564453,-0.0625,0.06891727447509766,-3.9375,-0.004028916358947754,0.0625,0.027181625366210938,-1.58203125,-8.58306884765625e-06,0.029296875,-0.0070879459381103516,0.2796519994735718,0.0,0.0,0.0,0.0
2025-04-10 10:41:01.518876,0.03956460952758789,-2.5,0.0018199682235717773,-0.1875,0.0008349418640136719,0.0625,0.0458836555480957,-2.875,0.002626657485961914,-0.3125,0.012286186218261719,-0.751953125,0.003482818603515625,-0.17578125,0.04845714569091797,-2.75,0.002171039581298828,-0.3125,0.0029039382934570312,0.0,0.06891727447509766,-3.9375,-0.004052877426147461,0.0625,0.027204513549804688,-1.58203125,-9.5367431640625e-07,0.029296875,-0.0071013569831848145,0.2796519994735718,0.0,0.0,0.0,0.0
2025-04-10 10:41:02.001534,0.03956460952758789,-2.5,0.0018439292907714844,-0.1875,0.0008230209350585938,0.0625,0.0458836555480957,-2.875,0.0026025772094726562,-0.25,0.012286186218261719,-0.751953125,0.0034906864166259766,-0.17578125,0.04845714569091797,-2.6875,0.002171039581298828,-0.3125,0.0029518604278564453,-0.0625,0.06892919540405273,-3.9375,-0.0040169358253479,0.0625,0.027189254760742188,-1.58203125,-8.58306884765625e-06,0.029296875,-0.0071013569831848145,0.22372159361839294,0.0,0.0,0.0,0.0
2025-04-10 10:41:02.476602,0.03956460952758789,-2.5,0.0018079280853271484,-0.1875,0.0008349418640136719,0.0625,0.0458836555480957,-2.8125,0.0026025772094726562,-0.3125,0.012286186218261719,-0.751953125,0.003482818603515625,-0.17578125,0.04845714569091797,-2.75,0.0021948814392089844,-0.3125,0.002975940704345703,-0.0625,0.06892919540405273,-3.9375,-0.0040169358253479,0.0625,0.027189254760742188,-1.58203125,-8.58306884765625e-06,0.029296875,-0.007074534893035889,0.2796519994735718,0.0,0.0,0.0,0.0
2025-04-10 10:41:02.951600,0.03956460952758789,-2.5,0.0018439292907714844,-0.1875,0.0008108615875244141,0.0625,0.0458836555480957,-2.875,0.0026025772094726562,-0.3125,0.012278556823730469,-0.751953125,0.0035059452056884766,-0.17578125,0.04845714569091797,-2.75,0.002171039581298828,-0.3125,0.0029039382934570312,-0.0625,0.06892919540405273,-3.9375,-0.0040169358253479,0.0625,0.027196884155273438,-1.58203125,-9.5367431640625e-07,0.029296875,-0.007061183452606201,0.22372159361839294,0.0,0.0,0.0,0.0
2025-04-10 10:41:03.429454,0.03956460952758789,-2.5,0.0018439292907714844,-0.1875,0.0008108615875244141,0.0625,0.045871734619140625,-2.875,0.0026025772094726562,-0.25,0.012286186218261719,-0.751953125,0.0034906864166259766,-0.17578125,0.04845714569091797,-2.75,0.0022668838500976562,-0.25,0.0030717849731445312,0.0,0.06891727447509766,-3.9375,-0.004028916358947754,0.0625,0.027189254760742188,-1.591796875,-1.621246337890625e-05,0.029296875,-0.006887078285217285,0.22372159361839294,0.0,0.0,0.0,0.0
2025-04-10 10:41:03.947854,0.03955268859863281,-2.5,0.0018318891525268555,-0.1875,0.0008349418640136719,0.0625,0.045871734619140625,-2.875,0.002626657485961914,-0.3125,0.012278556823730469,-0.751953125,0.0034906864166259766,-0.166015625,0.04845714569091797,-2.6875,0.0022668838500976562,-0.25,0.0030717849731445312,-0.0625,0.06892919540405273,-3.9375,-0.0040169358253479,0.0625,0.027196884155273438,-1.58203125,-1.621246337890625e-05,0.029296875,-0.006860315799713135,0.22372159361839294,0.0,0.0,0.0,0.0
2025-04-10 10:41:04.419487,0.03956460952758789,-2.5,0.0018079280853271484,-0.1875,0.0008349418640136719,0.0625,0.045871734619140625,-2.875,0.002626657485961914,-0.25,0.012286186218261719,-0.76171875,0.0034906864166259766,-0.17578125,0.04845714569091797,-2.75,0.002254962921142578,-0.25,0.002975940704345703,0.0,0.06891727447509766,-3.9375,-0.004052877426147461,0.0625,0.027196884155273438,-1.58203125,-1.621246337890625e-05,0.029296875,-0.006873667240142822,0.22372159361839294,0.0,0.0,0.0,0.0
2025-04-10 10:41:04.894404,0.03956460952758789,-2.5,0.0018079280853271484,-0.1875,0.0008349418640136719,0.0625,0.0458836555480957,-2.875,0.0026025772094726562,-0.25,0.012286186218261719,-0.732421875,0.0034906864166259766,-0.166015625,0.04844498634338379,-2.75,0.002242565155029297,-0.25,0.0026404857635498047,-0.0625,0.06890535354614258,-3.9375,-0.00406491756439209,0.0625,0.027196884155273438,-1.572265625,-2.4318695068359375e-05,0.01953125,-0.006887078285217285,0.22372159361839294,0.0,0.0,0.0,0.0
2025-04-10 10:41:05.369367,0.03956460952758789,-2.5,0.0018079280853271484,-0.25,0.0008349418640136719,0.0625,0.045871734619140625,-2.875,0.0026025772094726562,-0.3125,0.012278556823730469,-0.76171875,0.003475189208984375,-0.166015625,0.04845714569091797,-2.6875,0.0022306442260742188,-0.25,0.002664327621459961,0.0,0.06890535354614258,-3.9375,-0.004076898097991943,0.0625,0.027189254760742188,-1.58203125,-8.58306884765625e-06,0.029296875,-0.006980836391448975,0.22372159361839294,0.0,0.0,0.0,0.0
2025-04-10 10:41:05.844320,0.03956460952758789,-2.5,0.0018439292907714844,-0.1875,0.0008349418640136719,0.0625,0.0458836555480957,-2.8125,0.0025787353515625,-0.3125,0.012286186218261719,-0.751953125,0.003482818603515625,-0.17578125,0.048480987548828125,-2.75,0.002338409423828125,-0.25,0.0031557083129882812,-0.0625,0.06892919540405273,-3.9375,-0.004040896892547607,0.0625,0.027196884155273438,-1.58203125,-1.621246337890625e-05,0.01953125,-0.0069272518157958984,0.22372159361839294,0.0,0.0,0.0,0.0
2025-04-10 10:41:06.342091,0.03956460952758789,-2.5,0.0018079280853271484,-0.1875,0.00084686279296875,0.0,0.045871734619140625,-2.8125,0.0026025772094726562,-0.3125,0.012293815612792969,-0.76171875,0.003482818603515625,-0.17578125,0.04845714569091797,-2.6875,0.002686023712158203,-0.3125,0.0035991668701171875,-0.0625,0.06891727447509766,-3.9375,-0.004028916358947754,0.0625,0.027196884155273438,-1.58203125,-2.4318695068359375e-05,0.029296875,-0.0067397356033325195,0.22372159361839294,0.0,0.0,0.0,0.0
2025-04-10 10:41:06.817145,0.03956460952758789,-2.5,0.0018318891525268555,-0.1875,0.0008828639984130859,0.0625,0.0458836555480957,-2.875,0.002638578414916992,-0.25,0.012293815612792969,-0.751953125,0.0034906864166259766,-0.17578125,0.04844498634338379,-2.75,0.0033211708068847656,-0.3125,0.00152587890625,0.0625,0.06891727447509766,-3.9375,-0.004052877426147461,0.125,0.027204513549804688,-1.58203125,-3.1948089599609375e-05,0.029296875,-0.006726384162902832,0.22372159361839294,0.0,0.0,0.0,0.0
2025-04-10 10:41:07.292307,0.03955268859863281,-2.5,0.0018199682235717773,-0.1875,0.0008230209350585938,0.0625,0.0458836555480957,-2.875,0.0026025772094726562,-0.3125,0.012286186218261719,-0.751953125,0.0034906864166259766,-0.166015625,0.04845714569091797,-2.75,0.0005650520324707031,-0.1875,-0.00010395050048828125,0.125,0.06891727447509766,-3.9375,-0.00406491756439209,0.125,0.027189254760742188,-1.591796875,-3.9577484130859375e-05,0.01953125,-0.007074534893035889,0.22372159361839294,0.0,0.0,0.0,0.0
2025-04-10 10:41:07.778810,0.03956460952758789,-2.5,0.0018199682235717773,-0.1875,0.0008108615875244141,0.0625,0.04585981369018555,-2.875,0.002626657485961914,-0.3125,0.012286186218261719,-0.76171875,0.003482818603515625,-0.17578125,0.048480987548828125,-2.6875,0.0006489753723144531,-0.1875,3.814697265625e-06,0.0625,0.06891727447509766,-4.0,-0.004040896892547607,0.0625,0.027189254760742188,-1.591796875,-2.4318695068359375e-05,0.029296875,-0.007074534893035889,0.22372159361839294,0.0,0.0,0.0,0.0
2025-04-10 10:41:08.252784,0.03956460952758789,-2.5,0.0018199682235717773,-0.1875,0.0008108615875244141,0.0625,0.045871734619140625,-2.875,0.002626657485961914,-0.3125,0.012286186218261719,-0.76171875,0.0034906864166259766,-0.17578125,0.048480987548828125,-2.75,0.0006489753723144531,-0.1875,3.981590270996094e-05,0.0625,0.06892919540405273,-3.9375,-0.004028916358947754,0.0625,0.027189254760742188,-1.58203125,-1.621246337890625e-05,0.01953125,-0.007074534893035889,0.22372159361839294,0.0,0.0,0.0,0.0
2025-04-10 10:41:08.728670,0.03956460952758789,-2.5,0.0018199682235717773,-0.1875,0.0008230209350585938,0.0625,0.0458836555480957,-2.875,0.0026025772094726562,-0.3125,0.012286186218261719,-0.76171875,0.003475189208984375,-0.166015625,0.04845714569091797,-2.8125,0.0007085800170898438,-0.1875,0.0007588863372802734,0.0625,0.06892919540405273,-3.9375,-0.004052877426147461,0.0625,0.027181625366210938,-1.591796875,-2.4318695068359375e-05,0.029296875,-0.006980836391448975,0.22372159361839294,0.0,0.0,0.0,0.0
2025-04-10 10:41:09.203467,0.03956460952758789,-2.5,0.0018439292907714844,-0.1875,0.0008349418640136719,0.0625,0.0458836555480957,-2.875,0.002626657485961914,-0.3125,0.012286186218261719,-0.76171875,0.003482818603515625,-0.17578125,0.04846906661987305,-2.75,0.0007085800170898438,-0.1875,0.0007348060607910156,0.0625,0.06892919540405273,-3.9375,-0.0040169358253479,0.0625,0.027189254760742188,-1.58203125,-3.9577484130859375e-05,0.029296875,-0.006980836391448975,0.22372159361839294,0.0,0.0,0.0,0.0
2025-04-10 10:41:09.678899,0.03956460952758789,-2.5,0.0018199682235717773,-0.1875,0.0008230209350585938,0.0,0.04589557647705078,-2.8125,0.0026025772094726562,-0.25,0.012286186218261719,-0.76171875,0.0034906864166259766,-0.17578125,0.04846906661987305,-2.75,0.0007328987121582031,-0.1875,0.0008068084716796875,0.0625,0.06890535354614258,-3.9375,-0.0040169358253479,0.125,0.027196884155273438,-1.58203125,-1.621246337890625e-05,0.029296875,-0.006980836391448975,0.22372159361839294,0.0,0.0,0.0,0.0
2025-04-10 10:41:10.153639,0.03955268859863281,-2.5,0.0018079280853271484,-0.1875,0.0008349418640136719,0.0625,0.0458836555480957,-2.875,0.002626657485961914,-0.3125,0.012286186218261719,-0.76171875,0.003482818603515625,-0.17578125,0.04846906661987305,-2.75,0.0007448196411132812,-0.1875,0.0008428096771240234,0.0625,0.06891727447509766,-3.9375,-0.004028916358947754,0.0625,0.027196884155273438,-1.58203125,-2.4318695068359375e-05,0.0390625,-0.006967425346374512,0.22372159361839294,0.0,0.0,0.0,0.0
2025-04-10 10:41:10.628674,0.03957653045654297,-2.5,0.0018439292907714844,-0.1875,0.0008349418640136719,0.0625,0.0458836555480957,-2.9375,0.0026025772094726562,-0.3125,0.012286186218261719,-0.76171875,0.003475189208984375,-0.17578125,0.04846906661987305,-2.6875,0.0007448196411132812,-0.1875,0.0008788108825683594,0.0625,0.06891727447509766,-3.9375,-0.004028916358947754,0.125,0.027196884155273438,-1.58203125,-3.1948089599609375e-05,0.029296875,-0.006967425346374512,0.22372159361839294,0.0,0.0,0.0,0.0
2025-04-10 10:41:11.103560,0.03955268859863281,-2.5,0.0018199682235717773,-0.1875,0.0008349418640136719,0.0625,0.0458836555480957,-2.875,0.002626657485961914,-0.3125,0.012278556823730469,-0.76171875,0.003475189208984375,-0.166015625,0.048480987548828125,-2.75,0.0007686614990234375,-0.1875,0.0008068084716796875,0.0625,0.06891727447509766,-3.9375,-0.004052877426147461,0.0625,0.027196884155273438,-1.58203125,-3.1948089599609375e-05,0.029296875,-0.006994187831878662,0.22372159361839294,0.0,0.0,0.0,0.0
2025-04-10 10:41:11.578771,0.03956460952758789,-2.5,0.0018199682235717773,-0.1875,0.0008349418640136719,0.0625,0.0458836555480957,-2.875,0.002626657485961914,-0.3125,0.012286186218261719,-0.76171875,0.0034906864166259766,-0.17578125,0.04846906661987305,-2.6875,0.0007567405700683594,-0.1875,0.0008306503295898438,0.0625,0.06891727447509766,-3.9375,-0.004028916358947754,0.0625,0.027189254760742188,-1.58203125,-1.621246337890625e-05,0.029296875,-0.007007598876953125,0.22372159361839294,0.0,0.0,0.0,0.0
2025-04-10 10:41:12.053623,0.03956460952758789,-2.5,0.0018199682235717773,-0.1875,0.0008230209350585938,0.0625,0.045871734619140625,-2.875,0.0026025772094726562,-0.3125,0.012286186218261719,-0.751953125,0.0034906864166259766,-0.17578125,0.04845714569091797,-2.6875,0.0007448196411132812,-0.1875,0.0009505748748779297,0.0625,0.06891727447509766,-3.9375,-0.004040896892547607,0.0625,0.027196884155273438,-1.58203125,-3.1948089599609375e-05,0.029296875,-0.006980836391448975,0.22372159361839294,0.0,0.0,0.0,0.0
2025-04-10 10:41:12.528663,0.03956460952758789,-2.5,0.0018439292907714844,-0.1875,0.0008349418640136719,0.0625,0.0458836555480957,-2.8125,0.002626657485961914,-0.3125,0.012286186218261719,-0.732421875,0.003482818603515625,-0.17578125,0.04845714569091797,-2.75,0.0007567405700683594,-0.1875,0.0009267330169677734,0.0625,0.06891727447509766,-3.9375,-0.004040896892547607,0.0625,0.027196884155273438,-1.591796875,-3.1948089599609375e-05,0.029296875,-0.007007598876953125,0.22372159361839294,0.0,0.0,0.0,0.0
